( pcb2gcode 1.1.4 )

( This file uses a mill head of 0.03 to drill the 2bit sizes. )

G94     ( Inches per minute feed rate. )
G20     ( Units == INCHES.             )
G90     ( Absolute coordinates.        )
S10000  ( RPM spindle speed.           )
M3
G91.1
G0 Z0.10000

F1.00000
#50=-0.10000 ; zwork
#51=0.02000 ; zsafe
#52=0.00800 ; stepsize
G0 X0.22113 Y8.93700
G1 Z[#50+12*#52]
G2 I-0.04400 J0
G1 Z[#50+11*#52]
G2 I-0.04400 J0
G1 Z[#50+10*#52]
G2 I-0.04400 J0
G1 Z[#50+9*#52]
G2 I-0.04400 J0
G1 Z[#50+8*#52]
G2 I-0.04400 J0
G1 Z[#50+7*#52]
G2 I-0.04400 J0
G1 Z[#50+6*#52]
G2 I-0.04400 J0
G1 Z[#50+5*#52]
G2 I-0.04400 J0
G1 Z[#50+4*#52]
G2 I-0.04400 J0
G1 Z[#50+3*#52]
G2 I-0.04400 J0
G1 Z[#50+2*#52]
G2 I-0.04400 J0
G1 Z[#50+1*#52]
G2 I-0.04400 J0
G0 Z0.02000

G0 X0.22113 Y0.27560
G1 Z[#50+12*#52]
G2 I-0.04400 J0
G1 Z[#50+11*#52]
G2 I-0.04400 J0
G1 Z[#50+10*#52]
G2 I-0.04400 J0
G1 Z[#50+9*#52]
G2 I-0.04400 J0
G1 Z[#50+8*#52]
G2 I-0.04400 J0
G1 Z[#50+7*#52]
G2 I-0.04400 J0
G1 Z[#50+6*#52]
G2 I-0.04400 J0
G1 Z[#50+5*#52]
G2 I-0.04400 J0
G1 Z[#50+4*#52]
G2 I-0.04400 J0
G1 Z[#50+3*#52]
G2 I-0.04400 J0
G1 Z[#50+2*#52]
G2 I-0.04400 J0
G1 Z[#50+1*#52]
G2 I-0.04400 J0
G0 Z0.02000

G0 X0.28543 Y8.75980
G1 Z#50
G0 Z#51

G0 X0.28543 Y8.52360
G1 Z#50
G0 Z#51

G0 X0.28543 Y8.28740
G1 Z#50
G0 Z#51

G0 X0.28543 Y8.05120
G1 Z#50
G0 Z#51

G0 X0.28543 Y7.81500
G1 Z#50
G0 Z#51

G0 X0.28543 Y7.57870
G1 Z#50
G0 Z#51

G0 X0.28543 Y7.34250
G1 Z#50
G0 Z#51

G0 X0.28543 Y7.10630
G1 Z#50
G0 Z#51

G0 X0.28543 Y6.87010
G1 Z#50
G0 Z#51

G0 X0.28543 Y6.63390
G1 Z#50
G0 Z#51

G0 X0.28543 Y6.39760
G1 Z#50
G0 Z#51

G0 X0.28543 Y6.16140
G1 Z#50
G0 Z#51

G0 X0.28543 Y5.92520
G1 Z#50
G0 Z#51

G0 X0.28543 Y5.68900
G1 Z#50
G0 Z#51

G0 X0.28543 Y5.45280
G1 Z#50
G0 Z#51

G0 X0.28543 Y5.21650
G1 Z#50
G0 Z#51

G0 X0.28543 Y4.98030
G1 Z#50
G0 Z#51

G0 X0.28543 Y4.74410
G1 Z#50
G0 Z#51

G0 X0.28543 Y4.50790
G1 Z#50
G0 Z#51

G0 X0.28543 Y4.27170
G1 Z#50
G0 Z#51

G0 X0.28543 Y4.03540
G1 Z#50
G0 Z#51

G0 X0.28543 Y3.79920
G1 Z#50
G0 Z#51

G0 X0.28543 Y3.56300
G1 Z#50
G0 Z#51

G0 X0.28543 Y3.32680
G1 Z#50
G0 Z#51

G0 X0.28543 Y3.09060
G1 Z#50
G0 Z#51

G0 X0.28543 Y2.85430
G1 Z#50
G0 Z#51

G0 X0.28543 Y2.61810
G1 Z#50
G0 Z#51

G0 X0.28543 Y2.38190
G1 Z#50
G0 Z#51

G0 X0.28543 Y2.14570
G1 Z#50
G0 Z#51

G0 X0.28543 Y1.90940
G1 Z#50
G0 Z#51

G0 X0.28543 Y1.67320
G1 Z#50
G0 Z#51

G0 X0.28543 Y1.43700
G1 Z#50
G0 Z#51

G0 X0.28543 Y1.20080
G1 Z#50
G0 Z#51

G0 X0.28543 Y0.96460
G1 Z#50
G0 Z#51

G0 X0.28543 Y0.72830
G1 Z#50
G0 Z#51

G0 X0.06893 Y8.48240
G1 Z#50
G0 Z#51

G0 X0.06893 Y8.24610
G1 Z#50
G0 Z#51

G0 X0.06893 Y8.00990
G1 Z#50
G0 Z#51

G0 X0.06893 Y7.77370
G1 Z#50
G0 Z#51

G0 X0.06893 Y7.53750
G1 Z#50
G0 Z#51

G0 X0.06893 Y7.30130
G1 Z#50
G0 Z#51

G0 X0.06893 Y7.06500
G1 Z#50
G0 Z#51

G0 X0.06893 Y6.82880
G1 Z#50
G0 Z#51

G0 X0.06893 Y6.59260
G1 Z#50
G0 Z#51

G0 X0.06893 Y6.35640
G1 Z#50
G0 Z#51

G0 X0.06893 Y6.12020
G1 Z#50
G0 Z#51

G0 X0.06893 Y5.88390
G1 Z#50
G0 Z#51

G0 X0.06893 Y5.64770
G1 Z#50
G0 Z#51

G0 X0.06893 Y5.41150
G1 Z#50
G0 Z#51

G0 X0.06893 Y5.17530
G1 Z#50
G0 Z#51

G0 X0.06893 Y4.93910
G1 Z#50
G0 Z#51

G0 X0.06893 Y4.70280
G1 Z#50
G0 Z#51

G0 X0.06893 Y4.46660
G1 Z#50
G0 Z#51

G0 X0.06893 Y4.23040
G1 Z#50
G0 Z#51

G0 X0.06893 Y3.99420
G1 Z#50
G0 Z#51

G0 X0.06893 Y3.75800
G1 Z#50
G0 Z#51

G0 X0.06893 Y3.52170
G1 Z#50
G0 Z#51

G0 X0.06893 Y3.28550
G1 Z#50
G0 Z#51

G0 X0.06893 Y3.04930
G1 Z#50
G0 Z#51

G0 X0.06893 Y2.81310
G1 Z#50
G0 Z#51

G0 X0.06893 Y2.57690
G1 Z#50
G0 Z#51

G0 X0.06893 Y2.34060
G1 Z#50
G0 Z#51

G0 X0.06893 Y2.10440
G1 Z#50
G0 Z#51

G0 X0.06893 Y1.86820
G1 Z#50
G0 Z#51

G0 X0.06893 Y1.63200
G1 Z#50
G0 Z#51

G0 X0.06893 Y1.39570
G1 Z#50
G0 Z#51

G0 X0.06893 Y1.15950
G1 Z#50
G0 Z#51

G0 X0.06893 Y0.92330
G1 Z#50
G0 Z#51

G0 X0.06893 Y0.68710
G1 Z#50
G0 Z#51

G0 X0.06893 Y0.45090
G1 Z#50
G0 Z#51

G00 Z0.02000 ( All done -- retract )

M9 ( Coolant off. )
M2 ( Program end. )

