( pcb2gcode 1.1.4 )

G94     ( Inches per minute feed rate. )
G20     ( Units == INCHES.             )
G90     ( Absolute coordinates.        )
S10000  ( RPM spindle speed.           )
M3      ( Spindle on clockwise.        )

G64 P0.00500 ( set maximum deviation from commanded toolpath )

G04 P0 ( dwell for no time -- G64 should not smooth over this point )
G00 Z0.02000 ( retract )

G00 X-0.10267 Y9.05812 ( rapid move to begin. )
G01 Z-0.01500 F1.75000 ( plunge. )
G04 P0 ( dwell for no time -- G64 should not smooth over this point )
X-0.10267 Y9.05812
X-0.10267 Y-0.10088
X-0.10167 Y-0.10088
X-0.10167 Y-0.10188
X-0.10067 Y-0.10188
X-0.10067 Y-0.10288
X0.45633 Y-0.10288
X0.45633 Y-0.10188
X0.45733 Y-0.10188
X0.45733 Y-0.10088
X0.45833 Y-0.10088
X0.45833 Y9.15712
X0.45733 Y9.15712
X0.45733 Y9.15812
X0.45633 Y9.15812
X0.45633 Y9.15912
X-0.10067 Y9.15912
X-0.10067 Y9.15812
X-0.10167 Y9.15812
X-0.10167 Y9.15712
X-0.10267 Y9.15712
X-0.10267 Y9.05812
G01 Z-0.05000 F1.75000 ( plunge. )
G04 P0 ( dwell for no time -- G64 should not smooth over this point )
X-0.10267 Y9.05812
X-0.10267 Y-0.10088
X-0.10167 Y-0.10088
X-0.10167 Y-0.10188
X-0.10067 Y-0.10188
X-0.10067 Y-0.10288
X0.45633 Y-0.10288
X0.45633 Y-0.10188
X0.45733 Y-0.10188
X0.45733 Y-0.10088
X0.45833 Y-0.10088
X0.45833 Y9.15712
X0.45733 Y9.15712
X0.45733 Y9.15812
X0.45633 Y9.15812
X0.45633 Y9.15912
X-0.10067 Y9.15912
X-0.10067 Y9.15812
X-0.10167 Y9.15812
X-0.10167 Y9.15712
X-0.10267 Y9.15712
X-0.10267 Y9.05812
G01 Z-0.08500 F1.75000 ( plunge. )
G04 P0 ( dwell for no time -- G64 should not smooth over this point )
X-0.10267 Y9.05812
X-0.10267 Y-0.10088
X-0.10167 Y-0.10088
X-0.10167 Y-0.10188
X-0.10067 Y-0.10188
X-0.10067 Y-0.10288
X0.45633 Y-0.10288
X0.45633 Y-0.10188
X0.45733 Y-0.10188
X0.45733 Y-0.10088
X0.45833 Y-0.10088
X0.45833 Y9.15712
X0.45733 Y9.15712
X0.45733 Y9.15812
X0.45633 Y9.15812
X0.45633 Y9.15912
X-0.10067 Y9.15912
X-0.10067 Y9.15812
X-0.10167 Y9.15812
X-0.10167 Y9.15712
X-0.10267 Y9.15712
X-0.10267 Y9.05812

G04 P0 ( dwell for no time -- G64 should not smooth over this point )
G00 Z0.02000 ( retract )

M9 ( Coolant off. )
M2 ( Program end. )

