( pcb2gcode 1.1.4 )

G94     ( Inches per minute feed rate. )
G20     ( Units == INCHES.             )
G90     ( Absolute coordinates.        )
S10000  ( RPM spindle speed.           )
M3      ( Spindle on clockwise.        )

G64 P0.00500 ( set maximum deviation from commanded toolpath )

G04 P0 ( dwell for no time -- G64 should not smooth over this point )
G00 Z0.19685 ( retract )

G00 X0.13033 Y9.00612 ( rapid move to begin. )
G01 Z-0.01969 F1.96850 ( plunge. )
G04 P0 ( dwell for no time -- G64 should not smooth over this point )
X0.13033 Y9.00612
X0.12833 Y9.00612
X0.12833 Y9.00512
X0.12733 Y9.00512
X0.12733 Y9.00412
X0.12633 Y9.00412
X0.12633 Y9.00312
X0.12433 Y9.00312
X0.12433 Y9.00212
X0.12333 Y9.00212
X0.12333 Y9.00112
X0.12233 Y9.00112
X0.12233 Y9.00012
X0.12133 Y9.00012
X0.12133 Y8.99912
X0.11933 Y8.99912
X0.11933 Y8.99812
X0.11833 Y8.99812
X0.11833 Y8.99712
X0.11733 Y8.99712
X0.11733 Y8.99612
X0.11633 Y8.99612
X0.11633 Y8.99512
X0.11533 Y8.99512
X0.11533 Y8.99312
X0.11433 Y8.99312
X0.11433 Y8.99212
X0.11333 Y8.99212
X0.11333 Y8.99112
X0.11233 Y8.99112
X0.11233 Y8.99012
X0.11133 Y8.99012
X0.11133 Y8.98812
X0.11033 Y8.98812
X0.11033 Y8.98712
X0.10933 Y8.98712
X0.10933 Y8.98612
X0.10833 Y8.98612
X0.10833 Y8.98412
X0.10733 Y8.98412
X0.10733 Y8.98212
X0.10633 Y8.98212
X0.10633 Y8.98012
X0.10533 Y8.98012
X0.10533 Y8.97812
X0.10433 Y8.97812
X0.10433 Y8.97712
X0.10333 Y8.97712
X0.10333 Y8.97512
X0.10233 Y8.97512
X0.10233 Y8.97212
X0.10133 Y8.97212
X0.10133 Y8.96812
X0.10033 Y8.96812
X0.10033 Y8.96512
X0.09933 Y8.96512
X0.09933 Y8.96212
X0.09833 Y8.96212
X0.09833 Y8.95212
X0.09733 Y8.95212
X0.09733 Y8.92312
X0.09833 Y8.92312
X0.09833 Y8.91312
X0.09933 Y8.91312
X0.09933 Y8.91012
X0.10033 Y8.91012
X0.10033 Y8.90712
X0.10133 Y8.90712
X0.10133 Y8.90312
X0.10233 Y8.90312
X0.10233 Y8.90012
X0.10333 Y8.90012
X0.10333 Y8.89812
X0.10433 Y8.89812
X0.10433 Y8.89712
X0.10533 Y8.89712
X0.10533 Y8.89512
X0.10633 Y8.89512
X0.10633 Y8.89312
X0.10733 Y8.89312
X0.10733 Y8.89112
X0.10833 Y8.89112
X0.10833 Y8.88912
X0.10933 Y8.88912
X0.10933 Y8.88812
X0.11033 Y8.88812
X0.11033 Y8.88712
X0.11133 Y8.88712
X0.11133 Y8.88512
X0.11233 Y8.88512
X0.11233 Y8.88412
X0.11333 Y8.88412
X0.11333 Y8.88312
X0.11433 Y8.88312
X0.11433 Y8.88212
X0.11533 Y8.88212
X0.11533 Y8.88012
X0.11633 Y8.88012
X0.11633 Y8.87912
X0.11733 Y8.87912
X0.11733 Y8.87812
X0.11833 Y8.87812
X0.11833 Y8.87712
X0.11933 Y8.87712
X0.11933 Y8.87612
X0.12133 Y8.87612
X0.12133 Y8.87512
X0.12233 Y8.87512
X0.12233 Y8.87412
X0.12333 Y8.87412
X0.12333 Y8.87312
X0.12433 Y8.87312
X0.12433 Y8.87212
X0.12633 Y8.87212
X0.12633 Y8.87112
X0.12733 Y8.87112
X0.12733 Y8.87012
X0.12833 Y8.87012
X0.12833 Y8.86912
X0.13033 Y8.86912
X0.13033 Y8.86812
X0.13233 Y8.86812
X0.13233 Y8.86712
X0.13433 Y8.86712
X0.13433 Y8.86612
X0.13633 Y8.86612
X0.13633 Y8.86512
X0.13733 Y8.86512
X0.13733 Y8.86412
X0.13933 Y8.86412
X0.13933 Y8.86312
X0.14233 Y8.86312
X0.14233 Y8.86212
X0.14633 Y8.86212
X0.14633 Y8.86112
X0.14833 Y8.86112
X0.14833 Y8.80812
X0.13133 Y8.80812
X0.13133 Y8.71212
X0.14833 Y8.71212
X0.14833 Y8.57212
X0.13133 Y8.57212
X0.13133 Y8.47612
X0.14833 Y8.47612
X0.14833 Y8.33612
X0.13133 Y8.33612
X0.13133 Y8.24012
X0.14833 Y8.24012
X0.14833 Y8.09912
X0.13133 Y8.09912
X0.13133 Y8.00412
X0.14833 Y8.00412
X0.14833 Y7.86312
X0.13133 Y7.86312
X0.13133 Y7.76712
X0.14833 Y7.76712
X0.14833 Y7.62712
X0.13133 Y7.62712
X0.13133 Y7.53112
X0.14833 Y7.53112
X0.14833 Y7.39112
X0.13133 Y7.39112
X0.13133 Y7.29512
X0.14833 Y7.29512
X0.14833 Y7.15412
X0.13133 Y7.15412
X0.13133 Y7.05912
X0.14833 Y7.05912
X0.14833 Y6.91812
X0.13133 Y6.91812
X0.13133 Y6.82212
X0.14833 Y6.82212
X0.14833 Y6.68212
X0.13133 Y6.68212
X0.13133 Y6.58612
X0.14833 Y6.58612
X0.14833 Y6.44612
X0.13133 Y6.44612
X0.13133 Y6.35012
X0.14833 Y6.35012
X0.14833 Y6.21012
X0.13133 Y6.21012
X0.13133 Y6.11412
X0.14833 Y6.11412
X0.14833 Y5.97312
X0.13133 Y5.97312
X0.13133 Y5.87812
X0.14833 Y5.87812
X0.14833 Y5.73712
X0.13133 Y5.73712
X0.13133 Y5.64112
X0.14833 Y5.64112
X0.14833 Y5.50112
X0.13133 Y5.50112
X0.13133 Y5.40512
X0.14833 Y5.40512
X0.14833 Y5.26512
X0.13133 Y5.26512
X0.13133 Y5.16912
X0.14833 Y5.16912
X0.14833 Y5.02812
X0.13133 Y5.02812
X0.13133 Y4.93312
X0.14833 Y4.93312
X0.14833 Y4.79212
X0.13133 Y4.79212
X0.13133 Y4.69612
X0.14833 Y4.69612
X0.14833 Y4.55612
X0.13133 Y4.55612
X0.13133 Y4.46012
X0.14833 Y4.46012
X0.14833 Y4.32012
X0.13133 Y4.32012
X0.13133 Y4.22412
X0.14833 Y4.22412
X0.14833 Y4.08412
X0.13133 Y4.08412
X0.13133 Y3.98812
X0.14833 Y3.98812
X0.14833 Y3.84712
X0.13133 Y3.84712
X0.13133 Y3.75212
X0.14833 Y3.75212
X0.14833 Y3.61112
X0.13133 Y3.61112
X0.13133 Y3.51512
X0.14833 Y3.51512
X0.14833 Y3.37512
X0.13133 Y3.37512
X0.13133 Y3.27912
X0.14833 Y3.27912
X0.14833 Y3.13912
X0.13133 Y3.13912
X0.13133 Y3.04312
X0.14833 Y3.04312
X0.14833 Y2.90212
X0.13133 Y2.90212
X0.13133 Y2.80712
X0.14833 Y2.80712
X0.14833 Y2.66612
X0.13133 Y2.66612
X0.13133 Y2.57012
X0.14833 Y2.57012
X0.14833 Y2.43012
X0.13133 Y2.43012
X0.13133 Y2.33412
X0.14833 Y2.33412
X0.14833 Y2.19412
X0.13133 Y2.19412
X0.13133 Y2.09812
X0.14833 Y2.09812
X0.14833 Y1.95812
X0.13133 Y1.95812
X0.13133 Y1.86212
X0.14833 Y1.86212
X0.14833 Y1.72112
X0.13133 Y1.72112
X0.13133 Y1.62612
X0.14833 Y1.62612
X0.14833 Y1.48512
X0.13133 Y1.48512
X0.13133 Y1.38912
X0.14833 Y1.38912
X0.14833 Y1.24912
X0.13133 Y1.24912
X0.13133 Y1.15312
X0.14833 Y1.15312
X0.14833 Y1.01312
X0.13133 Y1.01312
X0.13133 Y0.91712
X0.14833 Y0.91712
X0.14833 Y0.77612
X0.13133 Y0.77612
X0.13133 Y0.68112
X0.20333 Y0.68112
X0.20333 Y0.77612
X0.18433 Y0.77612
X0.18433 Y0.91712
X0.20333 Y0.91712
X0.20333 Y1.01312
X0.18433 Y1.01312
X0.18433 Y1.15312
X0.20333 Y1.15312
X0.20333 Y1.24912
X0.18433 Y1.24912
X0.18433 Y1.38912
X0.20333 Y1.38912
X0.20333 Y1.48512
X0.18433 Y1.48512
X0.18433 Y1.62612
X0.20333 Y1.62612
X0.20333 Y1.72112
X0.18433 Y1.72112
X0.18433 Y1.86212
X0.20333 Y1.86212
X0.20333 Y1.95812
X0.18433 Y1.95812
X0.18433 Y2.09812
X0.20333 Y2.09812
X0.20333 Y2.19412
X0.18433 Y2.19412
X0.18433 Y2.33412
X0.20333 Y2.33412
X0.20333 Y2.43012
X0.18433 Y2.43012
X0.18433 Y2.57012
X0.20333 Y2.57012
X0.20333 Y2.66612
X0.18433 Y2.66612
X0.18433 Y2.80712
X0.20333 Y2.80712
X0.20333 Y2.90212
X0.18433 Y2.90212
X0.18433 Y3.04312
X0.20333 Y3.04312
X0.20333 Y3.13912
X0.18433 Y3.13912
X0.18433 Y3.27912
X0.20333 Y3.27912
X0.20333 Y3.37512
X0.18433 Y3.37512
X0.18433 Y3.51512
X0.20333 Y3.51512
X0.20333 Y3.61112
X0.18433 Y3.61112
X0.18433 Y3.75212
X0.20333 Y3.75212
X0.20333 Y3.84712
X0.18433 Y3.84712
X0.18433 Y3.98812
X0.20333 Y3.98812
X0.20333 Y4.08412
X0.18433 Y4.08412
X0.18433 Y4.22412
X0.20333 Y4.22412
X0.20333 Y4.32012
X0.18433 Y4.32012
X0.18433 Y4.46012
X0.20333 Y4.46012
X0.20333 Y4.55612
X0.18433 Y4.55612
X0.18433 Y4.69612
X0.20333 Y4.69612
X0.20333 Y4.79212
X0.18433 Y4.79212
X0.18433 Y4.93312
X0.20333 Y4.93312
X0.20333 Y5.02812
X0.18433 Y5.02812
X0.18433 Y5.16912
X0.20333 Y5.16912
X0.20333 Y5.26512
X0.18433 Y5.26512
X0.18433 Y5.40512
X0.20333 Y5.40512
X0.20333 Y5.50112
X0.18433 Y5.50112
X0.18433 Y5.64112
X0.20333 Y5.64112
X0.20333 Y5.73712
X0.18433 Y5.73712
X0.18433 Y5.87812
X0.20333 Y5.87812
X0.20333 Y5.97312
X0.18433 Y5.97312
X0.18433 Y6.11412
X0.20333 Y6.11412
X0.20333 Y6.21012
X0.18433 Y6.21012
X0.18433 Y6.35012
X0.20333 Y6.35012
X0.20333 Y6.44612
X0.18433 Y6.44612
X0.18433 Y6.58612
X0.20333 Y6.58612
X0.20333 Y6.68212
X0.18433 Y6.68212
X0.18433 Y6.82212
X0.20333 Y6.82212
X0.20333 Y6.91812
X0.18433 Y6.91812
X0.18433 Y7.05912
X0.20333 Y7.05912
X0.20333 Y7.15412
X0.18433 Y7.15412
X0.18433 Y7.29512
X0.20333 Y7.29512
X0.20333 Y7.39112
X0.18433 Y7.39112
X0.18433 Y7.53112
X0.20333 Y7.53112
X0.20333 Y7.62712
X0.18433 Y7.62712
X0.18433 Y7.76712
X0.20333 Y7.76712
X0.20333 Y7.86312
X0.18433 Y7.86312
X0.18433 Y8.00412
X0.20333 Y8.00412
X0.20333 Y8.09912
X0.18433 Y8.09912
X0.18433 Y8.24012
X0.20333 Y8.24012
X0.20333 Y8.33612
X0.18433 Y8.33612
X0.18433 Y8.47612
X0.20333 Y8.47612
X0.20333 Y8.57212
X0.18433 Y8.57212
X0.18433 Y8.71212
X0.20333 Y8.71212
X0.20333 Y8.80812
X0.18433 Y8.80812
X0.18433 Y8.85812
X0.19133 Y8.85812
X0.19133 Y8.85912
X0.20133 Y8.85912
X0.20133 Y8.86012
X0.20433 Y8.86012
X0.20433 Y8.86112
X0.20733 Y8.86112
X0.20733 Y8.86212
X0.21133 Y8.86212
X0.21133 Y8.86312
X0.21433 Y8.86312
X0.21433 Y8.86412
X0.21633 Y8.86412
X0.21633 Y8.86512
X0.21733 Y8.86512
X0.21733 Y8.86612
X0.21933 Y8.86612
X0.21933 Y8.86712
X0.22133 Y8.86712
X0.22133 Y8.86812
X0.22333 Y8.86812
X0.22333 Y8.86912
X0.22533 Y8.86912
X0.22533 Y8.87012
X0.22633 Y8.87012
X0.22633 Y8.87112
X0.22833 Y8.87112
X0.22833 Y8.87212
X0.22933 Y8.87212
X0.22933 Y8.87312
X0.23033 Y8.87312
X0.23033 Y8.87412
X0.23133 Y8.87412
X0.23133 Y8.87512
X0.23233 Y8.87512
X0.23233 Y8.87612
X0.23433 Y8.87612
X0.23433 Y8.87712
X0.23533 Y8.87712
X0.23533 Y8.87812
X0.23633 Y8.87812
X0.23633 Y8.87912
X0.23733 Y8.87912
X0.23733 Y8.88012
X0.23833 Y8.88012
X0.23833 Y8.88212
X0.23933 Y8.88212
X0.23933 Y8.88312
X0.24033 Y8.88312
X0.24033 Y8.88412
X0.24133 Y8.88412
X0.24133 Y8.88512
X0.24233 Y8.88512
X0.24233 Y8.88612
X0.24333 Y8.88612
X0.24333 Y8.88812
X0.24433 Y8.88812
X0.24433 Y8.88912
X0.24533 Y8.88912
X0.24533 Y8.89112
X0.24633 Y8.89112
X0.24633 Y8.89312
X0.24733 Y8.89312
X0.24733 Y8.89512
X0.24833 Y8.89512
X0.24833 Y8.89712
X0.24933 Y8.89712
X0.24933 Y8.89812
X0.25033 Y8.89812
X0.25033 Y8.90012
X0.25133 Y8.90012
X0.25133 Y8.90312
X0.25233 Y8.90312
X0.25233 Y8.90712
X0.25333 Y8.90712
X0.25333 Y8.91012
X0.25433 Y8.91012
X0.25433 Y8.91312
X0.25533 Y8.91312
X0.25533 Y8.92312
X0.25633 Y8.92312
X0.25633 Y8.95212
X0.25533 Y8.95212
X0.25533 Y8.96212
X0.25433 Y8.96212
X0.25433 Y8.96512
X0.25333 Y8.96512
X0.25333 Y8.96812
X0.25233 Y8.96812
X0.25233 Y8.97212
X0.25133 Y8.97212
X0.25133 Y8.97512
X0.25033 Y8.97512
X0.25033 Y8.97712
X0.24933 Y8.97712
X0.24933 Y8.97812
X0.24833 Y8.97812
X0.24833 Y8.98012
X0.24733 Y8.98012
X0.24733 Y8.98212
X0.24633 Y8.98212
X0.24633 Y8.98412
X0.24533 Y8.98412
X0.24533 Y8.98612
X0.24433 Y8.98612
X0.24433 Y8.98712
X0.24333 Y8.98712
X0.24333 Y8.98912
X0.24233 Y8.98912
X0.24233 Y8.99012
X0.24133 Y8.99012
X0.24133 Y8.99112
X0.24033 Y8.99112
X0.24033 Y8.99212
X0.23933 Y8.99212
X0.23933 Y8.99312
X0.23833 Y8.99312
X0.23833 Y8.99512
X0.23733 Y8.99512
X0.23733 Y8.99612
X0.23633 Y8.99612
X0.23633 Y8.99712
X0.23533 Y8.99712
X0.23533 Y8.99812
X0.23433 Y8.99812
X0.23433 Y8.99912
X0.23233 Y8.99912
X0.23233 Y9.00012
X0.23133 Y9.00012
X0.23133 Y9.00112
X0.23033 Y9.00112
X0.23033 Y9.00212
X0.22933 Y9.00212
X0.22933 Y9.00312
X0.22833 Y9.00312
X0.22833 Y9.00412
X0.22633 Y9.00412
X0.22633 Y9.00512
X0.22533 Y9.00512
X0.22533 Y9.00612
X0.22333 Y9.00612
X0.22333 Y9.00712
X0.22133 Y9.00712
X0.22133 Y9.00812
X0.21933 Y9.00812
X0.21933 Y9.00912
X0.21733 Y9.00912
X0.21733 Y9.01012
X0.21633 Y9.01012
X0.21633 Y9.01112
X0.21433 Y9.01112
X0.21433 Y9.01212
X0.21133 Y9.01212
X0.21133 Y9.01312
X0.20733 Y9.01312
X0.20733 Y9.01412
X0.20433 Y9.01412
X0.20433 Y9.01512
X0.20133 Y9.01512
X0.20133 Y9.01612
X0.19133 Y9.01612
X0.19133 Y9.01712
X0.16233 Y9.01712
X0.16233 Y9.01612
X0.15233 Y9.01612
X0.15233 Y9.01512
X0.14933 Y9.01512
X0.14933 Y9.01412
X0.14633 Y9.01412
X0.14633 Y9.01312
X0.14233 Y9.01312
X0.14233 Y9.01212
X0.13933 Y9.01212
X0.13933 Y9.01112
X0.13733 Y9.01112
X0.13733 Y9.01012
X0.13633 Y9.01012
X0.13633 Y9.00912
X0.13433 Y9.00912
X0.13433 Y9.00812
X0.13233 Y9.00812
X0.13233 Y9.00712
X0.13033 Y9.00712
X0.13033 Y9.00612
G04 P0 ( dwell for no time -- G64 should not smooth over this point )
G00 Z0.19685 ( retract )

G00 X0.24933 Y8.79712 ( rapid move to begin. )
G01 Z-0.01969 F1.96850 ( plunge. )
G04 P0 ( dwell for no time -- G64 should not smooth over this point )
X0.24933 Y8.79712
X0.24933 Y8.71212
X0.32133 Y8.71212
X0.32133 Y8.80812
X0.24933 Y8.80812
X0.24933 Y8.79712
G04 P0 ( dwell for no time -- G64 should not smooth over this point )
G00 Z0.19685 ( retract )

G00 X0.24933 Y8.56112 ( rapid move to begin. )
G01 Z-0.01969 F1.96850 ( plunge. )
G04 P0 ( dwell for no time -- G64 should not smooth over this point )
X0.24933 Y8.56112
X0.24933 Y8.47612
X0.32133 Y8.47612
X0.32133 Y8.57212
X0.24933 Y8.57212
X0.24933 Y8.56112
G04 P0 ( dwell for no time -- G64 should not smooth over this point )
G00 Z0.19685 ( retract )

G00 X0.04033 Y8.50212 ( rapid move to begin. )
G01 Z-0.01969 F1.96850 ( plunge. )
G04 P0 ( dwell for no time -- G64 should not smooth over this point )
X0.04033 Y8.50212
X0.04033 Y8.50112
X0.03933 Y8.50112
X0.03933 Y8.49612
X0.03833 Y8.49612
X0.03833 Y8.46912
X0.03933 Y8.46912
X0.03933 Y8.46412
X0.04033 Y8.46412
X0.04033 Y8.46212
X0.04133 Y8.46212
X0.04133 Y8.46112
X0.04233 Y8.46112
X0.04233 Y8.45912
X0.04333 Y8.45912
X0.04333 Y8.45812
X0.04433 Y8.45812
X0.04433 Y8.45712
X0.04533 Y8.45712
X0.04533 Y8.45612
X0.04733 Y8.45612
X0.04733 Y8.45512
X0.04933 Y8.45512
X0.04933 Y8.45412
X0.05033 Y8.45412
X0.05033 Y8.27512
X0.04933 Y8.27512
X0.04933 Y8.27412
X0.04733 Y8.27412
X0.04733 Y8.27312
X0.04533 Y8.27312
X0.04533 Y8.27212
X0.04433 Y8.27212
X0.04433 Y8.27112
X0.04333 Y8.27112
X0.04333 Y8.27012
X0.04233 Y8.27012
X0.04233 Y8.26812
X0.04133 Y8.26812
X0.04133 Y8.26712
X0.04033 Y8.26712
X0.04033 Y8.26512
X0.03933 Y8.26512
X0.03933 Y8.26012
X0.03833 Y8.26012
X0.03833 Y8.23312
X0.03933 Y8.23312
X0.03933 Y8.22812
X0.04033 Y8.22812
X0.04033 Y8.22612
X0.04133 Y8.22612
X0.04133 Y8.22512
X0.04233 Y8.22512
X0.04233 Y8.22312
X0.04333 Y8.22312
X0.04333 Y8.22212
X0.04433 Y8.22212
X0.04433 Y8.22112
X0.04533 Y8.22112
X0.04533 Y8.22012
X0.04733 Y8.22012
X0.04733 Y8.21912
X0.04933 Y8.21912
X0.04933 Y8.21812
X0.05033 Y8.21812
X0.05033 Y8.03912
X0.04933 Y8.03912
X0.04933 Y8.03812
X0.04733 Y8.03812
X0.04733 Y8.03712
X0.04533 Y8.03712
X0.04533 Y8.03612
X0.04433 Y8.03612
X0.04433 Y8.03512
X0.04333 Y8.03512
X0.04333 Y8.03412
X0.04233 Y8.03412
X0.04233 Y8.03212
X0.04133 Y8.03212
X0.04133 Y8.03112
X0.04033 Y8.03112
X0.04033 Y8.02912
X0.03933 Y8.02912
X0.03933 Y8.02412
X0.03833 Y8.02412
X0.03833 Y7.99712
X0.03933 Y7.99712
X0.03933 Y7.99212
X0.04033 Y7.99212
X0.04033 Y7.99012
X0.04133 Y7.99012
X0.04133 Y7.98912
X0.04233 Y7.98912
X0.04233 Y7.98712
X0.04333 Y7.98712
X0.04333 Y7.98612
X0.04433 Y7.98612
X0.04433 Y7.98512
X0.04533 Y7.98512
X0.04533 Y7.98412
X0.04733 Y7.98412
X0.04733 Y7.98312
X0.04933 Y7.98312
X0.04933 Y7.98212
X0.05033 Y7.98212
X0.05033 Y7.80212
X0.04933 Y7.80212
X0.04933 Y7.80112
X0.04733 Y7.80112
X0.04733 Y7.80012
X0.04533 Y7.80012
X0.04533 Y7.79912
X0.04433 Y7.79912
X0.04433 Y7.79812
X0.04333 Y7.79812
X0.04333 Y7.79712
X0.04233 Y7.79712
X0.04233 Y7.79512
X0.04133 Y7.79512
X0.04133 Y7.79412
X0.04033 Y7.79412
X0.04033 Y7.79212
X0.03933 Y7.79212
X0.03933 Y7.78712
X0.03833 Y7.78712
X0.03833 Y7.76012
X0.03933 Y7.76012
X0.03933 Y7.75512
X0.04033 Y7.75512
X0.04033 Y7.75312
X0.04133 Y7.75312
X0.04133 Y7.75212
X0.04233 Y7.75212
X0.04233 Y7.75012
X0.04333 Y7.75012
X0.04333 Y7.74912
X0.04433 Y7.74912
X0.04433 Y7.74812
X0.04533 Y7.74812
X0.04533 Y7.74712
X0.04733 Y7.74712
X0.04733 Y7.74612
X0.04933 Y7.74612
X0.04933 Y7.74512
X0.05033 Y7.74512
X0.05033 Y7.56612
X0.04933 Y7.56612
X0.04933 Y7.56512
X0.04733 Y7.56512
X0.04733 Y7.56412
X0.04533 Y7.56412
X0.04533 Y7.56312
X0.04433 Y7.56312
X0.04433 Y7.56212
X0.04333 Y7.56212
X0.04333 Y7.56112
X0.04233 Y7.56112
X0.04233 Y7.55912
X0.04133 Y7.55912
X0.04133 Y7.55812
X0.04033 Y7.55812
X0.04033 Y7.55612
X0.03933 Y7.55612
X0.03933 Y7.55112
X0.03833 Y7.55112
X0.03833 Y7.52412
X0.03933 Y7.52412
X0.03933 Y7.51912
X0.04033 Y7.51912
X0.04033 Y7.51712
X0.04133 Y7.51712
X0.04133 Y7.51612
X0.04233 Y7.51612
X0.04233 Y7.51412
X0.04333 Y7.51412
X0.04333 Y7.51312
X0.04433 Y7.51312
X0.04433 Y7.51212
X0.04533 Y7.51212
X0.04533 Y7.51112
X0.04733 Y7.51112
X0.04733 Y7.51012
X0.04933 Y7.51012
X0.04933 Y7.50912
X0.05033 Y7.50912
X0.05033 Y7.33012
X0.04933 Y7.33012
X0.04933 Y7.32912
X0.04733 Y7.32912
X0.04733 Y7.32812
X0.04533 Y7.32812
X0.04533 Y7.32712
X0.04433 Y7.32712
X0.04433 Y7.32612
X0.04333 Y7.32612
X0.04333 Y7.32512
X0.04233 Y7.32512
X0.04233 Y7.32312
X0.04133 Y7.32312
X0.04133 Y7.32212
X0.04033 Y7.32212
X0.04033 Y7.32012
X0.03933 Y7.32012
X0.03933 Y7.31512
X0.03833 Y7.31512
X0.03833 Y7.28812
X0.03933 Y7.28812
X0.03933 Y7.28312
X0.04033 Y7.28312
X0.04033 Y7.28112
X0.04133 Y7.28112
X0.04133 Y7.28012
X0.04233 Y7.28012
X0.04233 Y7.27812
X0.04333 Y7.27812
X0.04333 Y7.27712
X0.04433 Y7.27712
X0.04433 Y7.27612
X0.04533 Y7.27612
X0.04533 Y7.27512
X0.04733 Y7.27512
X0.04733 Y7.27412
X0.04933 Y7.27412
X0.04933 Y7.27312
X0.05033 Y7.27312
X0.05033 Y7.09412
X0.04933 Y7.09412
X0.04933 Y7.09312
X0.04733 Y7.09312
X0.04733 Y7.09212
X0.04533 Y7.09212
X0.04533 Y7.09112
X0.04433 Y7.09112
X0.04433 Y7.09012
X0.04333 Y7.09012
X0.04333 Y7.08912
X0.04233 Y7.08912
X0.04233 Y7.08712
X0.04133 Y7.08712
X0.04133 Y7.08612
X0.04033 Y7.08612
X0.04033 Y7.08412
X0.03933 Y7.08412
X0.03933 Y7.07912
X0.03833 Y7.07912
X0.03833 Y7.05212
X0.03933 Y7.05212
X0.03933 Y7.04712
X0.04033 Y7.04712
X0.04033 Y7.04512
X0.04133 Y7.04512
X0.04133 Y7.04412
X0.04233 Y7.04412
X0.04233 Y7.04212
X0.04333 Y7.04212
X0.04333 Y7.04112
X0.04433 Y7.04112
X0.04433 Y7.04012
X0.04533 Y7.04012
X0.04533 Y7.03912
X0.04733 Y7.03912
X0.04733 Y7.03812
X0.04933 Y7.03812
X0.04933 Y7.03712
X0.05033 Y7.03712
X0.05033 Y6.85812
X0.04933 Y6.85812
X0.04933 Y6.85712
X0.04733 Y6.85712
X0.04733 Y6.85612
X0.04533 Y6.85612
X0.04533 Y6.85512
X0.04433 Y6.85512
X0.04433 Y6.85412
X0.04333 Y6.85412
X0.04333 Y6.85312
X0.04233 Y6.85312
X0.04233 Y6.85112
X0.04133 Y6.85112
X0.04133 Y6.85012
X0.04033 Y6.85012
X0.04033 Y6.84812
X0.03933 Y6.84812
X0.03933 Y6.84312
X0.03833 Y6.84312
X0.03833 Y6.81612
X0.03933 Y6.81612
X0.03933 Y6.81112
X0.04033 Y6.81112
X0.04033 Y6.80912
X0.04133 Y6.80912
X0.04133 Y6.80812
X0.04233 Y6.80812
X0.04233 Y6.80612
X0.04333 Y6.80612
X0.04333 Y6.80512
X0.04433 Y6.80512
X0.04433 Y6.80412
X0.04533 Y6.80412
X0.04533 Y6.80312
X0.04733 Y6.80312
X0.04733 Y6.80212
X0.04933 Y6.80212
X0.04933 Y6.80112
X0.05033 Y6.80112
X0.05033 Y6.62112
X0.04933 Y6.62112
X0.04933 Y6.62012
X0.04733 Y6.62012
X0.04733 Y6.61912
X0.04533 Y6.61912
X0.04533 Y6.61812
X0.04433 Y6.61812
X0.04433 Y6.61712
X0.04333 Y6.61712
X0.04333 Y6.61612
X0.04233 Y6.61612
X0.04233 Y6.61412
X0.04133 Y6.61412
X0.04133 Y6.61312
X0.04033 Y6.61312
X0.04033 Y6.61112
X0.03933 Y6.61112
X0.03933 Y6.60612
X0.03833 Y6.60612
X0.03833 Y6.57912
X0.03933 Y6.57912
X0.03933 Y6.57412
X0.04033 Y6.57412
X0.04033 Y6.57212
X0.04133 Y6.57212
X0.04133 Y6.57112
X0.04233 Y6.57112
X0.04233 Y6.56912
X0.04333 Y6.56912
X0.04333 Y6.56812
X0.04433 Y6.56812
X0.04433 Y6.56712
X0.04533 Y6.56712
X0.04533 Y6.56612
X0.04733 Y6.56612
X0.04733 Y6.56512
X0.04933 Y6.56512
X0.04933 Y6.56412
X0.05033 Y6.56412
X0.05033 Y6.38512
X0.04933 Y6.38512
X0.04933 Y6.38412
X0.04733 Y6.38412
X0.04733 Y6.38312
X0.04533 Y6.38312
X0.04533 Y6.38212
X0.04433 Y6.38212
X0.04433 Y6.38112
X0.04333 Y6.38112
X0.04333 Y6.38012
X0.04233 Y6.38012
X0.04233 Y6.37812
X0.04133 Y6.37812
X0.04133 Y6.37712
X0.04033 Y6.37712
X0.04033 Y6.37512
X0.03933 Y6.37512
X0.03933 Y6.37012
X0.03833 Y6.37012
X0.03833 Y6.34312
X0.03933 Y6.34312
X0.03933 Y6.33812
X0.04033 Y6.33812
X0.04033 Y6.33612
X0.04133 Y6.33612
X0.04133 Y6.33512
X0.04233 Y6.33512
X0.04233 Y6.33312
X0.04333 Y6.33312
X0.04333 Y6.33212
X0.04433 Y6.33212
X0.04433 Y6.33112
X0.04533 Y6.33112
X0.04533 Y6.33012
X0.04733 Y6.33012
X0.04733 Y6.32912
X0.04933 Y6.32912
X0.04933 Y6.32812
X0.05033 Y6.32812
X0.05033 Y6.14912
X0.04933 Y6.14912
X0.04933 Y6.14812
X0.04733 Y6.14812
X0.04733 Y6.14712
X0.04533 Y6.14712
X0.04533 Y6.14612
X0.04433 Y6.14612
X0.04433 Y6.14512
X0.04333 Y6.14512
X0.04333 Y6.14412
X0.04233 Y6.14412
X0.04233 Y6.14212
X0.04133 Y6.14212
X0.04133 Y6.14112
X0.04033 Y6.14112
X0.04033 Y6.13912
X0.03933 Y6.13912
X0.03933 Y6.13412
X0.03833 Y6.13412
X0.03833 Y6.10712
X0.03933 Y6.10712
X0.03933 Y6.10212
X0.04033 Y6.10212
X0.04033 Y6.10012
X0.04133 Y6.10012
X0.04133 Y6.09912
X0.04233 Y6.09912
X0.04233 Y6.09712
X0.04333 Y6.09712
X0.04333 Y6.09612
X0.04433 Y6.09612
X0.04433 Y6.09512
X0.04533 Y6.09512
X0.04533 Y6.09412
X0.04733 Y6.09412
X0.04733 Y6.09312
X0.04933 Y6.09312
X0.04933 Y6.09212
X0.05033 Y6.09212
X0.05033 Y5.91312
X0.04933 Y5.91312
X0.04933 Y5.91212
X0.04733 Y5.91212
X0.04733 Y5.91112
X0.04533 Y5.91112
X0.04533 Y5.91012
X0.04433 Y5.91012
X0.04433 Y5.90912
X0.04333 Y5.90912
X0.04333 Y5.90812
X0.04233 Y5.90812
X0.04233 Y5.90612
X0.04133 Y5.90612
X0.04133 Y5.90512
X0.04033 Y5.90512
X0.04033 Y5.90312
X0.03933 Y5.90312
X0.03933 Y5.89812
X0.03833 Y5.89812
X0.03833 Y5.87112
X0.03933 Y5.87112
X0.03933 Y5.86612
X0.04033 Y5.86612
X0.04033 Y5.86412
X0.04133 Y5.86412
X0.04133 Y5.86312
X0.04233 Y5.86312
X0.04233 Y5.86112
X0.04333 Y5.86112
X0.04333 Y5.86012
X0.04433 Y5.86012
X0.04433 Y5.85912
X0.04533 Y5.85912
X0.04533 Y5.85812
X0.04733 Y5.85812
X0.04733 Y5.85712
X0.04933 Y5.85712
X0.04933 Y5.85612
X0.05033 Y5.85612
X0.05033 Y5.67612
X0.04933 Y5.67612
X0.04933 Y5.67512
X0.04733 Y5.67512
X0.04733 Y5.67412
X0.04533 Y5.67412
X0.04533 Y5.67312
X0.04433 Y5.67312
X0.04433 Y5.67212
X0.04333 Y5.67212
X0.04333 Y5.67112
X0.04233 Y5.67112
X0.04233 Y5.66912
X0.04133 Y5.66912
X0.04133 Y5.66812
X0.04033 Y5.66812
X0.04033 Y5.66612
X0.03933 Y5.66612
X0.03933 Y5.66112
X0.03833 Y5.66112
X0.03833 Y5.63412
X0.03933 Y5.63412
X0.03933 Y5.62912
X0.04033 Y5.62912
X0.04033 Y5.62712
X0.04133 Y5.62712
X0.04133 Y5.62612
X0.04233 Y5.62612
X0.04233 Y5.62412
X0.04333 Y5.62412
X0.04333 Y5.62312
X0.04433 Y5.62312
X0.04433 Y5.62212
X0.04533 Y5.62212
X0.04533 Y5.62112
X0.04733 Y5.62112
X0.04733 Y5.62012
X0.04933 Y5.62012
X0.04933 Y5.61912
X0.05033 Y5.61912
X0.05033 Y5.44012
X0.04933 Y5.44012
X0.04933 Y5.43912
X0.04733 Y5.43912
X0.04733 Y5.43812
X0.04533 Y5.43812
X0.04533 Y5.43712
X0.04433 Y5.43712
X0.04433 Y5.43612
X0.04333 Y5.43612
X0.04333 Y5.43512
X0.04233 Y5.43512
X0.04233 Y5.43312
X0.04133 Y5.43312
X0.04133 Y5.43212
X0.04033 Y5.43212
X0.04033 Y5.43012
X0.03933 Y5.43012
X0.03933 Y5.42512
X0.03833 Y5.42512
X0.03833 Y5.39812
X0.03933 Y5.39812
X0.03933 Y5.39312
X0.04033 Y5.39312
X0.04033 Y5.39112
X0.04133 Y5.39112
X0.04133 Y5.39012
X0.04233 Y5.39012
X0.04233 Y5.38812
X0.04333 Y5.38812
X0.04333 Y5.38712
X0.04433 Y5.38712
X0.04433 Y5.38612
X0.04533 Y5.38612
X0.04533 Y5.38512
X0.04733 Y5.38512
X0.04733 Y5.38412
X0.04933 Y5.38412
X0.04933 Y5.38312
X0.05033 Y5.38312
X0.05033 Y5.20412
X0.04933 Y5.20412
X0.04933 Y5.20312
X0.04733 Y5.20312
X0.04733 Y5.20212
X0.04533 Y5.20212
X0.04533 Y5.20112
X0.04433 Y5.20112
X0.04433 Y5.20012
X0.04333 Y5.20012
X0.04333 Y5.19912
X0.04233 Y5.19912
X0.04233 Y5.19712
X0.04133 Y5.19712
X0.04133 Y5.19612
X0.04033 Y5.19612
X0.04033 Y5.19412
X0.03933 Y5.19412
X0.03933 Y5.18912
X0.03833 Y5.18912
X0.03833 Y5.16212
X0.03933 Y5.16212
X0.03933 Y5.15712
X0.04033 Y5.15712
X0.04033 Y5.15512
X0.04133 Y5.15512
X0.04133 Y5.15412
X0.04233 Y5.15412
X0.04233 Y5.15212
X0.04333 Y5.15212
X0.04333 Y5.15112
X0.04433 Y5.15112
X0.04433 Y5.15012
X0.04533 Y5.15012
X0.04533 Y5.14912
X0.04733 Y5.14912
X0.04733 Y5.14812
X0.04933 Y5.14812
X0.04933 Y5.14712
X0.05033 Y5.14712
X0.05033 Y4.96812
X0.04933 Y4.96812
X0.04933 Y4.96712
X0.04733 Y4.96712
X0.04733 Y4.96612
X0.04533 Y4.96612
X0.04533 Y4.96512
X0.04433 Y4.96512
X0.04433 Y4.96412
X0.04333 Y4.96412
X0.04333 Y4.96312
X0.04233 Y4.96312
X0.04233 Y4.96112
X0.04133 Y4.96112
X0.04133 Y4.96012
X0.04033 Y4.96012
X0.04033 Y4.95812
X0.03933 Y4.95812
X0.03933 Y4.95312
X0.03833 Y4.95312
X0.03833 Y4.92612
X0.03933 Y4.92612
X0.03933 Y4.92112
X0.04033 Y4.92112
X0.04033 Y4.91912
X0.04133 Y4.91912
X0.04133 Y4.91812
X0.04233 Y4.91812
X0.04233 Y4.91612
X0.04333 Y4.91612
X0.04333 Y4.91512
X0.04433 Y4.91512
X0.04433 Y4.91412
X0.04533 Y4.91412
X0.04533 Y4.91312
X0.04733 Y4.91312
X0.04733 Y4.91212
X0.04933 Y4.91212
X0.04933 Y4.91112
X0.05033 Y4.91112
X0.05033 Y4.73212
X0.04933 Y4.73212
X0.04933 Y4.73112
X0.04733 Y4.73112
X0.04733 Y4.73012
X0.04533 Y4.73012
X0.04533 Y4.72912
X0.04433 Y4.72912
X0.04433 Y4.72812
X0.04333 Y4.72812
X0.04333 Y4.72712
X0.04233 Y4.72712
X0.04233 Y4.72512
X0.04133 Y4.72512
X0.04133 Y4.72412
X0.04033 Y4.72412
X0.04033 Y4.72212
X0.03933 Y4.72212
X0.03933 Y4.71712
X0.03833 Y4.71712
X0.03833 Y4.69012
X0.03933 Y4.69012
X0.03933 Y4.68512
X0.04033 Y4.68512
X0.04033 Y4.68312
X0.04133 Y4.68312
X0.04133 Y4.68212
X0.04233 Y4.68212
X0.04233 Y4.68012
X0.04333 Y4.68012
X0.04333 Y4.67912
X0.04433 Y4.67912
X0.04433 Y4.67812
X0.04533 Y4.67812
X0.04533 Y4.67712
X0.04733 Y4.67712
X0.04733 Y4.67612
X0.04933 Y4.67612
X0.04933 Y4.67512
X0.05033 Y4.67512
X0.05033 Y4.49512
X0.04933 Y4.49512
X0.04933 Y4.49412
X0.04733 Y4.49412
X0.04733 Y4.49312
X0.04533 Y4.49312
X0.04533 Y4.49212
X0.04433 Y4.49212
X0.04433 Y4.49112
X0.04333 Y4.49112
X0.04333 Y4.49012
X0.04233 Y4.49012
X0.04233 Y4.48812
X0.04133 Y4.48812
X0.04133 Y4.48712
X0.04033 Y4.48712
X0.04033 Y4.48512
X0.03933 Y4.48512
X0.03933 Y4.48012
X0.03833 Y4.48012
X0.03833 Y4.45312
X0.03933 Y4.45312
X0.03933 Y4.44812
X0.04033 Y4.44812
X0.04033 Y4.44612
X0.04133 Y4.44612
X0.04133 Y4.44512
X0.04233 Y4.44512
X0.04233 Y4.44312
X0.04333 Y4.44312
X0.04333 Y4.44212
X0.04433 Y4.44212
X0.04433 Y4.44112
X0.04533 Y4.44112
X0.04533 Y4.44012
X0.04733 Y4.44012
X0.04733 Y4.43912
X0.04933 Y4.43912
X0.04933 Y4.43812
X0.05033 Y4.43812
X0.05033 Y4.25912
X0.04933 Y4.25912
X0.04933 Y4.25812
X0.04733 Y4.25812
X0.04733 Y4.25712
X0.04533 Y4.25712
X0.04533 Y4.25612
X0.04433 Y4.25612
X0.04433 Y4.25512
X0.04333 Y4.25512
X0.04333 Y4.25412
X0.04233 Y4.25412
X0.04233 Y4.25212
X0.04133 Y4.25212
X0.04133 Y4.25112
X0.04033 Y4.25112
X0.04033 Y4.24912
X0.03933 Y4.24912
X0.03933 Y4.24412
X0.03833 Y4.24412
X0.03833 Y4.21712
X0.03933 Y4.21712
X0.03933 Y4.21212
X0.04033 Y4.21212
X0.04033 Y4.21012
X0.04133 Y4.21012
X0.04133 Y4.20912
X0.04233 Y4.20912
X0.04233 Y4.20712
X0.04333 Y4.20712
X0.04333 Y4.20612
X0.04433 Y4.20612
X0.04433 Y4.20512
X0.04533 Y4.20512
X0.04533 Y4.20412
X0.04733 Y4.20412
X0.04733 Y4.20312
X0.04933 Y4.20312
X0.04933 Y4.20212
X0.05033 Y4.20212
X0.05033 Y4.02312
X0.04933 Y4.02312
X0.04933 Y4.02212
X0.04733 Y4.02212
X0.04733 Y4.02112
X0.04533 Y4.02112
X0.04533 Y4.02012
X0.04433 Y4.02012
X0.04433 Y4.01912
X0.04333 Y4.01912
X0.04333 Y4.01812
X0.04233 Y4.01812
X0.04233 Y4.01612
X0.04133 Y4.01612
X0.04133 Y4.01512
X0.04033 Y4.01512
X0.04033 Y4.01312
X0.03933 Y4.01312
X0.03933 Y4.00812
X0.03833 Y4.00812
X0.03833 Y3.98112
X0.03933 Y3.98112
X0.03933 Y3.97612
X0.04033 Y3.97612
X0.04033 Y3.97412
X0.04133 Y3.97412
X0.04133 Y3.97312
X0.04233 Y3.97312
X0.04233 Y3.97112
X0.04333 Y3.97112
X0.04333 Y3.97012
X0.04433 Y3.97012
X0.04433 Y3.96912
X0.04533 Y3.96912
X0.04533 Y3.96812
X0.04733 Y3.96812
X0.04733 Y3.96712
X0.04933 Y3.96712
X0.04933 Y3.96612
X0.05033 Y3.96612
X0.05033 Y3.78712
X0.04933 Y3.78712
X0.04933 Y3.78612
X0.04733 Y3.78612
X0.04733 Y3.78512
X0.04533 Y3.78512
X0.04533 Y3.78412
X0.04433 Y3.78412
X0.04433 Y3.78312
X0.04333 Y3.78312
X0.04333 Y3.78212
X0.04233 Y3.78212
X0.04233 Y3.78012
X0.04133 Y3.78012
X0.04133 Y3.77912
X0.04033 Y3.77912
X0.04033 Y3.77712
X0.03933 Y3.77712
X0.03933 Y3.77212
X0.03833 Y3.77212
X0.03833 Y3.74512
X0.03933 Y3.74512
X0.03933 Y3.74012
X0.04033 Y3.74012
X0.04033 Y3.73812
X0.04133 Y3.73812
X0.04133 Y3.73712
X0.04233 Y3.73712
X0.04233 Y3.73512
X0.04333 Y3.73512
X0.04333 Y3.73412
X0.04433 Y3.73412
X0.04433 Y3.73312
X0.04533 Y3.73312
X0.04533 Y3.73212
X0.04733 Y3.73212
X0.04733 Y3.73112
X0.04933 Y3.73112
X0.04933 Y3.73012
X0.05033 Y3.73012
X0.05033 Y3.55012
X0.04933 Y3.55012
X0.04933 Y3.54912
X0.04733 Y3.54912
X0.04733 Y3.54812
X0.04533 Y3.54812
X0.04533 Y3.54712
X0.04433 Y3.54712
X0.04433 Y3.54612
X0.04333 Y3.54612
X0.04333 Y3.54512
X0.04233 Y3.54512
X0.04233 Y3.54312
X0.04133 Y3.54312
X0.04133 Y3.54212
X0.04033 Y3.54212
X0.04033 Y3.54012
X0.03933 Y3.54012
X0.03933 Y3.53512
X0.03833 Y3.53512
X0.03833 Y3.50812
X0.03933 Y3.50812
X0.03933 Y3.50312
X0.04033 Y3.50312
X0.04033 Y3.50112
X0.04133 Y3.50112
X0.04133 Y3.50012
X0.04233 Y3.50012
X0.04233 Y3.49812
X0.04333 Y3.49812
X0.04333 Y3.49712
X0.04433 Y3.49712
X0.04433 Y3.49612
X0.04533 Y3.49612
X0.04533 Y3.49512
X0.04733 Y3.49512
X0.04733 Y3.49412
X0.04933 Y3.49412
X0.04933 Y3.49312
X0.05033 Y3.49312
X0.05033 Y3.31412
X0.04933 Y3.31412
X0.04933 Y3.31312
X0.04733 Y3.31312
X0.04733 Y3.31212
X0.04533 Y3.31212
X0.04533 Y3.31112
X0.04433 Y3.31112
X0.04433 Y3.31012
X0.04333 Y3.31012
X0.04333 Y3.30912
X0.04233 Y3.30912
X0.04233 Y3.30712
X0.04133 Y3.30712
X0.04133 Y3.30612
X0.04033 Y3.30612
X0.04033 Y3.30412
X0.03933 Y3.30412
X0.03933 Y3.29912
X0.03833 Y3.29912
X0.03833 Y3.27212
X0.03933 Y3.27212
X0.03933 Y3.26712
X0.04033 Y3.26712
X0.04033 Y3.26512
X0.04133 Y3.26512
X0.04133 Y3.26412
X0.04233 Y3.26412
X0.04233 Y3.26212
X0.04333 Y3.26212
X0.04333 Y3.26112
X0.04433 Y3.26112
X0.04433 Y3.26012
X0.04533 Y3.26012
X0.04533 Y3.25912
X0.04733 Y3.25912
X0.04733 Y3.25812
X0.04933 Y3.25812
X0.04933 Y3.25712
X0.05033 Y3.25712
X0.05033 Y3.07812
X0.04933 Y3.07812
X0.04933 Y3.07712
X0.04733 Y3.07712
X0.04733 Y3.07612
X0.04533 Y3.07612
X0.04533 Y3.07512
X0.04433 Y3.07512
X0.04433 Y3.07412
X0.04333 Y3.07412
X0.04333 Y3.07312
X0.04233 Y3.07312
X0.04233 Y3.07112
X0.04133 Y3.07112
X0.04133 Y3.07012
X0.04033 Y3.07012
X0.04033 Y3.06812
X0.03933 Y3.06812
X0.03933 Y3.06312
X0.03833 Y3.06312
X0.03833 Y3.03612
X0.03933 Y3.03612
X0.03933 Y3.03112
X0.04033 Y3.03112
X0.04033 Y3.02912
X0.04133 Y3.02912
X0.04133 Y3.02812
X0.04233 Y3.02812
X0.04233 Y3.02612
X0.04333 Y3.02612
X0.04333 Y3.02512
X0.04433 Y3.02512
X0.04433 Y3.02412
X0.04533 Y3.02412
X0.04533 Y3.02312
X0.04733 Y3.02312
X0.04733 Y3.02212
X0.04933 Y3.02212
X0.04933 Y3.02112
X0.05033 Y3.02112
X0.05033 Y2.84212
X0.04933 Y2.84212
X0.04933 Y2.84112
X0.04733 Y2.84112
X0.04733 Y2.84012
X0.04533 Y2.84012
X0.04533 Y2.83912
X0.04433 Y2.83912
X0.04433 Y2.83812
X0.04333 Y2.83812
X0.04333 Y2.83712
X0.04233 Y2.83712
X0.04233 Y2.83512
X0.04133 Y2.83512
X0.04133 Y2.83412
X0.04033 Y2.83412
X0.04033 Y2.83212
X0.03933 Y2.83212
X0.03933 Y2.82712
X0.03833 Y2.82712
X0.03833 Y2.80012
X0.03933 Y2.80012
X0.03933 Y2.79512
X0.04033 Y2.79512
X0.04033 Y2.79312
X0.04133 Y2.79312
X0.04133 Y2.79212
X0.04233 Y2.79212
X0.04233 Y2.79012
X0.04333 Y2.79012
X0.04333 Y2.78912
X0.04433 Y2.78912
X0.04433 Y2.78812
X0.04533 Y2.78812
X0.04533 Y2.78712
X0.04733 Y2.78712
X0.04733 Y2.78612
X0.04933 Y2.78612
X0.04933 Y2.78512
X0.05033 Y2.78512
X0.05033 Y2.60612
X0.04933 Y2.60612
X0.04933 Y2.60512
X0.04733 Y2.60512
X0.04733 Y2.60412
X0.04533 Y2.60412
X0.04533 Y2.60312
X0.04433 Y2.60312
X0.04433 Y2.60212
X0.04333 Y2.60212
X0.04333 Y2.60112
X0.04233 Y2.60112
X0.04233 Y2.59912
X0.04133 Y2.59912
X0.04133 Y2.59812
X0.04033 Y2.59812
X0.04033 Y2.59612
X0.03933 Y2.59612
X0.03933 Y2.59112
X0.03833 Y2.59112
X0.03833 Y2.56412
X0.03933 Y2.56412
X0.03933 Y2.55912
X0.04033 Y2.55912
X0.04033 Y2.55712
X0.04133 Y2.55712
X0.04133 Y2.55612
X0.04233 Y2.55612
X0.04233 Y2.55412
X0.04333 Y2.55412
X0.04333 Y2.55312
X0.04433 Y2.55312
X0.04433 Y2.55212
X0.04533 Y2.55212
X0.04533 Y2.55112
X0.04733 Y2.55112
X0.04733 Y2.55012
X0.04933 Y2.55012
X0.04933 Y2.54912
X0.05033 Y2.54912
X0.05033 Y2.36912
X0.04933 Y2.36912
X0.04933 Y2.36812
X0.04733 Y2.36812
X0.04733 Y2.36712
X0.04533 Y2.36712
X0.04533 Y2.36612
X0.04433 Y2.36612
X0.04433 Y2.36512
X0.04333 Y2.36512
X0.04333 Y2.36412
X0.04233 Y2.36412
X0.04233 Y2.36212
X0.04133 Y2.36212
X0.04133 Y2.36112
X0.04033 Y2.36112
X0.04033 Y2.35912
X0.03933 Y2.35912
X0.03933 Y2.35412
X0.03833 Y2.35412
X0.03833 Y2.32712
X0.03933 Y2.32712
X0.03933 Y2.32212
X0.04033 Y2.32212
X0.04033 Y2.32012
X0.04133 Y2.32012
X0.04133 Y2.31912
X0.04233 Y2.31912
X0.04233 Y2.31712
X0.04333 Y2.31712
X0.04333 Y2.31612
X0.04433 Y2.31612
X0.04433 Y2.31512
X0.04533 Y2.31512
X0.04533 Y2.31412
X0.04733 Y2.31412
X0.04733 Y2.31312
X0.04933 Y2.31312
X0.04933 Y2.31212
X0.05033 Y2.31212
X0.05033 Y2.13312
X0.04933 Y2.13312
X0.04933 Y2.13212
X0.04733 Y2.13212
X0.04733 Y2.13112
X0.04533 Y2.13112
X0.04533 Y2.13012
X0.04433 Y2.13012
X0.04433 Y2.12912
X0.04333 Y2.12912
X0.04333 Y2.12812
X0.04233 Y2.12812
X0.04233 Y2.12612
X0.04133 Y2.12612
X0.04133 Y2.12512
X0.04033 Y2.12512
X0.04033 Y2.12312
X0.03933 Y2.12312
X0.03933 Y2.11812
X0.03833 Y2.11812
X0.03833 Y2.09112
X0.03933 Y2.09112
X0.03933 Y2.08612
X0.04033 Y2.08612
X0.04033 Y2.08412
X0.04133 Y2.08412
X0.04133 Y2.08312
X0.04233 Y2.08312
X0.04233 Y2.08112
X0.04333 Y2.08112
X0.04333 Y2.08012
X0.04433 Y2.08012
X0.04433 Y2.07912
X0.04533 Y2.07912
X0.04533 Y2.07812
X0.04733 Y2.07812
X0.04733 Y2.07712
X0.04933 Y2.07712
X0.04933 Y2.07612
X0.05033 Y2.07612
X0.05033 Y1.89712
X0.04933 Y1.89712
X0.04933 Y1.89612
X0.04733 Y1.89612
X0.04733 Y1.89512
X0.04533 Y1.89512
X0.04533 Y1.89412
X0.04433 Y1.89412
X0.04433 Y1.89312
X0.04333 Y1.89312
X0.04333 Y1.89212
X0.04233 Y1.89212
X0.04233 Y1.89012
X0.04133 Y1.89012
X0.04133 Y1.88912
X0.04033 Y1.88912
X0.04033 Y1.88712
X0.03933 Y1.88712
X0.03933 Y1.88212
X0.03833 Y1.88212
X0.03833 Y1.85512
X0.03933 Y1.85512
X0.03933 Y1.85012
X0.04033 Y1.85012
X0.04033 Y1.84812
X0.04133 Y1.84812
X0.04133 Y1.84712
X0.04233 Y1.84712
X0.04233 Y1.84512
X0.04333 Y1.84512
X0.04333 Y1.84412
X0.04433 Y1.84412
X0.04433 Y1.84312
X0.04533 Y1.84312
X0.04533 Y1.84212
X0.04733 Y1.84212
X0.04733 Y1.84112
X0.04933 Y1.84112
X0.04933 Y1.84012
X0.05033 Y1.84012
X0.05033 Y1.66112
X0.04933 Y1.66112
X0.04933 Y1.66012
X0.04733 Y1.66012
X0.04733 Y1.65912
X0.04533 Y1.65912
X0.04533 Y1.65812
X0.04433 Y1.65812
X0.04433 Y1.65712
X0.04333 Y1.65712
X0.04333 Y1.65612
X0.04233 Y1.65612
X0.04233 Y1.65412
X0.04133 Y1.65412
X0.04133 Y1.65312
X0.04033 Y1.65312
X0.04033 Y1.65112
X0.03933 Y1.65112
X0.03933 Y1.64612
X0.03833 Y1.64612
X0.03833 Y1.61912
X0.03933 Y1.61912
X0.03933 Y1.61412
X0.04033 Y1.61412
X0.04033 Y1.61212
X0.04133 Y1.61212
X0.04133 Y1.61112
X0.04233 Y1.61112
X0.04233 Y1.60912
X0.04333 Y1.60912
X0.04333 Y1.60812
X0.04433 Y1.60812
X0.04433 Y1.60712
X0.04533 Y1.60712
X0.04533 Y1.60612
X0.04733 Y1.60612
X0.04733 Y1.60512
X0.04933 Y1.60512
X0.04933 Y1.60412
X0.05033 Y1.60412
X0.05033 Y1.42412
X0.04933 Y1.42412
X0.04933 Y1.42312
X0.04733 Y1.42312
X0.04733 Y1.42212
X0.04533 Y1.42212
X0.04533 Y1.42112
X0.04433 Y1.42112
X0.04433 Y1.42012
X0.04333 Y1.42012
X0.04333 Y1.41912
X0.04233 Y1.41912
X0.04233 Y1.41712
X0.04133 Y1.41712
X0.04133 Y1.41612
X0.04033 Y1.41612
X0.04033 Y1.41412
X0.03933 Y1.41412
X0.03933 Y1.40912
X0.03833 Y1.40912
X0.03833 Y1.38212
X0.03933 Y1.38212
X0.03933 Y1.37712
X0.04033 Y1.37712
X0.04033 Y1.37512
X0.04133 Y1.37512
X0.04133 Y1.37412
X0.04233 Y1.37412
X0.04233 Y1.37212
X0.04333 Y1.37212
X0.04333 Y1.37112
X0.04433 Y1.37112
X0.04433 Y1.37012
X0.04533 Y1.37012
X0.04533 Y1.36912
X0.04733 Y1.36912
X0.04733 Y1.36812
X0.04933 Y1.36812
X0.04933 Y1.36712
X0.05033 Y1.36712
X0.05033 Y1.18812
X0.04933 Y1.18812
X0.04933 Y1.18712
X0.04733 Y1.18712
X0.04733 Y1.18612
X0.04533 Y1.18612
X0.04533 Y1.18512
X0.04433 Y1.18512
X0.04433 Y1.18412
X0.04333 Y1.18412
X0.04333 Y1.18312
X0.04233 Y1.18312
X0.04233 Y1.18112
X0.04133 Y1.18112
X0.04133 Y1.18012
X0.04033 Y1.18012
X0.04033 Y1.17812
X0.03933 Y1.17812
X0.03933 Y1.17312
X0.03833 Y1.17312
X0.03833 Y1.14612
X0.03933 Y1.14612
X0.03933 Y1.14112
X0.04033 Y1.14112
X0.04033 Y1.13912
X0.04133 Y1.13912
X0.04133 Y1.13812
X0.04233 Y1.13812
X0.04233 Y1.13612
X0.04333 Y1.13612
X0.04333 Y1.13512
X0.04433 Y1.13512
X0.04433 Y1.13412
X0.04533 Y1.13412
X0.04533 Y1.13312
X0.04733 Y1.13312
X0.04733 Y1.13212
X0.04933 Y1.13212
X0.04933 Y1.13112
X0.05033 Y1.13112
X0.05033 Y0.95212
X0.04933 Y0.95212
X0.04933 Y0.95112
X0.04733 Y0.95112
X0.04733 Y0.95012
X0.04533 Y0.95012
X0.04533 Y0.94912
X0.04433 Y0.94912
X0.04433 Y0.94812
X0.04333 Y0.94812
X0.04333 Y0.94712
X0.04233 Y0.94712
X0.04233 Y0.94512
X0.04133 Y0.94512
X0.04133 Y0.94412
X0.04033 Y0.94412
X0.04033 Y0.94212
X0.03933 Y0.94212
X0.03933 Y0.93712
X0.03833 Y0.93712
X0.03833 Y0.91012
X0.03933 Y0.91012
X0.03933 Y0.90512
X0.04033 Y0.90512
X0.04033 Y0.90312
X0.04133 Y0.90312
X0.04133 Y0.90212
X0.04233 Y0.90212
X0.04233 Y0.90012
X0.04333 Y0.90012
X0.04333 Y0.89912
X0.04433 Y0.89912
X0.04433 Y0.89812
X0.04533 Y0.89812
X0.04533 Y0.89712
X0.04733 Y0.89712
X0.04733 Y0.89612
X0.04933 Y0.89612
X0.04933 Y0.89512
X0.05033 Y0.89512
X0.05033 Y0.71612
X0.04933 Y0.71612
X0.04933 Y0.71512
X0.04733 Y0.71512
X0.04733 Y0.71412
X0.04533 Y0.71412
X0.04533 Y0.71312
X0.04433 Y0.71312
X0.04433 Y0.71212
X0.04333 Y0.71212
X0.04333 Y0.71112
X0.04233 Y0.71112
X0.04233 Y0.70912
X0.04133 Y0.70912
X0.04133 Y0.70812
X0.04033 Y0.70812
X0.04033 Y0.70612
X0.03933 Y0.70612
X0.03933 Y0.70112
X0.03833 Y0.70112
X0.03833 Y0.67412
X0.03933 Y0.67412
X0.03933 Y0.66912
X0.04033 Y0.66912
X0.04033 Y0.66712
X0.04133 Y0.66712
X0.04133 Y0.66612
X0.04233 Y0.66612
X0.04233 Y0.66412
X0.04333 Y0.66412
X0.04333 Y0.66312
X0.04433 Y0.66312
X0.04433 Y0.66212
X0.04533 Y0.66212
X0.04533 Y0.66112
X0.04733 Y0.66112
X0.04733 Y0.66012
X0.04933 Y0.66012
X0.04933 Y0.65912
X0.05033 Y0.65912
X0.05033 Y0.48012
X0.04933 Y0.48012
X0.04933 Y0.47912
X0.04733 Y0.47912
X0.04733 Y0.47812
X0.04533 Y0.47812
X0.04533 Y0.47712
X0.04433 Y0.47712
X0.04433 Y0.47612
X0.04333 Y0.47612
X0.04333 Y0.47512
X0.04233 Y0.47512
X0.04233 Y0.47312
X0.04133 Y0.47312
X0.04133 Y0.47212
X0.04033 Y0.47212
X0.04033 Y0.47012
X0.03933 Y0.47012
X0.03933 Y0.46512
X0.03833 Y0.46512
X0.03833 Y0.43812
X0.03933 Y0.43812
X0.03933 Y0.43312
X0.04033 Y0.43312
X0.04033 Y0.43112
X0.04133 Y0.43112
X0.04133 Y0.43012
X0.04233 Y0.43012
X0.04233 Y0.42812
X0.04333 Y0.42812
X0.04333 Y0.42712
X0.04433 Y0.42712
X0.04433 Y0.42612
X0.04533 Y0.42612
X0.04533 Y0.42512
X0.04733 Y0.42512
X0.04733 Y0.42412
X0.04933 Y0.42412
X0.04933 Y0.42312
X0.05033 Y0.42312
X0.05033 Y0.37112
X0.05133 Y0.37112
X0.05133 Y0.36912
X0.05233 Y0.36912
X0.05233 Y0.36812
X0.05333 Y0.36812
X0.05333 Y0.36712
X0.05433 Y0.36712
X0.05433 Y0.36612
X0.05533 Y0.36612
X0.05533 Y0.36512
X0.05633 Y0.36512
X0.05633 Y0.36412
X0.05733 Y0.36412
X0.05733 Y0.36312
X0.05833 Y0.36312
X0.05833 Y0.36212
X0.05933 Y0.36212
X0.05933 Y0.36112
X0.06033 Y0.36112
X0.06033 Y0.36012
X0.06133 Y0.36012
X0.06133 Y0.35912
X0.06233 Y0.35912
X0.06233 Y0.35812
X0.06333 Y0.35812
X0.06333 Y0.35712
X0.06433 Y0.35712
X0.06433 Y0.35612
X0.06533 Y0.35612
X0.06533 Y0.35512
X0.06633 Y0.35512
X0.06633 Y0.35412
X0.06733 Y0.35412
X0.06733 Y0.35312
X0.06833 Y0.35312
X0.06833 Y0.35212
X0.06933 Y0.35212
X0.06933 Y0.35112
X0.07033 Y0.35112
X0.07033 Y0.35012
X0.07133 Y0.35012
X0.07133 Y0.34912
X0.07233 Y0.34912
X0.07233 Y0.34812
X0.07333 Y0.34812
X0.07333 Y0.34712
X0.07433 Y0.34712
X0.07433 Y0.34612
X0.07533 Y0.34612
X0.07533 Y0.34512
X0.07633 Y0.34512
X0.07633 Y0.34412
X0.07733 Y0.34412
X0.07733 Y0.34312
X0.07833 Y0.34312
X0.07833 Y0.34212
X0.07933 Y0.34212
X0.07933 Y0.34112
X0.08033 Y0.34112
X0.08033 Y0.34012
X0.08133 Y0.34012
X0.08133 Y0.33912
X0.08233 Y0.33912
X0.08233 Y0.33812
X0.08333 Y0.33812
X0.08333 Y0.33712
X0.08433 Y0.33712
X0.08433 Y0.33612
X0.08533 Y0.33612
X0.08533 Y0.33512
X0.08633 Y0.33512
X0.08633 Y0.33412
X0.08733 Y0.33412
X0.08733 Y0.33312
X0.08833 Y0.33312
X0.08833 Y0.33212
X0.08933 Y0.33212
X0.08933 Y0.33112
X0.09033 Y0.33112
X0.09033 Y0.33012
X0.09133 Y0.33012
X0.09133 Y0.32912
X0.09233 Y0.32912
X0.09233 Y0.32812
X0.09333 Y0.32812
X0.09333 Y0.32712
X0.09433 Y0.32712
X0.09433 Y0.32612
X0.09533 Y0.32612
X0.09533 Y0.32412
X0.09633 Y0.32412
X0.09633 Y0.32312
X0.09733 Y0.32312
X0.09733 Y0.32212
X0.09833 Y0.32212
X0.09833 Y0.32112
X0.09933 Y0.32112
X0.09933 Y0.32012
X0.10033 Y0.32012
X0.10033 Y0.31912
X0.10133 Y0.31912
X0.10133 Y0.31812
X0.10233 Y0.31812
X0.10233 Y0.31712
X0.10333 Y0.31712
X0.10333 Y0.31612
X0.10433 Y0.31612
X0.10433 Y0.31512
X0.10333 Y0.31512
X0.10333 Y0.31312
X0.10233 Y0.31312
X0.10233 Y0.31012
X0.10133 Y0.31012
X0.10133 Y0.30612
X0.10033 Y0.30612
X0.10033 Y0.30312
X0.09933 Y0.30312
X0.09933 Y0.30012
X0.09833 Y0.30012
X0.09833 Y0.29012
X0.09733 Y0.29012
X0.09733 Y0.26112
X0.09833 Y0.26112
X0.09833 Y0.25112
X0.09933 Y0.25112
X0.09933 Y0.24812
X0.10033 Y0.24812
X0.10033 Y0.24512
X0.10133 Y0.24512
X0.10133 Y0.24112
X0.10233 Y0.24112
X0.10233 Y0.23812
X0.10333 Y0.23812
X0.10333 Y0.23612
X0.10433 Y0.23612
X0.10433 Y0.23512
X0.10533 Y0.23512
X0.10533 Y0.23312
X0.10633 Y0.23312
X0.10633 Y0.23112
X0.10733 Y0.23112
X0.10733 Y0.22912
X0.10833 Y0.22912
X0.10833 Y0.22712
X0.10933 Y0.22712
X0.10933 Y0.22612
X0.11033 Y0.22612
X0.11033 Y0.22512
X0.11133 Y0.22512
X0.11133 Y0.22312
X0.11233 Y0.22312
X0.11233 Y0.22212
X0.11333 Y0.22212
X0.11333 Y0.22112
X0.11433 Y0.22112
X0.11433 Y0.22012
X0.11533 Y0.22012
X0.11533 Y0.21812
X0.11633 Y0.21812
X0.11633 Y0.21712
X0.11733 Y0.21712
X0.11733 Y0.21612
X0.11833 Y0.21612
X0.11833 Y0.21512
X0.11933 Y0.21512
X0.11933 Y0.21412
X0.12133 Y0.21412
X0.12133 Y0.21312
X0.12233 Y0.21312
X0.12233 Y0.21212
X0.12333 Y0.21212
X0.12333 Y0.21112
X0.12433 Y0.21112
X0.12433 Y0.21012
X0.12633 Y0.21012
X0.12633 Y0.20912
X0.12733 Y0.20912
X0.12733 Y0.20812
X0.12833 Y0.20812
X0.12833 Y0.20712
X0.13033 Y0.20712
X0.13033 Y0.20612
X0.13233 Y0.20612
X0.13233 Y0.20512
X0.13433 Y0.20512
X0.13433 Y0.20412
X0.13633 Y0.20412
X0.13633 Y0.20312
X0.13733 Y0.20312
X0.13733 Y0.20212
X0.13933 Y0.20212
X0.13933 Y0.20112
X0.14233 Y0.20112
X0.14233 Y0.20012
X0.14633 Y0.20012
X0.14633 Y0.19912
X0.14933 Y0.19912
X0.14933 Y0.19812
X0.15233 Y0.19812
X0.15233 Y0.19712
X0.16233 Y0.19712
X0.16233 Y0.19612
X0.19133 Y0.19612
X0.19133 Y0.19712
X0.20133 Y0.19712
X0.20133 Y0.19812
X0.20433 Y0.19812
X0.20433 Y0.19912
X0.20733 Y0.19912
X0.20733 Y0.20012
X0.21133 Y0.20012
X0.21133 Y0.20112
X0.21433 Y0.20112
X0.21433 Y0.20212
X0.21633 Y0.20212
X0.21633 Y0.20312
X0.21733 Y0.20312
X0.21733 Y0.20412
X0.21933 Y0.20412
X0.21933 Y0.20512
X0.22133 Y0.20512
X0.22133 Y0.20612
X0.22333 Y0.20612
X0.22333 Y0.20712
X0.22533 Y0.20712
X0.22533 Y0.20812
X0.22633 Y0.20812
X0.22633 Y0.20912
X0.22833 Y0.20912
X0.22833 Y0.21012
X0.22933 Y0.21012
X0.22933 Y0.21112
X0.23033 Y0.21112
X0.23033 Y0.21212
X0.23133 Y0.21212
X0.23133 Y0.21312
X0.23233 Y0.21312
X0.23233 Y0.21412
X0.23433 Y0.21412
X0.23433 Y0.21512
X0.23533 Y0.21512
X0.23533 Y0.21612
X0.23633 Y0.21612
X0.23633 Y0.21712
X0.23733 Y0.21712
X0.23733 Y0.21812
X0.23833 Y0.21812
X0.23833 Y0.22012
X0.23933 Y0.22012
X0.23933 Y0.22112
X0.24033 Y0.22112
X0.24033 Y0.22212
X0.24133 Y0.22212
X0.24133 Y0.22312
X0.24233 Y0.22312
X0.24233 Y0.22412
X0.24333 Y0.22412
X0.24333 Y0.22612
X0.24433 Y0.22612
X0.24433 Y0.22712
X0.24533 Y0.22712
X0.24533 Y0.22912
X0.24633 Y0.22912
X0.24633 Y0.23112
X0.24733 Y0.23112
X0.24733 Y0.23312
X0.24833 Y0.23312
X0.24833 Y0.23512
X0.24933 Y0.23512
X0.24933 Y0.23612
X0.25033 Y0.23612
X0.25033 Y0.23812
X0.25133 Y0.23812
X0.25133 Y0.24112
X0.25233 Y0.24112
X0.25233 Y0.24512
X0.25333 Y0.24512
X0.25333 Y0.24812
X0.25433 Y0.24812
X0.25433 Y0.25112
X0.25533 Y0.25112
X0.25533 Y0.26112
X0.25633 Y0.26112
X0.25633 Y0.29012
X0.25533 Y0.29012
X0.25533 Y0.30012
X0.25433 Y0.30012
X0.25433 Y0.30312
X0.25333 Y0.30312
X0.25333 Y0.30612
X0.25233 Y0.30612
X0.25233 Y0.31012
X0.25133 Y0.31012
X0.25133 Y0.31312
X0.25033 Y0.31312
X0.25033 Y0.31512
X0.24933 Y0.31512
X0.24933 Y0.31612
X0.24833 Y0.31612
X0.24833 Y0.31812
X0.24733 Y0.31812
X0.24733 Y0.32012
X0.24633 Y0.32012
X0.24633 Y0.32212
X0.24533 Y0.32212
X0.24533 Y0.32412
X0.24433 Y0.32412
X0.24433 Y0.32512
X0.24333 Y0.32512
X0.24333 Y0.32712
X0.24233 Y0.32712
X0.24233 Y0.32812
X0.24133 Y0.32812
X0.24133 Y0.32912
X0.24033 Y0.32912
X0.24033 Y0.33012
X0.23933 Y0.33012
X0.23933 Y0.33112
X0.23833 Y0.33112
X0.23833 Y0.33312
X0.23733 Y0.33312
X0.23733 Y0.33412
X0.23633 Y0.33412
X0.23633 Y0.33512
X0.23533 Y0.33512
X0.23533 Y0.33612
X0.23433 Y0.33612
X0.23433 Y0.33712
X0.23233 Y0.33712
X0.23233 Y0.33812
X0.23133 Y0.33812
X0.23133 Y0.33912
X0.23033 Y0.33912
X0.23033 Y0.34012
X0.22933 Y0.34012
X0.22933 Y0.34112
X0.22833 Y0.34112
X0.22833 Y0.34212
X0.22633 Y0.34212
X0.22633 Y0.34312
X0.22533 Y0.34312
X0.22533 Y0.34412
X0.22333 Y0.34412
X0.22333 Y0.34512
X0.22133 Y0.34512
X0.22133 Y0.34612
X0.21933 Y0.34612
X0.21933 Y0.34712
X0.21733 Y0.34712
X0.21733 Y0.34812
X0.21633 Y0.34812
X0.21633 Y0.34912
X0.21433 Y0.34912
X0.21433 Y0.35012
X0.21133 Y0.35012
X0.21133 Y0.35112
X0.20733 Y0.35112
X0.20733 Y0.35212
X0.20433 Y0.35212
X0.20433 Y0.35312
X0.20133 Y0.35312
X0.20133 Y0.35412
X0.19133 Y0.35412
X0.19133 Y0.35512
X0.16233 Y0.35512
X0.16233 Y0.35412
X0.15233 Y0.35412
X0.15233 Y0.35312
X0.14933 Y0.35312
X0.14933 Y0.35212
X0.14633 Y0.35212
X0.14633 Y0.35112
X0.14233 Y0.35112
X0.14233 Y0.35012
X0.13933 Y0.35012
X0.13933 Y0.34912
X0.13733 Y0.34912
X0.13733 Y0.34812
X0.13633 Y0.34812
X0.13633 Y0.34812
X0.13533 Y0.34812
X0.13533 Y0.34912
X0.13433 Y0.34912
X0.13433 Y0.35012
X0.13333 Y0.35012
X0.13333 Y0.35112
X0.13233 Y0.35112
X0.13233 Y0.35212
X0.13133 Y0.35212
X0.13133 Y0.35312
X0.13033 Y0.35312
X0.13033 Y0.35412
X0.12933 Y0.35412
X0.12933 Y0.35512
X0.12833 Y0.35512
X0.12833 Y0.35612
X0.12733 Y0.35612
X0.12733 Y0.35712
X0.12633 Y0.35712
X0.12633 Y0.35812
X0.12533 Y0.35812
X0.12533 Y0.35912
X0.12433 Y0.35912
X0.12433 Y0.36012
X0.12333 Y0.36012
X0.12333 Y0.36112
X0.12233 Y0.36112
X0.12233 Y0.36212
X0.12133 Y0.36212
X0.12133 Y0.36312
X0.12033 Y0.36312
X0.12033 Y0.36412
X0.11933 Y0.36412
X0.11933 Y0.36512
X0.11833 Y0.36512
X0.11833 Y0.36612
X0.11733 Y0.36612
X0.11733 Y0.36712
X0.11633 Y0.36712
X0.11633 Y0.36812
X0.11533 Y0.36812
X0.11533 Y0.36912
X0.11433 Y0.36912
X0.11433 Y0.37012
X0.11333 Y0.37012
X0.11333 Y0.37112
X0.11233 Y0.37112
X0.11233 Y0.37212
X0.11133 Y0.37212
X0.11133 Y0.37312
X0.11033 Y0.37312
X0.11033 Y0.37412
X0.10933 Y0.37412
X0.10933 Y0.37512
X0.10833 Y0.37512
X0.10833 Y0.37612
X0.10733 Y0.37612
X0.10733 Y0.37712
X0.10633 Y0.37712
X0.10633 Y0.37812
X0.10533 Y0.37812
X0.10533 Y0.37912
X0.10433 Y0.37912
X0.10433 Y0.38012
X0.10333 Y0.38012
X0.10333 Y0.38112
X0.10233 Y0.38112
X0.10233 Y0.38212
X0.10133 Y0.38212
X0.10133 Y0.38312
X0.10033 Y0.38312
X0.10033 Y0.38412
X0.09933 Y0.38412
X0.09933 Y0.38512
X0.09833 Y0.38512
X0.09833 Y0.38612
X0.09733 Y0.38612
X0.09733 Y0.38712
X0.09633 Y0.38712
X0.09633 Y0.38812
X0.09533 Y0.38812
X0.09533 Y0.38912
X0.09433 Y0.38912
X0.09433 Y0.39012
X0.09333 Y0.39012
X0.09333 Y0.39112
X0.09233 Y0.39112
X0.09233 Y0.39212
X0.09133 Y0.39212
X0.09133 Y0.39312
X0.09033 Y0.39312
X0.09033 Y0.39412
X0.08933 Y0.39412
X0.08933 Y0.39512
X0.08833 Y0.39512
X0.08833 Y0.39612
X0.08733 Y0.39612
X0.08733 Y0.39712
X0.08633 Y0.39712
X0.08633 Y0.42212
X0.08733 Y0.42212
X0.08733 Y0.42312
X0.08833 Y0.42312
X0.08833 Y0.42412
X0.09033 Y0.42412
X0.09033 Y0.42512
X0.09233 Y0.42512
X0.09233 Y0.42612
X0.09333 Y0.42612
X0.09333 Y0.42712
X0.09433 Y0.42712
X0.09433 Y0.42812
X0.09533 Y0.42812
X0.09533 Y0.43012
X0.09633 Y0.43012
X0.09633 Y0.43112
X0.09733 Y0.43112
X0.09733 Y0.43312
X0.09833 Y0.43312
X0.09833 Y0.43812
X0.09933 Y0.43812
X0.09933 Y0.46512
X0.09833 Y0.46512
X0.09833 Y0.47012
X0.09733 Y0.47012
X0.09733 Y0.47212
X0.09633 Y0.47212
X0.09633 Y0.47312
X0.09533 Y0.47312
X0.09533 Y0.47512
X0.09433 Y0.47512
X0.09433 Y0.47612
X0.09333 Y0.47612
X0.09333 Y0.47712
X0.09233 Y0.47712
X0.09233 Y0.47812
X0.09033 Y0.47812
X0.09033 Y0.47912
X0.08833 Y0.47912
X0.08833 Y0.48012
X0.08733 Y0.48012
X0.08733 Y0.48112
X0.08633 Y0.48112
X0.08633 Y0.65812
X0.08733 Y0.65812
X0.08733 Y0.65912
X0.08833 Y0.65912
X0.08833 Y0.66012
X0.09033 Y0.66012
X0.09033 Y0.66112
X0.09233 Y0.66112
X0.09233 Y0.66212
X0.09333 Y0.66212
X0.09333 Y0.66312
X0.09433 Y0.66312
X0.09433 Y0.66412
X0.09533 Y0.66412
X0.09533 Y0.66612
X0.09633 Y0.66612
X0.09633 Y0.66712
X0.09733 Y0.66712
X0.09733 Y0.66912
X0.09833 Y0.66912
X0.09833 Y0.67412
X0.09933 Y0.67412
X0.09933 Y0.70112
X0.09833 Y0.70112
X0.09833 Y0.70612
X0.09733 Y0.70612
X0.09733 Y0.70812
X0.09633 Y0.70812
X0.09633 Y0.70912
X0.09533 Y0.70912
X0.09533 Y0.71112
X0.09433 Y0.71112
X0.09433 Y0.71212
X0.09333 Y0.71212
X0.09333 Y0.71312
X0.09233 Y0.71312
X0.09233 Y0.71412
X0.09033 Y0.71412
X0.09033 Y0.71512
X0.08833 Y0.71512
X0.08833 Y0.71612
X0.08733 Y0.71612
X0.08733 Y0.71712
X0.08633 Y0.71712
X0.08633 Y0.89412
X0.08733 Y0.89412
X0.08733 Y0.89512
X0.08833 Y0.89512
X0.08833 Y0.89612
X0.09033 Y0.89612
X0.09033 Y0.89712
X0.09233 Y0.89712
X0.09233 Y0.89812
X0.09333 Y0.89812
X0.09333 Y0.89912
X0.09433 Y0.89912
X0.09433 Y0.90012
X0.09533 Y0.90012
X0.09533 Y0.90212
X0.09633 Y0.90212
X0.09633 Y0.90312
X0.09733 Y0.90312
X0.09733 Y0.90512
X0.09833 Y0.90512
X0.09833 Y0.91012
X0.09933 Y0.91012
X0.09933 Y0.93712
X0.09833 Y0.93712
X0.09833 Y0.94212
X0.09733 Y0.94212
X0.09733 Y0.94412
X0.09633 Y0.94412
X0.09633 Y0.94512
X0.09533 Y0.94512
X0.09533 Y0.94712
X0.09433 Y0.94712
X0.09433 Y0.94812
X0.09333 Y0.94812
X0.09333 Y0.94912
X0.09233 Y0.94912
X0.09233 Y0.95012
X0.09033 Y0.95012
X0.09033 Y0.95112
X0.08833 Y0.95112
X0.08833 Y0.95212
X0.08733 Y0.95212
X0.08733 Y0.95312
X0.08633 Y0.95312
X0.08633 Y1.13012
X0.08733 Y1.13012
X0.08733 Y1.13112
X0.08833 Y1.13112
X0.08833 Y1.13212
X0.09033 Y1.13212
X0.09033 Y1.13312
X0.09233 Y1.13312
X0.09233 Y1.13412
X0.09333 Y1.13412
X0.09333 Y1.13512
X0.09433 Y1.13512
X0.09433 Y1.13612
X0.09533 Y1.13612
X0.09533 Y1.13812
X0.09633 Y1.13812
X0.09633 Y1.13912
X0.09733 Y1.13912
X0.09733 Y1.14112
X0.09833 Y1.14112
X0.09833 Y1.14612
X0.09933 Y1.14612
X0.09933 Y1.17312
X0.09833 Y1.17312
X0.09833 Y1.17812
X0.09733 Y1.17812
X0.09733 Y1.18012
X0.09633 Y1.18012
X0.09633 Y1.18112
X0.09533 Y1.18112
X0.09533 Y1.18312
X0.09433 Y1.18312
X0.09433 Y1.18412
X0.09333 Y1.18412
X0.09333 Y1.18512
X0.09233 Y1.18512
X0.09233 Y1.18612
X0.09033 Y1.18612
X0.09033 Y1.18712
X0.08833 Y1.18712
X0.08833 Y1.18812
X0.08733 Y1.18812
X0.08733 Y1.18912
X0.08633 Y1.18912
X0.08633 Y1.36612
X0.08733 Y1.36612
X0.08733 Y1.36712
X0.08833 Y1.36712
X0.08833 Y1.36812
X0.09033 Y1.36812
X0.09033 Y1.36912
X0.09233 Y1.36912
X0.09233 Y1.37012
X0.09333 Y1.37012
X0.09333 Y1.37112
X0.09433 Y1.37112
X0.09433 Y1.37212
X0.09533 Y1.37212
X0.09533 Y1.37412
X0.09633 Y1.37412
X0.09633 Y1.37512
X0.09733 Y1.37512
X0.09733 Y1.37712
X0.09833 Y1.37712
X0.09833 Y1.38212
X0.09933 Y1.38212
X0.09933 Y1.40912
X0.09833 Y1.40912
X0.09833 Y1.41412
X0.09733 Y1.41412
X0.09733 Y1.41612
X0.09633 Y1.41612
X0.09633 Y1.41712
X0.09533 Y1.41712
X0.09533 Y1.41912
X0.09433 Y1.41912
X0.09433 Y1.42012
X0.09333 Y1.42012
X0.09333 Y1.42112
X0.09233 Y1.42112
X0.09233 Y1.42212
X0.09033 Y1.42212
X0.09033 Y1.42312
X0.08833 Y1.42312
X0.08833 Y1.42412
X0.08733 Y1.42412
X0.08733 Y1.42512
X0.08633 Y1.42512
X0.08633 Y1.60312
X0.08733 Y1.60312
X0.08733 Y1.60412
X0.08833 Y1.60412
X0.08833 Y1.60512
X0.09033 Y1.60512
X0.09033 Y1.60612
X0.09233 Y1.60612
X0.09233 Y1.60712
X0.09333 Y1.60712
X0.09333 Y1.60812
X0.09433 Y1.60812
X0.09433 Y1.60912
X0.09533 Y1.60912
X0.09533 Y1.61112
X0.09633 Y1.61112
X0.09633 Y1.61212
X0.09733 Y1.61212
X0.09733 Y1.61412
X0.09833 Y1.61412
X0.09833 Y1.61912
X0.09933 Y1.61912
X0.09933 Y1.64612
X0.09833 Y1.64612
X0.09833 Y1.65112
X0.09733 Y1.65112
X0.09733 Y1.65312
X0.09633 Y1.65312
X0.09633 Y1.65412
X0.09533 Y1.65412
X0.09533 Y1.65612
X0.09433 Y1.65612
X0.09433 Y1.65712
X0.09333 Y1.65712
X0.09333 Y1.65812
X0.09233 Y1.65812
X0.09233 Y1.65912
X0.09033 Y1.65912
X0.09033 Y1.66012
X0.08833 Y1.66012
X0.08833 Y1.66112
X0.08733 Y1.66112
X0.08733 Y1.66212
X0.08633 Y1.66212
X0.08633 Y1.83912
X0.08733 Y1.83912
X0.08733 Y1.84012
X0.08833 Y1.84012
X0.08833 Y1.84112
X0.09033 Y1.84112
X0.09033 Y1.84212
X0.09233 Y1.84212
X0.09233 Y1.84312
X0.09333 Y1.84312
X0.09333 Y1.84412
X0.09433 Y1.84412
X0.09433 Y1.84512
X0.09533 Y1.84512
X0.09533 Y1.84712
X0.09633 Y1.84712
X0.09633 Y1.84812
X0.09733 Y1.84812
X0.09733 Y1.85012
X0.09833 Y1.85012
X0.09833 Y1.85512
X0.09933 Y1.85512
X0.09933 Y1.88212
X0.09833 Y1.88212
X0.09833 Y1.88712
X0.09733 Y1.88712
X0.09733 Y1.88912
X0.09633 Y1.88912
X0.09633 Y1.89012
X0.09533 Y1.89012
X0.09533 Y1.89212
X0.09433 Y1.89212
X0.09433 Y1.89312
X0.09333 Y1.89312
X0.09333 Y1.89412
X0.09233 Y1.89412
X0.09233 Y1.89512
X0.09033 Y1.89512
X0.09033 Y1.89612
X0.08833 Y1.89612
X0.08833 Y1.89712
X0.08733 Y1.89712
X0.08733 Y1.89812
X0.08633 Y1.89812
X0.08633 Y2.07512
X0.08733 Y2.07512
X0.08733 Y2.07612
X0.08833 Y2.07612
X0.08833 Y2.07712
X0.09033 Y2.07712
X0.09033 Y2.07812
X0.09233 Y2.07812
X0.09233 Y2.07912
X0.09333 Y2.07912
X0.09333 Y2.08012
X0.09433 Y2.08012
X0.09433 Y2.08112
X0.09533 Y2.08112
X0.09533 Y2.08312
X0.09633 Y2.08312
X0.09633 Y2.08412
X0.09733 Y2.08412
X0.09733 Y2.08612
X0.09833 Y2.08612
X0.09833 Y2.09112
X0.09933 Y2.09112
X0.09933 Y2.11812
X0.09833 Y2.11812
X0.09833 Y2.12312
X0.09733 Y2.12312
X0.09733 Y2.12512
X0.09633 Y2.12512
X0.09633 Y2.12612
X0.09533 Y2.12612
X0.09533 Y2.12812
X0.09433 Y2.12812
X0.09433 Y2.12912
X0.09333 Y2.12912
X0.09333 Y2.13012
X0.09233 Y2.13012
X0.09233 Y2.13112
X0.09033 Y2.13112
X0.09033 Y2.13212
X0.08833 Y2.13212
X0.08833 Y2.13312
X0.08733 Y2.13312
X0.08733 Y2.13412
X0.08633 Y2.13412
X0.08633 Y2.31112
X0.08733 Y2.31112
X0.08733 Y2.31212
X0.08833 Y2.31212
X0.08833 Y2.31312
X0.09033 Y2.31312
X0.09033 Y2.31412
X0.09233 Y2.31412
X0.09233 Y2.31512
X0.09333 Y2.31512
X0.09333 Y2.31612
X0.09433 Y2.31612
X0.09433 Y2.31712
X0.09533 Y2.31712
X0.09533 Y2.31912
X0.09633 Y2.31912
X0.09633 Y2.32012
X0.09733 Y2.32012
X0.09733 Y2.32212
X0.09833 Y2.32212
X0.09833 Y2.32712
X0.09933 Y2.32712
X0.09933 Y2.35412
X0.09833 Y2.35412
X0.09833 Y2.35912
X0.09733 Y2.35912
X0.09733 Y2.36112
X0.09633 Y2.36112
X0.09633 Y2.36212
X0.09533 Y2.36212
X0.09533 Y2.36412
X0.09433 Y2.36412
X0.09433 Y2.36512
X0.09333 Y2.36512
X0.09333 Y2.36612
X0.09233 Y2.36612
X0.09233 Y2.36712
X0.09033 Y2.36712
X0.09033 Y2.36812
X0.08833 Y2.36812
X0.08833 Y2.36912
X0.08733 Y2.36912
X0.08733 Y2.37012
X0.08633 Y2.37012
X0.08633 Y2.54812
X0.08733 Y2.54812
X0.08733 Y2.54912
X0.08833 Y2.54912
X0.08833 Y2.55012
X0.09033 Y2.55012
X0.09033 Y2.55112
X0.09233 Y2.55112
X0.09233 Y2.55212
X0.09333 Y2.55212
X0.09333 Y2.55312
X0.09433 Y2.55312
X0.09433 Y2.55412
X0.09533 Y2.55412
X0.09533 Y2.55612
X0.09633 Y2.55612
X0.09633 Y2.55712
X0.09733 Y2.55712
X0.09733 Y2.55912
X0.09833 Y2.55912
X0.09833 Y2.56412
X0.09933 Y2.56412
X0.09933 Y2.59112
X0.09833 Y2.59112
X0.09833 Y2.59612
X0.09733 Y2.59612
X0.09733 Y2.59812
X0.09633 Y2.59812
X0.09633 Y2.59912
X0.09533 Y2.59912
X0.09533 Y2.60112
X0.09433 Y2.60112
X0.09433 Y2.60212
X0.09333 Y2.60212
X0.09333 Y2.60312
X0.09233 Y2.60312
X0.09233 Y2.60412
X0.09033 Y2.60412
X0.09033 Y2.60512
X0.08833 Y2.60512
X0.08833 Y2.60612
X0.08733 Y2.60612
X0.08733 Y2.60712
X0.08633 Y2.60712
X0.08633 Y2.78412
X0.08733 Y2.78412
X0.08733 Y2.78512
X0.08833 Y2.78512
X0.08833 Y2.78612
X0.09033 Y2.78612
X0.09033 Y2.78712
X0.09233 Y2.78712
X0.09233 Y2.78812
X0.09333 Y2.78812
X0.09333 Y2.78912
X0.09433 Y2.78912
X0.09433 Y2.79012
X0.09533 Y2.79012
X0.09533 Y2.79212
X0.09633 Y2.79212
X0.09633 Y2.79312
X0.09733 Y2.79312
X0.09733 Y2.79512
X0.09833 Y2.79512
X0.09833 Y2.80012
X0.09933 Y2.80012
X0.09933 Y2.82712
X0.09833 Y2.82712
X0.09833 Y2.83212
X0.09733 Y2.83212
X0.09733 Y2.83412
X0.09633 Y2.83412
X0.09633 Y2.83512
X0.09533 Y2.83512
X0.09533 Y2.83712
X0.09433 Y2.83712
X0.09433 Y2.83812
X0.09333 Y2.83812
X0.09333 Y2.83912
X0.09233 Y2.83912
X0.09233 Y2.84012
X0.09033 Y2.84012
X0.09033 Y2.84112
X0.08833 Y2.84112
X0.08833 Y2.84212
X0.08733 Y2.84212
X0.08733 Y2.84312
X0.08633 Y2.84312
X0.08633 Y3.02012
X0.08733 Y3.02012
X0.08733 Y3.02112
X0.08833 Y3.02112
X0.08833 Y3.02212
X0.09033 Y3.02212
X0.09033 Y3.02312
X0.09233 Y3.02312
X0.09233 Y3.02412
X0.09333 Y3.02412
X0.09333 Y3.02512
X0.09433 Y3.02512
X0.09433 Y3.02612
X0.09533 Y3.02612
X0.09533 Y3.02812
X0.09633 Y3.02812
X0.09633 Y3.02912
X0.09733 Y3.02912
X0.09733 Y3.03112
X0.09833 Y3.03112
X0.09833 Y3.03612
X0.09933 Y3.03612
X0.09933 Y3.06312
X0.09833 Y3.06312
X0.09833 Y3.06812
X0.09733 Y3.06812
X0.09733 Y3.07012
X0.09633 Y3.07012
X0.09633 Y3.07112
X0.09533 Y3.07112
X0.09533 Y3.07312
X0.09433 Y3.07312
X0.09433 Y3.07412
X0.09333 Y3.07412
X0.09333 Y3.07512
X0.09233 Y3.07512
X0.09233 Y3.07612
X0.09033 Y3.07612
X0.09033 Y3.07712
X0.08833 Y3.07712
X0.08833 Y3.07812
X0.08733 Y3.07812
X0.08733 Y3.07912
X0.08633 Y3.07912
X0.08633 Y3.25612
X0.08733 Y3.25612
X0.08733 Y3.25712
X0.08833 Y3.25712
X0.08833 Y3.25812
X0.09033 Y3.25812
X0.09033 Y3.25912
X0.09233 Y3.25912
X0.09233 Y3.26012
X0.09333 Y3.26012
X0.09333 Y3.26112
X0.09433 Y3.26112
X0.09433 Y3.26212
X0.09533 Y3.26212
X0.09533 Y3.26412
X0.09633 Y3.26412
X0.09633 Y3.26512
X0.09733 Y3.26512
X0.09733 Y3.26712
X0.09833 Y3.26712
X0.09833 Y3.27212
X0.09933 Y3.27212
X0.09933 Y3.29912
X0.09833 Y3.29912
X0.09833 Y3.30412
X0.09733 Y3.30412
X0.09733 Y3.30612
X0.09633 Y3.30612
X0.09633 Y3.30712
X0.09533 Y3.30712
X0.09533 Y3.30912
X0.09433 Y3.30912
X0.09433 Y3.31012
X0.09333 Y3.31012
X0.09333 Y3.31112
X0.09233 Y3.31112
X0.09233 Y3.31212
X0.09033 Y3.31212
X0.09033 Y3.31312
X0.08833 Y3.31312
X0.08833 Y3.31412
X0.08733 Y3.31412
X0.08733 Y3.31512
X0.08633 Y3.31512
X0.08633 Y3.49212
X0.08733 Y3.49212
X0.08733 Y3.49312
X0.08833 Y3.49312
X0.08833 Y3.49412
X0.09033 Y3.49412
X0.09033 Y3.49512
X0.09233 Y3.49512
X0.09233 Y3.49612
X0.09333 Y3.49612
X0.09333 Y3.49712
X0.09433 Y3.49712
X0.09433 Y3.49812
X0.09533 Y3.49812
X0.09533 Y3.50012
X0.09633 Y3.50012
X0.09633 Y3.50112
X0.09733 Y3.50112
X0.09733 Y3.50312
X0.09833 Y3.50312
X0.09833 Y3.50812
X0.09933 Y3.50812
X0.09933 Y3.53512
X0.09833 Y3.53512
X0.09833 Y3.54012
X0.09733 Y3.54012
X0.09733 Y3.54212
X0.09633 Y3.54212
X0.09633 Y3.54312
X0.09533 Y3.54312
X0.09533 Y3.54512
X0.09433 Y3.54512
X0.09433 Y3.54612
X0.09333 Y3.54612
X0.09333 Y3.54712
X0.09233 Y3.54712
X0.09233 Y3.54812
X0.09033 Y3.54812
X0.09033 Y3.54912
X0.08833 Y3.54912
X0.08833 Y3.55012
X0.08733 Y3.55012
X0.08733 Y3.55112
X0.08633 Y3.55112
X0.08633 Y3.72912
X0.08733 Y3.72912
X0.08733 Y3.73012
X0.08833 Y3.73012
X0.08833 Y3.73112
X0.09033 Y3.73112
X0.09033 Y3.73212
X0.09233 Y3.73212
X0.09233 Y3.73312
X0.09333 Y3.73312
X0.09333 Y3.73412
X0.09433 Y3.73412
X0.09433 Y3.73512
X0.09533 Y3.73512
X0.09533 Y3.73712
X0.09633 Y3.73712
X0.09633 Y3.73812
X0.09733 Y3.73812
X0.09733 Y3.74012
X0.09833 Y3.74012
X0.09833 Y3.74512
X0.09933 Y3.74512
X0.09933 Y3.77212
X0.09833 Y3.77212
X0.09833 Y3.77712
X0.09733 Y3.77712
X0.09733 Y3.77912
X0.09633 Y3.77912
X0.09633 Y3.78012
X0.09533 Y3.78012
X0.09533 Y3.78212
X0.09433 Y3.78212
X0.09433 Y3.78312
X0.09333 Y3.78312
X0.09333 Y3.78412
X0.09233 Y3.78412
X0.09233 Y3.78512
X0.09033 Y3.78512
X0.09033 Y3.78612
X0.08833 Y3.78612
X0.08833 Y3.78712
X0.08733 Y3.78712
X0.08733 Y3.78812
X0.08633 Y3.78812
X0.08633 Y3.96512
X0.08733 Y3.96512
X0.08733 Y3.96612
X0.08833 Y3.96612
X0.08833 Y3.96712
X0.09033 Y3.96712
X0.09033 Y3.96812
X0.09233 Y3.96812
X0.09233 Y3.96912
X0.09333 Y3.96912
X0.09333 Y3.97012
X0.09433 Y3.97012
X0.09433 Y3.97112
X0.09533 Y3.97112
X0.09533 Y3.97312
X0.09633 Y3.97312
X0.09633 Y3.97412
X0.09733 Y3.97412
X0.09733 Y3.97612
X0.09833 Y3.97612
X0.09833 Y3.98112
X0.09933 Y3.98112
X0.09933 Y4.00812
X0.09833 Y4.00812
X0.09833 Y4.01312
X0.09733 Y4.01312
X0.09733 Y4.01512
X0.09633 Y4.01512
X0.09633 Y4.01612
X0.09533 Y4.01612
X0.09533 Y4.01812
X0.09433 Y4.01812
X0.09433 Y4.01912
X0.09333 Y4.01912
X0.09333 Y4.02012
X0.09233 Y4.02012
X0.09233 Y4.02112
X0.09033 Y4.02112
X0.09033 Y4.02212
X0.08833 Y4.02212
X0.08833 Y4.02312
X0.08733 Y4.02312
X0.08733 Y4.02412
X0.08633 Y4.02412
X0.08633 Y4.20112
X0.08733 Y4.20112
X0.08733 Y4.20212
X0.08833 Y4.20212
X0.08833 Y4.20312
X0.09033 Y4.20312
X0.09033 Y4.20412
X0.09233 Y4.20412
X0.09233 Y4.20512
X0.09333 Y4.20512
X0.09333 Y4.20612
X0.09433 Y4.20612
X0.09433 Y4.20712
X0.09533 Y4.20712
X0.09533 Y4.20912
X0.09633 Y4.20912
X0.09633 Y4.21012
X0.09733 Y4.21012
X0.09733 Y4.21212
X0.09833 Y4.21212
X0.09833 Y4.21712
X0.09933 Y4.21712
X0.09933 Y4.24412
X0.09833 Y4.24412
X0.09833 Y4.24912
X0.09733 Y4.24912
X0.09733 Y4.25112
X0.09633 Y4.25112
X0.09633 Y4.25212
X0.09533 Y4.25212
X0.09533 Y4.25412
X0.09433 Y4.25412
X0.09433 Y4.25512
X0.09333 Y4.25512
X0.09333 Y4.25612
X0.09233 Y4.25612
X0.09233 Y4.25712
X0.09033 Y4.25712
X0.09033 Y4.25812
X0.08833 Y4.25812
X0.08833 Y4.25912
X0.08733 Y4.25912
X0.08733 Y4.26012
X0.08633 Y4.26012
X0.08633 Y4.43712
X0.08733 Y4.43712
X0.08733 Y4.43812
X0.08833 Y4.43812
X0.08833 Y4.43912
X0.09033 Y4.43912
X0.09033 Y4.44012
X0.09233 Y4.44012
X0.09233 Y4.44112
X0.09333 Y4.44112
X0.09333 Y4.44212
X0.09433 Y4.44212
X0.09433 Y4.44312
X0.09533 Y4.44312
X0.09533 Y4.44512
X0.09633 Y4.44512
X0.09633 Y4.44612
X0.09733 Y4.44612
X0.09733 Y4.44812
X0.09833 Y4.44812
X0.09833 Y4.45312
X0.09933 Y4.45312
X0.09933 Y4.48012
X0.09833 Y4.48012
X0.09833 Y4.48512
X0.09733 Y4.48512
X0.09733 Y4.48712
X0.09633 Y4.48712
X0.09633 Y4.48812
X0.09533 Y4.48812
X0.09533 Y4.49012
X0.09433 Y4.49012
X0.09433 Y4.49112
X0.09333 Y4.49112
X0.09333 Y4.49212
X0.09233 Y4.49212
X0.09233 Y4.49312
X0.09033 Y4.49312
X0.09033 Y4.49412
X0.08833 Y4.49412
X0.08833 Y4.49512
X0.08733 Y4.49512
X0.08733 Y4.49612
X0.08633 Y4.49612
X0.08633 Y4.67412
X0.08733 Y4.67412
X0.08733 Y4.67512
X0.08833 Y4.67512
X0.08833 Y4.67612
X0.09033 Y4.67612
X0.09033 Y4.67712
X0.09233 Y4.67712
X0.09233 Y4.67812
X0.09333 Y4.67812
X0.09333 Y4.67912
X0.09433 Y4.67912
X0.09433 Y4.68012
X0.09533 Y4.68012
X0.09533 Y4.68212
X0.09633 Y4.68212
X0.09633 Y4.68312
X0.09733 Y4.68312
X0.09733 Y4.68512
X0.09833 Y4.68512
X0.09833 Y4.69012
X0.09933 Y4.69012
X0.09933 Y4.71712
X0.09833 Y4.71712
X0.09833 Y4.72212
X0.09733 Y4.72212
X0.09733 Y4.72412
X0.09633 Y4.72412
X0.09633 Y4.72512
X0.09533 Y4.72512
X0.09533 Y4.72712
X0.09433 Y4.72712
X0.09433 Y4.72812
X0.09333 Y4.72812
X0.09333 Y4.72912
X0.09233 Y4.72912
X0.09233 Y4.73012
X0.09033 Y4.73012
X0.09033 Y4.73112
X0.08833 Y4.73112
X0.08833 Y4.73212
X0.08733 Y4.73212
X0.08733 Y4.73312
X0.08633 Y4.73312
X0.08633 Y4.91012
X0.08733 Y4.91012
X0.08733 Y4.91112
X0.08833 Y4.91112
X0.08833 Y4.91212
X0.09033 Y4.91212
X0.09033 Y4.91312
X0.09233 Y4.91312
X0.09233 Y4.91412
X0.09333 Y4.91412
X0.09333 Y4.91512
X0.09433 Y4.91512
X0.09433 Y4.91612
X0.09533 Y4.91612
X0.09533 Y4.91812
X0.09633 Y4.91812
X0.09633 Y4.91912
X0.09733 Y4.91912
X0.09733 Y4.92112
X0.09833 Y4.92112
X0.09833 Y4.92612
X0.09933 Y4.92612
X0.09933 Y4.95312
X0.09833 Y4.95312
X0.09833 Y4.95812
X0.09733 Y4.95812
X0.09733 Y4.96012
X0.09633 Y4.96012
X0.09633 Y4.96112
X0.09533 Y4.96112
X0.09533 Y4.96312
X0.09433 Y4.96312
X0.09433 Y4.96412
X0.09333 Y4.96412
X0.09333 Y4.96512
X0.09233 Y4.96512
X0.09233 Y4.96612
X0.09033 Y4.96612
X0.09033 Y4.96712
X0.08833 Y4.96712
X0.08833 Y4.96812
X0.08733 Y4.96812
X0.08733 Y4.96912
X0.08633 Y4.96912
X0.08633 Y5.14612
X0.08733 Y5.14612
X0.08733 Y5.14712
X0.08833 Y5.14712
X0.08833 Y5.14812
X0.09033 Y5.14812
X0.09033 Y5.14912
X0.09233 Y5.14912
X0.09233 Y5.15012
X0.09333 Y5.15012
X0.09333 Y5.15112
X0.09433 Y5.15112
X0.09433 Y5.15212
X0.09533 Y5.15212
X0.09533 Y5.15412
X0.09633 Y5.15412
X0.09633 Y5.15512
X0.09733 Y5.15512
X0.09733 Y5.15712
X0.09833 Y5.15712
X0.09833 Y5.16212
X0.09933 Y5.16212
X0.09933 Y5.18912
X0.09833 Y5.18912
X0.09833 Y5.19412
X0.09733 Y5.19412
X0.09733 Y5.19612
X0.09633 Y5.19612
X0.09633 Y5.19712
X0.09533 Y5.19712
X0.09533 Y5.19912
X0.09433 Y5.19912
X0.09433 Y5.20012
X0.09333 Y5.20012
X0.09333 Y5.20112
X0.09233 Y5.20112
X0.09233 Y5.20212
X0.09033 Y5.20212
X0.09033 Y5.20312
X0.08833 Y5.20312
X0.08833 Y5.20412
X0.08733 Y5.20412
X0.08733 Y5.20512
X0.08633 Y5.20512
X0.08633 Y5.38212
X0.08733 Y5.38212
X0.08733 Y5.38312
X0.08833 Y5.38312
X0.08833 Y5.38412
X0.09033 Y5.38412
X0.09033 Y5.38512
X0.09233 Y5.38512
X0.09233 Y5.38612
X0.09333 Y5.38612
X0.09333 Y5.38712
X0.09433 Y5.38712
X0.09433 Y5.38812
X0.09533 Y5.38812
X0.09533 Y5.39012
X0.09633 Y5.39012
X0.09633 Y5.39112
X0.09733 Y5.39112
X0.09733 Y5.39312
X0.09833 Y5.39312
X0.09833 Y5.39812
X0.09933 Y5.39812
X0.09933 Y5.42512
X0.09833 Y5.42512
X0.09833 Y5.43012
X0.09733 Y5.43012
X0.09733 Y5.43212
X0.09633 Y5.43212
X0.09633 Y5.43312
X0.09533 Y5.43312
X0.09533 Y5.43512
X0.09433 Y5.43512
X0.09433 Y5.43612
X0.09333 Y5.43612
X0.09333 Y5.43712
X0.09233 Y5.43712
X0.09233 Y5.43812
X0.09033 Y5.43812
X0.09033 Y5.43912
X0.08833 Y5.43912
X0.08833 Y5.44012
X0.08733 Y5.44012
X0.08733 Y5.44112
X0.08633 Y5.44112
X0.08633 Y5.61812
X0.08733 Y5.61812
X0.08733 Y5.61912
X0.08833 Y5.61912
X0.08833 Y5.62012
X0.09033 Y5.62012
X0.09033 Y5.62112
X0.09233 Y5.62112
X0.09233 Y5.62212
X0.09333 Y5.62212
X0.09333 Y5.62312
X0.09433 Y5.62312
X0.09433 Y5.62412
X0.09533 Y5.62412
X0.09533 Y5.62612
X0.09633 Y5.62612
X0.09633 Y5.62712
X0.09733 Y5.62712
X0.09733 Y5.62912
X0.09833 Y5.62912
X0.09833 Y5.63412
X0.09933 Y5.63412
X0.09933 Y5.66112
X0.09833 Y5.66112
X0.09833 Y5.66612
X0.09733 Y5.66612
X0.09733 Y5.66812
X0.09633 Y5.66812
X0.09633 Y5.66912
X0.09533 Y5.66912
X0.09533 Y5.67112
X0.09433 Y5.67112
X0.09433 Y5.67212
X0.09333 Y5.67212
X0.09333 Y5.67312
X0.09233 Y5.67312
X0.09233 Y5.67412
X0.09033 Y5.67412
X0.09033 Y5.67512
X0.08833 Y5.67512
X0.08833 Y5.67612
X0.08733 Y5.67612
X0.08733 Y5.67712
X0.08633 Y5.67712
X0.08633 Y5.85512
X0.08733 Y5.85512
X0.08733 Y5.85612
X0.08833 Y5.85612
X0.08833 Y5.85712
X0.09033 Y5.85712
X0.09033 Y5.85812
X0.09233 Y5.85812
X0.09233 Y5.85912
X0.09333 Y5.85912
X0.09333 Y5.86012
X0.09433 Y5.86012
X0.09433 Y5.86112
X0.09533 Y5.86112
X0.09533 Y5.86312
X0.09633 Y5.86312
X0.09633 Y5.86412
X0.09733 Y5.86412
X0.09733 Y5.86612
X0.09833 Y5.86612
X0.09833 Y5.87112
X0.09933 Y5.87112
X0.09933 Y5.89812
X0.09833 Y5.89812
X0.09833 Y5.90312
X0.09733 Y5.90312
X0.09733 Y5.90512
X0.09633 Y5.90512
X0.09633 Y5.90612
X0.09533 Y5.90612
X0.09533 Y5.90812
X0.09433 Y5.90812
X0.09433 Y5.90912
X0.09333 Y5.90912
X0.09333 Y5.91012
X0.09233 Y5.91012
X0.09233 Y5.91112
X0.09033 Y5.91112
X0.09033 Y5.91212
X0.08833 Y5.91212
X0.08833 Y5.91312
X0.08733 Y5.91312
X0.08733 Y5.91412
X0.08633 Y5.91412
X0.08633 Y6.09112
X0.08733 Y6.09112
X0.08733 Y6.09212
X0.08833 Y6.09212
X0.08833 Y6.09312
X0.09033 Y6.09312
X0.09033 Y6.09412
X0.09233 Y6.09412
X0.09233 Y6.09512
X0.09333 Y6.09512
X0.09333 Y6.09612
X0.09433 Y6.09612
X0.09433 Y6.09712
X0.09533 Y6.09712
X0.09533 Y6.09912
X0.09633 Y6.09912
X0.09633 Y6.10012
X0.09733 Y6.10012
X0.09733 Y6.10212
X0.09833 Y6.10212
X0.09833 Y6.10712
X0.09933 Y6.10712
X0.09933 Y6.13412
X0.09833 Y6.13412
X0.09833 Y6.13912
X0.09733 Y6.13912
X0.09733 Y6.14112
X0.09633 Y6.14112
X0.09633 Y6.14212
X0.09533 Y6.14212
X0.09533 Y6.14412
X0.09433 Y6.14412
X0.09433 Y6.14512
X0.09333 Y6.14512
X0.09333 Y6.14612
X0.09233 Y6.14612
X0.09233 Y6.14712
X0.09033 Y6.14712
X0.09033 Y6.14812
X0.08833 Y6.14812
X0.08833 Y6.14912
X0.08733 Y6.14912
X0.08733 Y6.15012
X0.08633 Y6.15012
X0.08633 Y6.32712
X0.08733 Y6.32712
X0.08733 Y6.32812
X0.08833 Y6.32812
X0.08833 Y6.32912
X0.09033 Y6.32912
X0.09033 Y6.33012
X0.09233 Y6.33012
X0.09233 Y6.33112
X0.09333 Y6.33112
X0.09333 Y6.33212
X0.09433 Y6.33212
X0.09433 Y6.33312
X0.09533 Y6.33312
X0.09533 Y6.33512
X0.09633 Y6.33512
X0.09633 Y6.33612
X0.09733 Y6.33612
X0.09733 Y6.33812
X0.09833 Y6.33812
X0.09833 Y6.34312
X0.09933 Y6.34312
X0.09933 Y6.37012
X0.09833 Y6.37012
X0.09833 Y6.37512
X0.09733 Y6.37512
X0.09733 Y6.37712
X0.09633 Y6.37712
X0.09633 Y6.37812
X0.09533 Y6.37812
X0.09533 Y6.38012
X0.09433 Y6.38012
X0.09433 Y6.38112
X0.09333 Y6.38112
X0.09333 Y6.38212
X0.09233 Y6.38212
X0.09233 Y6.38312
X0.09033 Y6.38312
X0.09033 Y6.38412
X0.08833 Y6.38412
X0.08833 Y6.38512
X0.08733 Y6.38512
X0.08733 Y6.38612
X0.08633 Y6.38612
X0.08633 Y6.56312
X0.08733 Y6.56312
X0.08733 Y6.56412
X0.08833 Y6.56412
X0.08833 Y6.56512
X0.09033 Y6.56512
X0.09033 Y6.56612
X0.09233 Y6.56612
X0.09233 Y6.56712
X0.09333 Y6.56712
X0.09333 Y6.56812
X0.09433 Y6.56812
X0.09433 Y6.56912
X0.09533 Y6.56912
X0.09533 Y6.57112
X0.09633 Y6.57112
X0.09633 Y6.57212
X0.09733 Y6.57212
X0.09733 Y6.57412
X0.09833 Y6.57412
X0.09833 Y6.57912
X0.09933 Y6.57912
X0.09933 Y6.60612
X0.09833 Y6.60612
X0.09833 Y6.61112
X0.09733 Y6.61112
X0.09733 Y6.61312
X0.09633 Y6.61312
X0.09633 Y6.61412
X0.09533 Y6.61412
X0.09533 Y6.61612
X0.09433 Y6.61612
X0.09433 Y6.61712
X0.09333 Y6.61712
X0.09333 Y6.61812
X0.09233 Y6.61812
X0.09233 Y6.61912
X0.09033 Y6.61912
X0.09033 Y6.62012
X0.08833 Y6.62012
X0.08833 Y6.62112
X0.08733 Y6.62112
X0.08733 Y6.62212
X0.08633 Y6.62212
X0.08633 Y6.80012
X0.08733 Y6.80012
X0.08733 Y6.80112
X0.08833 Y6.80112
X0.08833 Y6.80212
X0.09033 Y6.80212
X0.09033 Y6.80312
X0.09233 Y6.80312
X0.09233 Y6.80412
X0.09333 Y6.80412
X0.09333 Y6.80512
X0.09433 Y6.80512
X0.09433 Y6.80612
X0.09533 Y6.80612
X0.09533 Y6.80812
X0.09633 Y6.80812
X0.09633 Y6.80912
X0.09733 Y6.80912
X0.09733 Y6.81112
X0.09833 Y6.81112
X0.09833 Y6.81612
X0.09933 Y6.81612
X0.09933 Y6.84312
X0.09833 Y6.84312
X0.09833 Y6.84812
X0.09733 Y6.84812
X0.09733 Y6.85012
X0.09633 Y6.85012
X0.09633 Y6.85112
X0.09533 Y6.85112
X0.09533 Y6.85312
X0.09433 Y6.85312
X0.09433 Y6.85412
X0.09333 Y6.85412
X0.09333 Y6.85512
X0.09233 Y6.85512
X0.09233 Y6.85612
X0.09033 Y6.85612
X0.09033 Y6.85712
X0.08833 Y6.85712
X0.08833 Y6.85812
X0.08733 Y6.85812
X0.08733 Y6.85912
X0.08633 Y6.85912
X0.08633 Y7.03612
X0.08733 Y7.03612
X0.08733 Y7.03712
X0.08833 Y7.03712
X0.08833 Y7.03812
X0.09033 Y7.03812
X0.09033 Y7.03912
X0.09233 Y7.03912
X0.09233 Y7.04012
X0.09333 Y7.04012
X0.09333 Y7.04112
X0.09433 Y7.04112
X0.09433 Y7.04212
X0.09533 Y7.04212
X0.09533 Y7.04412
X0.09633 Y7.04412
X0.09633 Y7.04512
X0.09733 Y7.04512
X0.09733 Y7.04712
X0.09833 Y7.04712
X0.09833 Y7.05212
X0.09933 Y7.05212
X0.09933 Y7.07912
X0.09833 Y7.07912
X0.09833 Y7.08412
X0.09733 Y7.08412
X0.09733 Y7.08612
X0.09633 Y7.08612
X0.09633 Y7.08712
X0.09533 Y7.08712
X0.09533 Y7.08912
X0.09433 Y7.08912
X0.09433 Y7.09012
X0.09333 Y7.09012
X0.09333 Y7.09112
X0.09233 Y7.09112
X0.09233 Y7.09212
X0.09033 Y7.09212
X0.09033 Y7.09312
X0.08833 Y7.09312
X0.08833 Y7.09412
X0.08733 Y7.09412
X0.08733 Y7.09512
X0.08633 Y7.09512
X0.08633 Y7.27212
X0.08733 Y7.27212
X0.08733 Y7.27312
X0.08833 Y7.27312
X0.08833 Y7.27412
X0.09033 Y7.27412
X0.09033 Y7.27512
X0.09233 Y7.27512
X0.09233 Y7.27612
X0.09333 Y7.27612
X0.09333 Y7.27712
X0.09433 Y7.27712
X0.09433 Y7.27812
X0.09533 Y7.27812
X0.09533 Y7.28012
X0.09633 Y7.28012
X0.09633 Y7.28112
X0.09733 Y7.28112
X0.09733 Y7.28312
X0.09833 Y7.28312
X0.09833 Y7.28812
X0.09933 Y7.28812
X0.09933 Y7.31512
X0.09833 Y7.31512
X0.09833 Y7.32012
X0.09733 Y7.32012
X0.09733 Y7.32212
X0.09633 Y7.32212
X0.09633 Y7.32312
X0.09533 Y7.32312
X0.09533 Y7.32512
X0.09433 Y7.32512
X0.09433 Y7.32612
X0.09333 Y7.32612
X0.09333 Y7.32712
X0.09233 Y7.32712
X0.09233 Y7.32812
X0.09033 Y7.32812
X0.09033 Y7.32912
X0.08833 Y7.32912
X0.08833 Y7.33012
X0.08733 Y7.33012
X0.08733 Y7.33112
X0.08633 Y7.33112
X0.08633 Y7.50812
X0.08733 Y7.50812
X0.08733 Y7.50912
X0.08833 Y7.50912
X0.08833 Y7.51012
X0.09033 Y7.51012
X0.09033 Y7.51112
X0.09233 Y7.51112
X0.09233 Y7.51212
X0.09333 Y7.51212
X0.09333 Y7.51312
X0.09433 Y7.51312
X0.09433 Y7.51412
X0.09533 Y7.51412
X0.09533 Y7.51612
X0.09633 Y7.51612
X0.09633 Y7.51712
X0.09733 Y7.51712
X0.09733 Y7.51912
X0.09833 Y7.51912
X0.09833 Y7.52412
X0.09933 Y7.52412
X0.09933 Y7.55112
X0.09833 Y7.55112
X0.09833 Y7.55612
X0.09733 Y7.55612
X0.09733 Y7.55812
X0.09633 Y7.55812
X0.09633 Y7.55912
X0.09533 Y7.55912
X0.09533 Y7.56112
X0.09433 Y7.56112
X0.09433 Y7.56212
X0.09333 Y7.56212
X0.09333 Y7.56312
X0.09233 Y7.56312
X0.09233 Y7.56412
X0.09033 Y7.56412
X0.09033 Y7.56512
X0.08833 Y7.56512
X0.08833 Y7.56612
X0.08733 Y7.56612
X0.08733 Y7.56712
X0.08633 Y7.56712
X0.08633 Y7.74412
X0.08733 Y7.74412
X0.08733 Y7.74512
X0.08833 Y7.74512
X0.08833 Y7.74612
X0.09033 Y7.74612
X0.09033 Y7.74712
X0.09233 Y7.74712
X0.09233 Y7.74812
X0.09333 Y7.74812
X0.09333 Y7.74912
X0.09433 Y7.74912
X0.09433 Y7.75012
X0.09533 Y7.75012
X0.09533 Y7.75212
X0.09633 Y7.75212
X0.09633 Y7.75312
X0.09733 Y7.75312
X0.09733 Y7.75512
X0.09833 Y7.75512
X0.09833 Y7.76012
X0.09933 Y7.76012
X0.09933 Y7.78712
X0.09833 Y7.78712
X0.09833 Y7.79212
X0.09733 Y7.79212
X0.09733 Y7.79412
X0.09633 Y7.79412
X0.09633 Y7.79512
X0.09533 Y7.79512
X0.09533 Y7.79712
X0.09433 Y7.79712
X0.09433 Y7.79812
X0.09333 Y7.79812
X0.09333 Y7.79912
X0.09233 Y7.79912
X0.09233 Y7.80012
X0.09033 Y7.80012
X0.09033 Y7.80112
X0.08833 Y7.80112
X0.08833 Y7.80212
X0.08733 Y7.80212
X0.08733 Y7.80312
X0.08633 Y7.80312
X0.08633 Y7.98112
X0.08733 Y7.98112
X0.08733 Y7.98212
X0.08833 Y7.98212
X0.08833 Y7.98312
X0.09033 Y7.98312
X0.09033 Y7.98412
X0.09233 Y7.98412
X0.09233 Y7.98512
X0.09333 Y7.98512
X0.09333 Y7.98612
X0.09433 Y7.98612
X0.09433 Y7.98712
X0.09533 Y7.98712
X0.09533 Y7.98912
X0.09633 Y7.98912
X0.09633 Y7.99012
X0.09733 Y7.99012
X0.09733 Y7.99212
X0.09833 Y7.99212
X0.09833 Y7.99712
X0.09933 Y7.99712
X0.09933 Y8.02412
X0.09833 Y8.02412
X0.09833 Y8.02912
X0.09733 Y8.02912
X0.09733 Y8.03112
X0.09633 Y8.03112
X0.09633 Y8.03212
X0.09533 Y8.03212
X0.09533 Y8.03412
X0.09433 Y8.03412
X0.09433 Y8.03512
X0.09333 Y8.03512
X0.09333 Y8.03612
X0.09233 Y8.03612
X0.09233 Y8.03712
X0.09033 Y8.03712
X0.09033 Y8.03812
X0.08833 Y8.03812
X0.08833 Y8.03912
X0.08733 Y8.03912
X0.08733 Y8.04012
X0.08633 Y8.04012
X0.08633 Y8.21712
X0.08733 Y8.21712
X0.08733 Y8.21812
X0.08833 Y8.21812
X0.08833 Y8.21912
X0.09033 Y8.21912
X0.09033 Y8.22012
X0.09233 Y8.22012
X0.09233 Y8.22112
X0.09333 Y8.22112
X0.09333 Y8.22212
X0.09433 Y8.22212
X0.09433 Y8.22312
X0.09533 Y8.22312
X0.09533 Y8.22512
X0.09633 Y8.22512
X0.09633 Y8.22612
X0.09733 Y8.22612
X0.09733 Y8.22812
X0.09833 Y8.22812
X0.09833 Y8.23312
X0.09933 Y8.23312
X0.09933 Y8.26012
X0.09833 Y8.26012
X0.09833 Y8.26512
X0.09733 Y8.26512
X0.09733 Y8.26712
X0.09633 Y8.26712
X0.09633 Y8.26812
X0.09533 Y8.26812
X0.09533 Y8.27012
X0.09433 Y8.27012
X0.09433 Y8.27112
X0.09333 Y8.27112
X0.09333 Y8.27212
X0.09233 Y8.27212
X0.09233 Y8.27312
X0.09033 Y8.27312
X0.09033 Y8.27412
X0.08833 Y8.27412
X0.08833 Y8.27512
X0.08733 Y8.27512
X0.08733 Y8.27612
X0.08633 Y8.27612
X0.08633 Y8.45312
X0.08733 Y8.45312
X0.08733 Y8.45412
X0.08833 Y8.45412
X0.08833 Y8.45512
X0.09033 Y8.45512
X0.09033 Y8.45612
X0.09233 Y8.45612
X0.09233 Y8.45712
X0.09333 Y8.45712
X0.09333 Y8.45812
X0.09433 Y8.45812
X0.09433 Y8.45912
X0.09533 Y8.45912
X0.09533 Y8.46112
X0.09633 Y8.46112
X0.09633 Y8.46212
X0.09733 Y8.46212
X0.09733 Y8.46412
X0.09833 Y8.46412
X0.09833 Y8.46912
X0.09933 Y8.46912
X0.09933 Y8.49612
X0.09833 Y8.49612
X0.09833 Y8.50112
X0.09733 Y8.50112
X0.09733 Y8.50312
X0.09633 Y8.50312
X0.09633 Y8.50412
X0.09533 Y8.50412
X0.09533 Y8.50612
X0.09433 Y8.50612
X0.09433 Y8.50712
X0.09333 Y8.50712
X0.09333 Y8.50812
X0.09233 Y8.50812
X0.09233 Y8.50912
X0.09033 Y8.50912
X0.09033 Y8.51012
X0.08833 Y8.51012
X0.08833 Y8.51112
X0.08733 Y8.51112
X0.08733 Y8.51212
X0.08233 Y8.51212
X0.08233 Y8.51312
X0.05533 Y8.51312
X0.05533 Y8.51212
X0.05033 Y8.51212
X0.05033 Y8.51112
X0.04933 Y8.51112
X0.04933 Y8.51012
X0.04733 Y8.51012
X0.04733 Y8.50912
X0.04533 Y8.50912
X0.04533 Y8.50812
X0.04433 Y8.50812
X0.04433 Y8.50712
X0.04333 Y8.50712
X0.04333 Y8.50612
X0.04233 Y8.50612
X0.04233 Y8.50412
X0.04133 Y8.50412
X0.04133 Y8.50312
X0.04033 Y8.50312
X0.04033 Y8.50212
G04 P0 ( dwell for no time -- G64 should not smooth over this point )
G00 Z0.19685 ( retract )

G00 X0.24933 Y8.32512 ( rapid move to begin. )
G01 Z-0.01969 F1.96850 ( plunge. )
G04 P0 ( dwell for no time -- G64 should not smooth over this point )
X0.24933 Y8.32512
X0.24933 Y8.24012
X0.32133 Y8.24012
X0.32133 Y8.33612
X0.24933 Y8.33612
X0.24933 Y8.32512
G04 P0 ( dwell for no time -- G64 should not smooth over this point )
G00 Z0.19685 ( retract )

G00 X0.24933 Y8.08812 ( rapid move to begin. )
G01 Z-0.01969 F1.96850 ( plunge. )
G04 P0 ( dwell for no time -- G64 should not smooth over this point )
X0.24933 Y8.08812
X0.24933 Y8.00412
X0.32133 Y8.00412
X0.32133 Y8.09912
X0.24933 Y8.09912
X0.24933 Y8.08812
G04 P0 ( dwell for no time -- G64 should not smooth over this point )
G00 Z0.19685 ( retract )

G00 X0.24933 Y7.85212 ( rapid move to begin. )
G01 Z-0.01969 F1.96850 ( plunge. )
G04 P0 ( dwell for no time -- G64 should not smooth over this point )
X0.24933 Y7.85212
X0.24933 Y7.76712
X0.32133 Y7.76712
X0.32133 Y7.86312
X0.24933 Y7.86312
X0.24933 Y7.85212
G04 P0 ( dwell for no time -- G64 should not smooth over this point )
G00 Z0.19685 ( retract )

G00 X0.24933 Y7.61612 ( rapid move to begin. )
G01 Z-0.01969 F1.96850 ( plunge. )
G04 P0 ( dwell for no time -- G64 should not smooth over this point )
X0.24933 Y7.61612
X0.24933 Y7.53112
X0.32133 Y7.53112
X0.32133 Y7.62712
X0.24933 Y7.62712
X0.24933 Y7.61612
G04 P0 ( dwell for no time -- G64 should not smooth over this point )
G00 Z0.19685 ( retract )

G00 X0.24933 Y7.38012 ( rapid move to begin. )
G01 Z-0.01969 F1.96850 ( plunge. )
G04 P0 ( dwell for no time -- G64 should not smooth over this point )
X0.24933 Y7.38012
X0.24933 Y7.29512
X0.32133 Y7.29512
X0.32133 Y7.39112
X0.24933 Y7.39112
X0.24933 Y7.38012
G04 P0 ( dwell for no time -- G64 should not smooth over this point )
G00 Z0.19685 ( retract )

G00 X0.24933 Y7.14312 ( rapid move to begin. )
G01 Z-0.01969 F1.96850 ( plunge. )
G04 P0 ( dwell for no time -- G64 should not smooth over this point )
X0.24933 Y7.14312
X0.24933 Y7.05912
X0.32133 Y7.05912
X0.32133 Y7.15412
X0.24933 Y7.15412
X0.24933 Y7.14312
G04 P0 ( dwell for no time -- G64 should not smooth over this point )
G00 Z0.19685 ( retract )

G00 X0.24933 Y6.90712 ( rapid move to begin. )
G01 Z-0.01969 F1.96850 ( plunge. )
G04 P0 ( dwell for no time -- G64 should not smooth over this point )
X0.24933 Y6.90712
X0.24933 Y6.82212
X0.32133 Y6.82212
X0.32133 Y6.91812
X0.24933 Y6.91812
X0.24933 Y6.90712
G04 P0 ( dwell for no time -- G64 should not smooth over this point )
G00 Z0.19685 ( retract )

G00 X0.24933 Y6.67112 ( rapid move to begin. )
G01 Z-0.01969 F1.96850 ( plunge. )
G04 P0 ( dwell for no time -- G64 should not smooth over this point )
X0.24933 Y6.67112
X0.24933 Y6.58612
X0.32133 Y6.58612
X0.32133 Y6.68212
X0.24933 Y6.68212
X0.24933 Y6.67112
G04 P0 ( dwell for no time -- G64 should not smooth over this point )
G00 Z0.19685 ( retract )

G00 X0.24933 Y6.43512 ( rapid move to begin. )
G01 Z-0.01969 F1.96850 ( plunge. )
G04 P0 ( dwell for no time -- G64 should not smooth over this point )
X0.24933 Y6.43512
X0.24933 Y6.35012
X0.32133 Y6.35012
X0.32133 Y6.44612
X0.24933 Y6.44612
X0.24933 Y6.43512
G04 P0 ( dwell for no time -- G64 should not smooth over this point )
G00 Z0.19685 ( retract )

G00 X0.24933 Y6.19912 ( rapid move to begin. )
G01 Z-0.01969 F1.96850 ( plunge. )
G04 P0 ( dwell for no time -- G64 should not smooth over this point )
X0.24933 Y6.19912
X0.24933 Y6.11412
X0.32133 Y6.11412
X0.32133 Y6.21012
X0.24933 Y6.21012
X0.24933 Y6.19912
G04 P0 ( dwell for no time -- G64 should not smooth over this point )
G00 Z0.19685 ( retract )

G00 X0.24933 Y5.96212 ( rapid move to begin. )
G01 Z-0.01969 F1.96850 ( plunge. )
G04 P0 ( dwell for no time -- G64 should not smooth over this point )
X0.24933 Y5.96212
X0.24933 Y5.87812
X0.32133 Y5.87812
X0.32133 Y5.97312
X0.24933 Y5.97312
X0.24933 Y5.96212
G04 P0 ( dwell for no time -- G64 should not smooth over this point )
G00 Z0.19685 ( retract )

G00 X0.24933 Y5.72612 ( rapid move to begin. )
G01 Z-0.01969 F1.96850 ( plunge. )
G04 P0 ( dwell for no time -- G64 should not smooth over this point )
X0.24933 Y5.72612
X0.24933 Y5.64112
X0.32133 Y5.64112
X0.32133 Y5.73712
X0.24933 Y5.73712
X0.24933 Y5.72612
G04 P0 ( dwell for no time -- G64 should not smooth over this point )
G00 Z0.19685 ( retract )

G00 X0.24933 Y5.49012 ( rapid move to begin. )
G01 Z-0.01969 F1.96850 ( plunge. )
G04 P0 ( dwell for no time -- G64 should not smooth over this point )
X0.24933 Y5.49012
X0.24933 Y5.40512
X0.32133 Y5.40512
X0.32133 Y5.50112
X0.24933 Y5.50112
X0.24933 Y5.49012
G04 P0 ( dwell for no time -- G64 should not smooth over this point )
G00 Z0.19685 ( retract )

G00 X0.24933 Y5.25412 ( rapid move to begin. )
G01 Z-0.01969 F1.96850 ( plunge. )
G04 P0 ( dwell for no time -- G64 should not smooth over this point )
X0.24933 Y5.25412
X0.24933 Y5.16912
X0.32133 Y5.16912
X0.32133 Y5.26512
X0.24933 Y5.26512
X0.24933 Y5.25412
G04 P0 ( dwell for no time -- G64 should not smooth over this point )
G00 Z0.19685 ( retract )

G00 X0.24933 Y5.01712 ( rapid move to begin. )
G01 Z-0.01969 F1.96850 ( plunge. )
G04 P0 ( dwell for no time -- G64 should not smooth over this point )
X0.24933 Y5.01712
X0.24933 Y4.93312
X0.32133 Y4.93312
X0.32133 Y5.02812
X0.24933 Y5.02812
X0.24933 Y5.01712
G04 P0 ( dwell for no time -- G64 should not smooth over this point )
G00 Z0.19685 ( retract )

G00 X0.24933 Y4.78112 ( rapid move to begin. )
G01 Z-0.01969 F1.96850 ( plunge. )
G04 P0 ( dwell for no time -- G64 should not smooth over this point )
X0.24933 Y4.78112
X0.24933 Y4.69612
X0.32133 Y4.69612
X0.32133 Y4.79212
X0.24933 Y4.79212
X0.24933 Y4.78112
G04 P0 ( dwell for no time -- G64 should not smooth over this point )
G00 Z0.19685 ( retract )

G00 X0.24933 Y4.54512 ( rapid move to begin. )
G01 Z-0.01969 F1.96850 ( plunge. )
G04 P0 ( dwell for no time -- G64 should not smooth over this point )
X0.24933 Y4.54512
X0.24933 Y4.46012
X0.32133 Y4.46012
X0.32133 Y4.55612
X0.24933 Y4.55612
X0.24933 Y4.54512
G04 P0 ( dwell for no time -- G64 should not smooth over this point )
G00 Z0.19685 ( retract )

G00 X0.24933 Y4.30912 ( rapid move to begin. )
G01 Z-0.01969 F1.96850 ( plunge. )
G04 P0 ( dwell for no time -- G64 should not smooth over this point )
X0.24933 Y4.30912
X0.24933 Y4.22412
X0.32133 Y4.22412
X0.32133 Y4.32012
X0.24933 Y4.32012
X0.24933 Y4.30912
G04 P0 ( dwell for no time -- G64 should not smooth over this point )
G00 Z0.19685 ( retract )

G00 X0.24933 Y4.07312 ( rapid move to begin. )
G01 Z-0.01969 F1.96850 ( plunge. )
G04 P0 ( dwell for no time -- G64 should not smooth over this point )
X0.24933 Y4.07312
X0.24933 Y3.98812
X0.32133 Y3.98812
X0.32133 Y4.08412
X0.24933 Y4.08412
X0.24933 Y4.07312
G04 P0 ( dwell for no time -- G64 should not smooth over this point )
G00 Z0.19685 ( retract )

G00 X0.24933 Y3.83612 ( rapid move to begin. )
G01 Z-0.01969 F1.96850 ( plunge. )
G04 P0 ( dwell for no time -- G64 should not smooth over this point )
X0.24933 Y3.83612
X0.24933 Y3.75212
X0.32133 Y3.75212
X0.32133 Y3.84712
X0.24933 Y3.84712
X0.24933 Y3.83612
G04 P0 ( dwell for no time -- G64 should not smooth over this point )
G00 Z0.19685 ( retract )

G00 X0.24933 Y3.60012 ( rapid move to begin. )
G01 Z-0.01969 F1.96850 ( plunge. )
G04 P0 ( dwell for no time -- G64 should not smooth over this point )
X0.24933 Y3.60012
X0.24933 Y3.51512
X0.32133 Y3.51512
X0.32133 Y3.61112
X0.24933 Y3.61112
X0.24933 Y3.60012
G04 P0 ( dwell for no time -- G64 should not smooth over this point )
G00 Z0.19685 ( retract )

G00 X0.24933 Y3.36412 ( rapid move to begin. )
G01 Z-0.01969 F1.96850 ( plunge. )
G04 P0 ( dwell for no time -- G64 should not smooth over this point )
X0.24933 Y3.36412
X0.24933 Y3.27912
X0.32133 Y3.27912
X0.32133 Y3.37512
X0.24933 Y3.37512
X0.24933 Y3.36412
G04 P0 ( dwell for no time -- G64 should not smooth over this point )
G00 Z0.19685 ( retract )

G00 X0.24933 Y3.12812 ( rapid move to begin. )
G01 Z-0.01969 F1.96850 ( plunge. )
G04 P0 ( dwell for no time -- G64 should not smooth over this point )
X0.24933 Y3.12812
X0.24933 Y3.04312
X0.32133 Y3.04312
X0.32133 Y3.13912
X0.24933 Y3.13912
X0.24933 Y3.12812
G04 P0 ( dwell for no time -- G64 should not smooth over this point )
G00 Z0.19685 ( retract )

G00 X0.24933 Y2.89112 ( rapid move to begin. )
G01 Z-0.01969 F1.96850 ( plunge. )
G04 P0 ( dwell for no time -- G64 should not smooth over this point )
X0.24933 Y2.89112
X0.24933 Y2.80712
X0.32133 Y2.80712
X0.32133 Y2.90212
X0.24933 Y2.90212
X0.24933 Y2.89112
G04 P0 ( dwell for no time -- G64 should not smooth over this point )
G00 Z0.19685 ( retract )

G00 X0.24933 Y2.65512 ( rapid move to begin. )
G01 Z-0.01969 F1.96850 ( plunge. )
G04 P0 ( dwell for no time -- G64 should not smooth over this point )
X0.24933 Y2.65512
X0.24933 Y2.57012
X0.32133 Y2.57012
X0.32133 Y2.66612
X0.24933 Y2.66612
X0.24933 Y2.65512
G04 P0 ( dwell for no time -- G64 should not smooth over this point )
G00 Z0.19685 ( retract )

G00 X0.24933 Y2.41912 ( rapid move to begin. )
G01 Z-0.01969 F1.96850 ( plunge. )
G04 P0 ( dwell for no time -- G64 should not smooth over this point )
X0.24933 Y2.41912
X0.24933 Y2.33412
X0.32133 Y2.33412
X0.32133 Y2.43012
X0.24933 Y2.43012
X0.24933 Y2.41912
G04 P0 ( dwell for no time -- G64 should not smooth over this point )
G00 Z0.19685 ( retract )

G00 X0.24933 Y2.18312 ( rapid move to begin. )
G01 Z-0.01969 F1.96850 ( plunge. )
G04 P0 ( dwell for no time -- G64 should not smooth over this point )
X0.24933 Y2.18312
X0.24933 Y2.09812
X0.32133 Y2.09812
X0.32133 Y2.19412
X0.24933 Y2.19412
X0.24933 Y2.18312
G04 P0 ( dwell for no time -- G64 should not smooth over this point )
G00 Z0.19685 ( retract )

G00 X0.24933 Y1.94712 ( rapid move to begin. )
G01 Z-0.01969 F1.96850 ( plunge. )
G04 P0 ( dwell for no time -- G64 should not smooth over this point )
X0.24933 Y1.94712
X0.24933 Y1.86212
X0.32133 Y1.86212
X0.32133 Y1.95812
X0.24933 Y1.95812
X0.24933 Y1.94712
G04 P0 ( dwell for no time -- G64 should not smooth over this point )
G00 Z0.19685 ( retract )

G00 X0.24933 Y1.71012 ( rapid move to begin. )
G01 Z-0.01969 F1.96850 ( plunge. )
G04 P0 ( dwell for no time -- G64 should not smooth over this point )
X0.24933 Y1.71012
X0.24933 Y1.62612
X0.32133 Y1.62612
X0.32133 Y1.72112
X0.24933 Y1.72112
X0.24933 Y1.71012
G04 P0 ( dwell for no time -- G64 should not smooth over this point )
G00 Z0.19685 ( retract )

G00 X0.24933 Y1.47412 ( rapid move to begin. )
G01 Z-0.01969 F1.96850 ( plunge. )
G04 P0 ( dwell for no time -- G64 should not smooth over this point )
X0.24933 Y1.47412
X0.24933 Y1.38912
X0.32133 Y1.38912
X0.32133 Y1.48512
X0.24933 Y1.48512
X0.24933 Y1.47412
G04 P0 ( dwell for no time -- G64 should not smooth over this point )
G00 Z0.19685 ( retract )

G00 X0.24933 Y1.23812 ( rapid move to begin. )
G01 Z-0.01969 F1.96850 ( plunge. )
G04 P0 ( dwell for no time -- G64 should not smooth over this point )
X0.24933 Y1.23812
X0.24933 Y1.15312
X0.32133 Y1.15312
X0.32133 Y1.24912
X0.24933 Y1.24912
X0.24933 Y1.23812
G04 P0 ( dwell for no time -- G64 should not smooth over this point )
G00 Z0.19685 ( retract )

G00 X0.24933 Y1.00212 ( rapid move to begin. )
G01 Z-0.01969 F1.96850 ( plunge. )
G04 P0 ( dwell for no time -- G64 should not smooth over this point )
X0.24933 Y1.00212
X0.24933 Y0.91712
X0.32133 Y0.91712
X0.32133 Y1.01312
X0.24933 Y1.01312
X0.24933 Y1.00212
G04 P0 ( dwell for no time -- G64 should not smooth over this point )
G00 Z0.19685 ( retract )

G00 X0.24933 Y0.76512 ( rapid move to begin. )
G01 Z-0.01969 F1.96850 ( plunge. )
G04 P0 ( dwell for no time -- G64 should not smooth over this point )
X0.24933 Y0.76512
X0.24933 Y0.68112
X0.32133 Y0.68112
X0.32133 Y0.77612
X0.24933 Y0.77612
X0.24933 Y0.76512

G04 P0 ( dwell for no time -- G64 should not smooth over this point )
G00 Z0.19685 ( retract )

M9 ( Coolant off. )
M2 ( Program end. )

