( pcb2gcode 1.1.4 )

( This file uses 2 drill bit sizes. )

G94     ( Inches per minute feed rate. )
G20     ( Units == INCHES.             )
G90     ( Absolute coordinates.        )
S10000  ( RPM spindle speed.           )

G00 Z0.19685 ( Retract )
T24
M5      ( Spindle stop.                )
M6      ( Tool change.                 )
(MSG, CHANGE TOOL BIT: to drill size 0.11800 inch)
M0      ( Temporary machine stop.      )
M3      ( Spindle on clockwise.        )

G81 R0.19685 Z0.00000 F0.98425 X0.17720 Y8.93700
X0.17720 Y0.27560


G00 Z0.19685 ( Retract )
T25
M5      ( Spindle stop.                )
M6      ( Tool change.                 )
(MSG, CHANGE TOOL BIT: to drill size 0.02500 inch)
M0      ( Temporary machine stop.      )
M3      ( Spindle on clockwise.        )

G81 R0.19685 Z0.00000 F0.98425 X0.06890 Y8.75980
X0.06890 Y8.52360
X0.06890 Y8.28740
X0.06890 Y8.05120
X0.06890 Y7.81500
X0.06890 Y7.57870
X0.06890 Y7.34250
X0.06890 Y7.10630
X0.06890 Y6.87010
X0.06890 Y6.63390
X0.06890 Y6.39760
X0.06890 Y6.16140
X0.06890 Y5.92520
X0.06890 Y5.68900
X0.06890 Y5.45280
X0.06890 Y5.21650
X0.06890 Y4.98030
X0.06890 Y4.74410
X0.06890 Y4.50790
X0.06890 Y4.27170
X0.06890 Y4.03540
X0.06890 Y3.79920
X0.06890 Y3.56300
X0.06890 Y3.32680
X0.06890 Y3.09060
X0.06890 Y2.85430
X0.06890 Y2.61810
X0.06890 Y2.38190
X0.06890 Y2.14570
X0.06890 Y1.90940
X0.06890 Y1.67320
X0.06890 Y1.43700
X0.06890 Y1.20080
X0.06890 Y0.96460
X0.06890 Y0.72830
X0.28540 Y8.48240
X0.28540 Y8.24610
X0.28540 Y8.00990
X0.28540 Y7.77370
X0.28540 Y7.53750
X0.28540 Y7.30130
X0.28540 Y7.06500
X0.28540 Y6.82880
X0.28540 Y6.59260
X0.28540 Y6.35640
X0.28540 Y6.12020
X0.28540 Y5.88390
X0.28540 Y5.64770
X0.28540 Y5.41150
X0.28540 Y5.17530
X0.28540 Y4.93910
X0.28540 Y4.70280
X0.28540 Y4.46660
X0.28540 Y4.23040
X0.28540 Y3.99420
X0.28540 Y3.75800
X0.28540 Y3.52170
X0.28540 Y3.28550
X0.28540 Y3.04930
X0.28540 Y2.81310
X0.28540 Y2.57690
X0.28540 Y2.34060
X0.28540 Y2.10440
X0.28540 Y1.86820
X0.28540 Y1.63200
X0.28540 Y1.39570
X0.28540 Y1.15950
X0.28540 Y0.92330
X0.28540 Y0.68710
X0.28540 Y0.45090


G00 Z0.19685 ( All done -- retract )

M9 ( Coolant off. )
M2 ( Program end. )

