( pcb2gcode 1.1.4 )

G94     ( Inches per minute feed rate. )
G20     ( Units == INCHES.             )
G90     ( Absolute coordinates.        )
S10000  ( RPM spindle speed.           )
M3      ( Spindle on clockwise.        )

G64 P0.00500 ( set maximum deviation from commanded toolpath )

G04 P0 ( dwell for no time -- G64 should not smooth over this point )
G00 Z0.19685 ( retract )

G00 X0.22400 Y9.00612 ( rapid move to begin. )
G01 Z-0.01969 F1.96850 ( plunge. )
G04 P0 ( dwell for no time -- G64 should not smooth over this point )
X0.22400 Y9.00612
X0.22600 Y9.00612
X0.22600 Y9.00512
X0.22700 Y9.00512
X0.22700 Y9.00412
X0.22800 Y9.00412
X0.22800 Y9.00312
X0.23000 Y9.00312
X0.23000 Y9.00212
X0.23100 Y9.00212
X0.23100 Y9.00112
X0.23200 Y9.00112
X0.23200 Y9.00012
X0.23300 Y9.00012
X0.23300 Y8.99912
X0.23500 Y8.99912
X0.23500 Y8.99812
X0.23600 Y8.99812
X0.23600 Y8.99712
X0.23700 Y8.99712
X0.23700 Y8.99612
X0.23800 Y8.99612
X0.23800 Y8.99512
X0.23900 Y8.99512
X0.23900 Y8.99312
X0.24000 Y8.99312
X0.24000 Y8.99212
X0.24100 Y8.99212
X0.24100 Y8.99112
X0.24200 Y8.99112
X0.24200 Y8.99012
X0.24300 Y8.99012
X0.24300 Y8.98812
X0.24400 Y8.98812
X0.24400 Y8.98712
X0.24500 Y8.98712
X0.24500 Y8.98612
X0.24600 Y8.98612
X0.24600 Y8.98412
X0.24700 Y8.98412
X0.24700 Y8.98212
X0.24800 Y8.98212
X0.24800 Y8.98012
X0.24900 Y8.98012
X0.24900 Y8.97812
X0.25000 Y8.97812
X0.25000 Y8.97712
X0.25100 Y8.97712
X0.25100 Y8.97512
X0.25200 Y8.97512
X0.25200 Y8.97212
X0.25300 Y8.97212
X0.25300 Y8.96812
X0.25400 Y8.96812
X0.25400 Y8.96512
X0.25500 Y8.96512
X0.25500 Y8.96212
X0.25600 Y8.96212
X0.25600 Y8.95212
X0.25700 Y8.95212
X0.25700 Y8.92312
X0.25600 Y8.92312
X0.25600 Y8.91312
X0.25500 Y8.91312
X0.25500 Y8.91012
X0.25400 Y8.91012
X0.25400 Y8.90712
X0.25300 Y8.90712
X0.25300 Y8.90312
X0.25200 Y8.90312
X0.25200 Y8.90012
X0.25100 Y8.90012
X0.25100 Y8.89812
X0.25000 Y8.89812
X0.25000 Y8.89712
X0.24900 Y8.89712
X0.24900 Y8.89512
X0.24800 Y8.89512
X0.24800 Y8.89312
X0.24700 Y8.89312
X0.24700 Y8.89112
X0.24600 Y8.89112
X0.24600 Y8.88912
X0.24500 Y8.88912
X0.24500 Y8.88812
X0.24400 Y8.88812
X0.24400 Y8.88712
X0.24300 Y8.88712
X0.24300 Y8.88512
X0.24200 Y8.88512
X0.24200 Y8.88412
X0.24100 Y8.88412
X0.24100 Y8.88312
X0.24000 Y8.88312
X0.24000 Y8.88212
X0.23900 Y8.88212
X0.23900 Y8.88012
X0.23800 Y8.88012
X0.23800 Y8.87912
X0.23700 Y8.87912
X0.23700 Y8.87812
X0.23600 Y8.87812
X0.23600 Y8.87712
X0.23500 Y8.87712
X0.23500 Y8.87612
X0.23300 Y8.87612
X0.23300 Y8.87512
X0.23200 Y8.87512
X0.23200 Y8.87412
X0.23100 Y8.87412
X0.23100 Y8.87312
X0.23000 Y8.87312
X0.23000 Y8.87212
X0.22800 Y8.87212
X0.22800 Y8.87112
X0.22700 Y8.87112
X0.22700 Y8.87012
X0.22600 Y8.87012
X0.22600 Y8.86912
X0.22400 Y8.86912
X0.22400 Y8.86812
X0.22200 Y8.86812
X0.22200 Y8.86712
X0.22000 Y8.86712
X0.22000 Y8.86612
X0.21800 Y8.86612
X0.21800 Y8.86512
X0.21700 Y8.86512
X0.21700 Y8.86412
X0.21500 Y8.86412
X0.21500 Y8.86312
X0.21200 Y8.86312
X0.21200 Y8.86212
X0.20800 Y8.86212
X0.20800 Y8.86112
X0.20500 Y8.86112
X0.20500 Y8.86012
X0.20200 Y8.86012
X0.20200 Y8.85912
X0.19200 Y8.85912
X0.19200 Y8.85812
X0.16300 Y8.85812
X0.16300 Y8.85912
X0.15300 Y8.85912
X0.15300 Y8.86012
X0.15000 Y8.86012
X0.15000 Y8.86112
X0.14700 Y8.86112
X0.14700 Y8.86212
X0.14300 Y8.86212
X0.14300 Y8.86312
X0.14000 Y8.86312
X0.14000 Y8.86412
X0.13800 Y8.86412
X0.13800 Y8.86512
X0.13700 Y8.86512
X0.13700 Y8.86612
X0.13500 Y8.86612
X0.13500 Y8.86712
X0.13300 Y8.86712
X0.13300 Y8.86812
X0.13100 Y8.86812
X0.13100 Y8.86912
X0.12900 Y8.86912
X0.12900 Y8.87012
X0.12800 Y8.87012
X0.12800 Y8.87112
X0.12600 Y8.87112
X0.12600 Y8.87212
X0.12500 Y8.87212
X0.12500 Y8.87312
X0.12400 Y8.87312
X0.12400 Y8.87412
X0.12300 Y8.87412
X0.12300 Y8.87512
X0.12200 Y8.87512
X0.12200 Y8.87612
X0.12000 Y8.87612
X0.12000 Y8.87712
X0.11900 Y8.87712
X0.11900 Y8.87812
X0.11800 Y8.87812
X0.11800 Y8.87912
X0.11700 Y8.87912
X0.11700 Y8.88012
X0.11600 Y8.88012
X0.11600 Y8.88212
X0.11500 Y8.88212
X0.11500 Y8.88312
X0.11400 Y8.88312
X0.11400 Y8.88412
X0.11300 Y8.88412
X0.11300 Y8.88512
X0.11200 Y8.88512
X0.11200 Y8.88612
X0.11100 Y8.88612
X0.11100 Y8.88812
X0.11000 Y8.88812
X0.11000 Y8.88912
X0.10900 Y8.88912
X0.10900 Y8.89112
X0.10800 Y8.89112
X0.10800 Y8.89312
X0.10700 Y8.89312
X0.10700 Y8.89512
X0.10600 Y8.89512
X0.10600 Y8.89712
X0.10500 Y8.89712
X0.10500 Y8.89812
X0.10400 Y8.89812
X0.10400 Y8.90012
X0.10300 Y8.90012
X0.10300 Y8.90312
X0.10200 Y8.90312
X0.10200 Y8.90712
X0.10100 Y8.90712
X0.10100 Y8.91012
X0.10000 Y8.91012
X0.10000 Y8.91312
X0.09900 Y8.91312
X0.09900 Y8.92312
X0.09800 Y8.92312
X0.09800 Y8.95212
X0.09900 Y8.95212
X0.09900 Y8.96212
X0.10000 Y8.96212
X0.10000 Y8.96512
X0.10100 Y8.96512
X0.10100 Y8.96812
X0.10200 Y8.96812
X0.10200 Y8.97212
X0.10300 Y8.97212
X0.10300 Y8.97512
X0.10400 Y8.97512
X0.10400 Y8.97712
X0.10500 Y8.97712
X0.10500 Y8.97812
X0.10600 Y8.97812
X0.10600 Y8.98012
X0.10700 Y8.98012
X0.10700 Y8.98212
X0.10800 Y8.98212
X0.10800 Y8.98412
X0.10900 Y8.98412
X0.10900 Y8.98612
X0.11000 Y8.98612
X0.11000 Y8.98712
X0.11100 Y8.98712
X0.11100 Y8.98912
X0.11200 Y8.98912
X0.11200 Y8.99012
X0.11300 Y8.99012
X0.11300 Y8.99112
X0.11400 Y8.99112
X0.11400 Y8.99212
X0.11500 Y8.99212
X0.11500 Y8.99312
X0.11600 Y8.99312
X0.11600 Y8.99512
X0.11700 Y8.99512
X0.11700 Y8.99612
X0.11800 Y8.99612
X0.11800 Y8.99712
X0.11900 Y8.99712
X0.11900 Y8.99812
X0.12000 Y8.99812
X0.12000 Y8.99912
X0.12200 Y8.99912
X0.12200 Y9.00012
X0.12300 Y9.00012
X0.12300 Y9.00112
X0.12400 Y9.00112
X0.12400 Y9.00212
X0.12500 Y9.00212
X0.12500 Y9.00312
X0.12600 Y9.00312
X0.12600 Y9.00412
X0.12800 Y9.00412
X0.12800 Y9.00512
X0.12900 Y9.00512
X0.12900 Y9.00612
X0.13100 Y9.00612
X0.13100 Y9.00712
X0.13300 Y9.00712
X0.13300 Y9.00812
X0.13500 Y9.00812
X0.13500 Y9.00912
X0.13700 Y9.00912
X0.13700 Y9.01012
X0.13800 Y9.01012
X0.13800 Y9.01112
X0.14000 Y9.01112
X0.14000 Y9.01212
X0.14300 Y9.01212
X0.14300 Y9.01312
X0.14700 Y9.01312
X0.14700 Y9.01412
X0.15000 Y9.01412
X0.15000 Y9.01512
X0.15300 Y9.01512
X0.15300 Y9.01612
X0.16300 Y9.01612
X0.16300 Y9.01712
X0.19200 Y9.01712
X0.19200 Y9.01612
X0.20200 Y9.01612
X0.20200 Y9.01512
X0.20500 Y9.01512
X0.20500 Y9.01412
X0.20800 Y9.01412
X0.20800 Y9.01312
X0.21200 Y9.01312
X0.21200 Y9.01212
X0.21500 Y9.01212
X0.21500 Y9.01112
X0.21700 Y9.01112
X0.21700 Y9.01012
X0.21800 Y9.01012
X0.21800 Y9.00912
X0.22000 Y9.00912
X0.22000 Y9.00812
X0.22200 Y9.00812
X0.22200 Y9.00712
X0.22400 Y9.00712
X0.22400 Y9.00612
G04 P0 ( dwell for no time -- G64 should not smooth over this point )
G00 Z0.19685 ( retract )

G00 X0.11500 Y8.79012 ( rapid move to begin. )
G01 Z-0.01969 F1.96850 ( plunge. )
G04 P0 ( dwell for no time -- G64 should not smooth over this point )
X0.11500 Y8.79012
X0.11500 Y8.72012
X0.02400 Y8.72012
X0.02400 Y8.80112
X0.11500 Y8.80112
X0.11500 Y8.79012
G04 P0 ( dwell for no time -- G64 should not smooth over this point )
G00 Z0.19685 ( retract )

G00 X0.22300 Y8.71112 ( rapid move to begin. )
G01 Z-0.01969 F1.96850 ( plunge. )
G04 P0 ( dwell for no time -- G64 should not smooth over this point )
X0.22300 Y8.71112
X0.22300 Y8.64112
X0.16900 Y8.64112
X0.16900 Y8.64012
X0.16800 Y8.64012
X0.16800 Y8.63912
X0.16700 Y8.63912
X0.16700 Y8.63812
X0.16600 Y8.63812
X0.16600 Y8.63712
X0.16500 Y8.63712
X0.16500 Y8.63612
X0.16400 Y8.63612
X0.16400 Y8.63512
X0.16300 Y8.63512
X0.16300 Y8.63412
X0.16200 Y8.63412
X0.16200 Y8.63312
X0.16100 Y8.63312
X0.16100 Y8.63212
X0.16000 Y8.63212
X0.16000 Y8.63112
X0.15900 Y8.63112
X0.15900 Y8.63012
X0.15800 Y8.63012
X0.15800 Y8.62912
X0.15700 Y8.62912
X0.15700 Y8.62812
X0.15600 Y8.62812
X0.15600 Y8.62712
X0.15500 Y8.62712
X0.15500 Y8.62612
X0.15400 Y8.62612
X0.15400 Y8.62512
X0.15300 Y8.62512
X0.15300 Y8.62412
X0.15200 Y8.62412
X0.15200 Y8.62312
X0.15000 Y8.62312
X0.15000 Y8.62212
X0.11500 Y8.62212
X0.11500 Y8.60012
X0.02400 Y8.60012
X0.02400 Y8.68112
X0.11500 Y8.68112
X0.11500 Y8.65812
X0.12400 Y8.65812
X0.12400 Y8.65912
X0.12500 Y8.65912
X0.12500 Y8.66012
X0.12600 Y8.66012
X0.12600 Y8.66112
X0.12700 Y8.66112
X0.12700 Y8.66212
X0.12800 Y8.66212
X0.12800 Y8.66312
X0.12900 Y8.66312
X0.12900 Y8.66412
X0.13000 Y8.66412
X0.13000 Y8.66512
X0.13100 Y8.66512
X0.13100 Y8.66612
X0.13200 Y8.66612
X0.13200 Y8.72212
X0.22300 Y8.72212
X0.22300 Y8.71112
G04 P0 ( dwell for no time -- G64 should not smooth over this point )
G00 Z0.19685 ( retract )

G00 X0.33100 Y8.63212 ( rapid move to begin. )
G01 Z-0.01969 F1.96850 ( plunge. )
G04 P0 ( dwell for no time -- G64 should not smooth over this point )
X0.33100 Y8.63212
X0.33100 Y8.56212
X0.27700 Y8.56212
X0.27700 Y8.56112
X0.27600 Y8.56112
X0.27600 Y8.56012
X0.27500 Y8.56012
X0.27500 Y8.55912
X0.27400 Y8.55912
X0.27400 Y8.55812
X0.27300 Y8.55812
X0.27300 Y8.55712
X0.27200 Y8.55712
X0.27200 Y8.55612
X0.27100 Y8.55612
X0.27100 Y8.55512
X0.27000 Y8.55512
X0.27000 Y8.55412
X0.26900 Y8.55412
X0.26900 Y8.55312
X0.26800 Y8.55312
X0.26800 Y8.55212
X0.26700 Y8.55212
X0.26700 Y8.55112
X0.26600 Y8.55112
X0.26600 Y8.55012
X0.26500 Y8.55012
X0.26500 Y8.54912
X0.26400 Y8.54912
X0.26400 Y8.54812
X0.26300 Y8.54812
X0.26300 Y8.54712
X0.26200 Y8.54712
X0.26200 Y8.54612
X0.26100 Y8.54612
X0.26100 Y8.54512
X0.26000 Y8.54512
X0.26000 Y8.54412
X0.25800 Y8.54412
X0.25800 Y8.54312
X0.22300 Y8.54312
X0.22300 Y8.52112
X0.13200 Y8.52112
X0.13200 Y8.60212
X0.22300 Y8.60212
X0.22300 Y8.57912
X0.23200 Y8.57912
X0.23200 Y8.58012
X0.23300 Y8.58012
X0.23300 Y8.58112
X0.23400 Y8.58112
X0.23400 Y8.58212
X0.23500 Y8.58212
X0.23500 Y8.58312
X0.23600 Y8.58312
X0.23600 Y8.58412
X0.23700 Y8.58412
X0.23700 Y8.58512
X0.23800 Y8.58512
X0.23800 Y8.58612
X0.23900 Y8.58612
X0.23900 Y8.58712
X0.24000 Y8.58712
X0.24000 Y8.64312
X0.33100 Y8.64312
X0.33100 Y8.63212
G04 P0 ( dwell for no time -- G64 should not smooth over this point )
G00 Z0.19685 ( retract )

G00 X0.11500 Y8.55312 ( rapid move to begin. )
G01 Z-0.01969 F1.96850 ( plunge. )
G04 P0 ( dwell for no time -- G64 should not smooth over this point )
X0.11500 Y8.55312
X0.11500 Y8.48312
X0.02400 Y8.48312
X0.02400 Y8.56412
X0.11500 Y8.56412
X0.11500 Y8.55312
G04 P0 ( dwell for no time -- G64 should not smooth over this point )
G00 Z0.19685 ( retract )

G00 X0.33100 Y8.51212 ( rapid move to begin. )
G01 Z-0.01969 F1.96850 ( plunge. )
G04 P0 ( dwell for no time -- G64 should not smooth over this point )
X0.33100 Y8.51212
X0.33100 Y8.44212
X0.24000 Y8.44212
X0.24000 Y8.52312
X0.33100 Y8.52312
X0.33100 Y8.51212
G04 P0 ( dwell for no time -- G64 should not smooth over this point )
G00 Z0.19685 ( retract )

G00 X0.22300 Y8.47512 ( rapid move to begin. )
G01 Z-0.01969 F1.96850 ( plunge. )
G04 P0 ( dwell for no time -- G64 should not smooth over this point )
X0.22300 Y8.47512
X0.22300 Y8.40512
X0.17000 Y8.40512
X0.17000 Y8.40412
X0.16900 Y8.40412
X0.16900 Y8.40312
X0.16800 Y8.40312
X0.16800 Y8.40212
X0.16700 Y8.40212
X0.16700 Y8.40112
X0.16600 Y8.40112
X0.16600 Y8.40012
X0.16500 Y8.40012
X0.16500 Y8.39912
X0.16400 Y8.39912
X0.16400 Y8.39812
X0.16300 Y8.39812
X0.16300 Y8.39712
X0.16200 Y8.39712
X0.16200 Y8.39612
X0.16100 Y8.39612
X0.16100 Y8.39512
X0.16000 Y8.39512
X0.16000 Y8.39412
X0.15900 Y8.39412
X0.15900 Y8.39312
X0.15800 Y8.39312
X0.15800 Y8.39212
X0.15700 Y8.39212
X0.15700 Y8.39112
X0.15600 Y8.39112
X0.15600 Y8.39012
X0.15500 Y8.39012
X0.15500 Y8.38912
X0.15400 Y8.38912
X0.15400 Y8.38812
X0.15300 Y8.38812
X0.15300 Y8.38712
X0.15200 Y8.38712
X0.15200 Y8.38612
X0.15000 Y8.38612
X0.15000 Y8.38512
X0.11500 Y8.38512
X0.11500 Y8.36312
X0.02400 Y8.36312
X0.02400 Y8.44412
X0.11500 Y8.44412
X0.11500 Y8.42112
X0.12400 Y8.42112
X0.12400 Y8.42212
X0.12500 Y8.42212
X0.12500 Y8.42312
X0.12600 Y8.42312
X0.12600 Y8.42412
X0.12700 Y8.42412
X0.12700 Y8.42512
X0.12800 Y8.42512
X0.12800 Y8.42612
X0.12900 Y8.42612
X0.12900 Y8.42712
X0.13000 Y8.42712
X0.13000 Y8.42812
X0.13100 Y8.42812
X0.13100 Y8.42912
X0.13200 Y8.42912
X0.13200 Y8.48612
X0.22300 Y8.48612
X0.22300 Y8.47512
G04 P0 ( dwell for no time -- G64 should not smooth over this point )
G00 Z0.19685 ( retract )

G00 X0.33100 Y8.39612 ( rapid move to begin. )
G01 Z-0.01969 F1.96850 ( plunge. )
G04 P0 ( dwell for no time -- G64 should not smooth over this point )
X0.33100 Y8.39612
X0.33100 Y8.32612
X0.27700 Y8.32612
X0.27700 Y8.32512
X0.27600 Y8.32512
X0.27600 Y8.32412
X0.27500 Y8.32412
X0.27500 Y8.32312
X0.27400 Y8.32312
X0.27400 Y8.32212
X0.27300 Y8.32212
X0.27300 Y8.32112
X0.27200 Y8.32112
X0.27200 Y8.32012
X0.27100 Y8.32012
X0.27100 Y8.31912
X0.27000 Y8.31912
X0.27000 Y8.31812
X0.26900 Y8.31812
X0.26900 Y8.31712
X0.26800 Y8.31712
X0.26800 Y8.31612
X0.26700 Y8.31612
X0.26700 Y8.31512
X0.26600 Y8.31512
X0.26600 Y8.31412
X0.26500 Y8.31412
X0.26500 Y8.31312
X0.26400 Y8.31312
X0.26400 Y8.31212
X0.26300 Y8.31212
X0.26300 Y8.31112
X0.26200 Y8.31112
X0.26200 Y8.31012
X0.26100 Y8.31012
X0.26100 Y8.30912
X0.26000 Y8.30912
X0.26000 Y8.30812
X0.25800 Y8.30812
X0.25800 Y8.30712
X0.22300 Y8.30712
X0.22300 Y8.28512
X0.13200 Y8.28512
X0.13200 Y8.36612
X0.22300 Y8.36612
X0.22300 Y8.34312
X0.23200 Y8.34312
X0.23200 Y8.34412
X0.23300 Y8.34412
X0.23300 Y8.34512
X0.23400 Y8.34512
X0.23400 Y8.34612
X0.23500 Y8.34612
X0.23500 Y8.34712
X0.23600 Y8.34712
X0.23600 Y8.34812
X0.23700 Y8.34812
X0.23700 Y8.34912
X0.23800 Y8.34912
X0.23800 Y8.35012
X0.23900 Y8.35012
X0.23900 Y8.35112
X0.24000 Y8.35112
X0.24000 Y8.40712
X0.33100 Y8.40712
X0.33100 Y8.39612
G04 P0 ( dwell for no time -- G64 should not smooth over this point )
G00 Z0.19685 ( retract )

G00 X0.11500 Y8.31712 ( rapid move to begin. )
G01 Z-0.01969 F1.96850 ( plunge. )
G04 P0 ( dwell for no time -- G64 should not smooth over this point )
X0.11500 Y8.31712
X0.11500 Y8.24712
X0.02400 Y8.24712
X0.02400 Y8.32812
X0.11500 Y8.32812
X0.11500 Y8.31712
G04 P0 ( dwell for no time -- G64 should not smooth over this point )
G00 Z0.19685 ( retract )

G00 X0.33100 Y8.27612 ( rapid move to begin. )
G01 Z-0.01969 F1.96850 ( plunge. )
G04 P0 ( dwell for no time -- G64 should not smooth over this point )
X0.33100 Y8.27612
X0.33100 Y8.20612
X0.24000 Y8.20612
X0.24000 Y8.28712
X0.33100 Y8.28712
X0.33100 Y8.27612
G04 P0 ( dwell for no time -- G64 should not smooth over this point )
G00 Z0.19685 ( retract )

G00 X0.22300 Y8.23812 ( rapid move to begin. )
G01 Z-0.01969 F1.96850 ( plunge. )
G04 P0 ( dwell for no time -- G64 should not smooth over this point )
X0.22300 Y8.23812
X0.22300 Y8.16812
X0.16900 Y8.16812
X0.16900 Y8.16712
X0.16800 Y8.16712
X0.16800 Y8.16612
X0.16700 Y8.16612
X0.16700 Y8.16512
X0.16600 Y8.16512
X0.16600 Y8.16412
X0.16500 Y8.16412
X0.16500 Y8.16312
X0.16400 Y8.16312
X0.16400 Y8.16212
X0.16300 Y8.16212
X0.16300 Y8.16112
X0.16200 Y8.16112
X0.16200 Y8.16012
X0.16100 Y8.16012
X0.16100 Y8.15912
X0.16000 Y8.15912
X0.16000 Y8.15812
X0.15900 Y8.15812
X0.15900 Y8.15712
X0.15800 Y8.15712
X0.15800 Y8.15612
X0.15700 Y8.15612
X0.15700 Y8.15512
X0.15600 Y8.15512
X0.15600 Y8.15412
X0.15500 Y8.15412
X0.15500 Y8.15312
X0.15400 Y8.15312
X0.15400 Y8.15212
X0.15300 Y8.15212
X0.15300 Y8.15112
X0.15200 Y8.15112
X0.15200 Y8.15012
X0.15000 Y8.15012
X0.15000 Y8.14912
X0.11500 Y8.14912
X0.11500 Y8.12712
X0.02400 Y8.12712
X0.02400 Y8.20812
X0.11500 Y8.20812
X0.11500 Y8.18512
X0.12400 Y8.18512
X0.12400 Y8.18612
X0.12500 Y8.18612
X0.12500 Y8.18712
X0.12600 Y8.18712
X0.12600 Y8.18812
X0.12700 Y8.18812
X0.12700 Y8.18912
X0.12800 Y8.18912
X0.12800 Y8.19012
X0.12900 Y8.19012
X0.12900 Y8.19112
X0.13000 Y8.19112
X0.13000 Y8.19212
X0.13100 Y8.19212
X0.13100 Y8.19312
X0.13200 Y8.19312
X0.13200 Y8.24912
X0.22300 Y8.24912
X0.22300 Y8.23812
G04 P0 ( dwell for no time -- G64 should not smooth over this point )
G00 Z0.19685 ( retract )

G00 X0.33100 Y8.16012 ( rapid move to begin. )
G01 Z-0.01969 F1.96850 ( plunge. )
G04 P0 ( dwell for no time -- G64 should not smooth over this point )
X0.33100 Y8.16012
X0.33100 Y8.09012
X0.27800 Y8.09012
X0.27800 Y8.08912
X0.27700 Y8.08912
X0.27700 Y8.08812
X0.27600 Y8.08812
X0.27600 Y8.08712
X0.27500 Y8.08712
X0.27500 Y8.08612
X0.27400 Y8.08612
X0.27400 Y8.08512
X0.27300 Y8.08512
X0.27300 Y8.08412
X0.27200 Y8.08412
X0.27200 Y8.08312
X0.27100 Y8.08312
X0.27100 Y8.08212
X0.27000 Y8.08212
X0.27000 Y8.08112
X0.26900 Y8.08112
X0.26900 Y8.08012
X0.26800 Y8.08012
X0.26800 Y8.07912
X0.26700 Y8.07912
X0.26700 Y8.07812
X0.26600 Y8.07812
X0.26600 Y8.07712
X0.26500 Y8.07712
X0.26500 Y8.07612
X0.26400 Y8.07612
X0.26400 Y8.07512
X0.26300 Y8.07512
X0.26300 Y8.07412
X0.26200 Y8.07412
X0.26200 Y8.07312
X0.26100 Y8.07312
X0.26100 Y8.07212
X0.26000 Y8.07212
X0.26000 Y8.07112
X0.25800 Y8.07112
X0.25800 Y8.07012
X0.22300 Y8.07012
X0.22300 Y8.04812
X0.13200 Y8.04812
X0.13200 Y8.12912
X0.22300 Y8.12912
X0.22300 Y8.10612
X0.23200 Y8.10612
X0.23200 Y8.10712
X0.23300 Y8.10712
X0.23300 Y8.10812
X0.23400 Y8.10812
X0.23400 Y8.10912
X0.23500 Y8.10912
X0.23500 Y8.11012
X0.23600 Y8.11012
X0.23600 Y8.11112
X0.23700 Y8.11112
X0.23700 Y8.11212
X0.23800 Y8.11212
X0.23800 Y8.11312
X0.23900 Y8.11312
X0.23900 Y8.11412
X0.24000 Y8.11412
X0.24000 Y8.17112
X0.33100 Y8.17112
X0.33100 Y8.16012
G04 P0 ( dwell for no time -- G64 should not smooth over this point )
G00 Z0.19685 ( retract )

G00 X0.11500 Y8.08112 ( rapid move to begin. )
G01 Z-0.01969 F1.96850 ( plunge. )
G04 P0 ( dwell for no time -- G64 should not smooth over this point )
X0.11500 Y8.08112
X0.11500 Y8.01112
X0.02400 Y8.01112
X0.02400 Y8.09212
X0.11500 Y8.09212
X0.11500 Y8.08112
G04 P0 ( dwell for no time -- G64 should not smooth over this point )
G00 Z0.19685 ( retract )

G00 X0.33100 Y8.04012 ( rapid move to begin. )
G01 Z-0.01969 F1.96850 ( plunge. )
G04 P0 ( dwell for no time -- G64 should not smooth over this point )
X0.33100 Y8.04012
X0.33100 Y7.97012
X0.24000 Y7.97012
X0.24000 Y8.05112
X0.33100 Y8.05112
X0.33100 Y8.04012
G04 P0 ( dwell for no time -- G64 should not smooth over this point )
G00 Z0.19685 ( retract )

G00 X0.22300 Y8.00212 ( rapid move to begin. )
G01 Z-0.01969 F1.96850 ( plunge. )
G04 P0 ( dwell for no time -- G64 should not smooth over this point )
X0.22300 Y8.00212
X0.22300 Y7.93212
X0.16900 Y7.93212
X0.16900 Y7.93112
X0.16800 Y7.93112
X0.16800 Y7.93012
X0.16700 Y7.93012
X0.16700 Y7.92912
X0.16600 Y7.92912
X0.16600 Y7.92812
X0.16500 Y7.92812
X0.16500 Y7.92712
X0.16400 Y7.92712
X0.16400 Y7.92612
X0.16300 Y7.92612
X0.16300 Y7.92512
X0.16200 Y7.92512
X0.16200 Y7.92412
X0.16100 Y7.92412
X0.16100 Y7.92312
X0.16000 Y7.92312
X0.16000 Y7.92212
X0.15900 Y7.92212
X0.15900 Y7.92112
X0.15800 Y7.92112
X0.15800 Y7.92012
X0.15700 Y7.92012
X0.15700 Y7.91912
X0.15600 Y7.91912
X0.15600 Y7.91812
X0.15500 Y7.91812
X0.15500 Y7.91712
X0.15400 Y7.91712
X0.15400 Y7.91612
X0.15300 Y7.91612
X0.15300 Y7.91512
X0.15200 Y7.91512
X0.15200 Y7.91412
X0.15000 Y7.91412
X0.15000 Y7.91312
X0.11500 Y7.91312
X0.11500 Y7.89112
X0.02400 Y7.89112
X0.02400 Y7.97212
X0.11500 Y7.97212
X0.11500 Y7.94912
X0.12400 Y7.94912
X0.12400 Y7.95012
X0.12500 Y7.95012
X0.12500 Y7.95112
X0.12600 Y7.95112
X0.12600 Y7.95212
X0.12700 Y7.95212
X0.12700 Y7.95312
X0.12800 Y7.95312
X0.12800 Y7.95412
X0.12900 Y7.95412
X0.12900 Y7.95512
X0.13000 Y7.95512
X0.13000 Y7.95612
X0.13100 Y7.95612
X0.13100 Y7.95712
X0.13200 Y7.95712
X0.13200 Y8.01312
X0.22300 Y8.01312
X0.22300 Y8.00212
G04 P0 ( dwell for no time -- G64 should not smooth over this point )
G00 Z0.19685 ( retract )

G00 X0.33100 Y7.92312 ( rapid move to begin. )
G01 Z-0.01969 F1.96850 ( plunge. )
G04 P0 ( dwell for no time -- G64 should not smooth over this point )
X0.33100 Y7.92312
X0.33100 Y7.85312
X0.27700 Y7.85312
X0.27700 Y7.85212
X0.27600 Y7.85212
X0.27600 Y7.85112
X0.27500 Y7.85112
X0.27500 Y7.85012
X0.27400 Y7.85012
X0.27400 Y7.84912
X0.27300 Y7.84912
X0.27300 Y7.84812
X0.27200 Y7.84812
X0.27200 Y7.84712
X0.27100 Y7.84712
X0.27100 Y7.84612
X0.27000 Y7.84612
X0.27000 Y7.84512
X0.26900 Y7.84512
X0.26900 Y7.84412
X0.26800 Y7.84412
X0.26800 Y7.84312
X0.26700 Y7.84312
X0.26700 Y7.84212
X0.26600 Y7.84212
X0.26600 Y7.84112
X0.26500 Y7.84112
X0.26500 Y7.84012
X0.26400 Y7.84012
X0.26400 Y7.83912
X0.26300 Y7.83912
X0.26300 Y7.83812
X0.26200 Y7.83812
X0.26200 Y7.83712
X0.26100 Y7.83712
X0.26100 Y7.83612
X0.26000 Y7.83612
X0.26000 Y7.83512
X0.25800 Y7.83512
X0.25800 Y7.83412
X0.22300 Y7.83412
X0.22300 Y7.81212
X0.13200 Y7.81212
X0.13200 Y7.89312
X0.22300 Y7.89312
X0.22300 Y7.87012
X0.23200 Y7.87012
X0.23200 Y7.87112
X0.23300 Y7.87112
X0.23300 Y7.87212
X0.23400 Y7.87212
X0.23400 Y7.87312
X0.23500 Y7.87312
X0.23500 Y7.87412
X0.23600 Y7.87412
X0.23600 Y7.87512
X0.23700 Y7.87512
X0.23700 Y7.87612
X0.23800 Y7.87612
X0.23800 Y7.87712
X0.23900 Y7.87712
X0.23900 Y7.87812
X0.24000 Y7.87812
X0.24000 Y7.93412
X0.33100 Y7.93412
X0.33100 Y7.92312
G04 P0 ( dwell for no time -- G64 should not smooth over this point )
G00 Z0.19685 ( retract )

G00 X0.11500 Y7.84512 ( rapid move to begin. )
G01 Z-0.01969 F1.96850 ( plunge. )
G04 P0 ( dwell for no time -- G64 should not smooth over this point )
X0.11500 Y7.84512
X0.11500 Y7.77512
X0.02400 Y7.77512
X0.02400 Y7.85612
X0.11500 Y7.85612
X0.11500 Y7.84512
G04 P0 ( dwell for no time -- G64 should not smooth over this point )
G00 Z0.19685 ( retract )

G00 X0.33100 Y7.80312 ( rapid move to begin. )
G01 Z-0.01969 F1.96850 ( plunge. )
G04 P0 ( dwell for no time -- G64 should not smooth over this point )
X0.33100 Y7.80312
X0.33100 Y7.73312
X0.24000 Y7.73312
X0.24000 Y7.81412
X0.33100 Y7.81412
X0.33100 Y7.80312
G04 P0 ( dwell for no time -- G64 should not smooth over this point )
G00 Z0.19685 ( retract )

G00 X0.22300 Y7.76612 ( rapid move to begin. )
G01 Z-0.01969 F1.96850 ( plunge. )
G04 P0 ( dwell for no time -- G64 should not smooth over this point )
X0.22300 Y7.76612
X0.22300 Y7.69612
X0.16900 Y7.69612
X0.16900 Y7.69512
X0.16800 Y7.69512
X0.16800 Y7.69412
X0.16700 Y7.69412
X0.16700 Y7.69312
X0.16600 Y7.69312
X0.16600 Y7.69212
X0.16500 Y7.69212
X0.16500 Y7.69112
X0.16400 Y7.69112
X0.16400 Y7.69012
X0.16300 Y7.69012
X0.16300 Y7.68912
X0.16200 Y7.68912
X0.16200 Y7.68812
X0.16100 Y7.68812
X0.16100 Y7.68712
X0.16000 Y7.68712
X0.16000 Y7.68612
X0.15900 Y7.68612
X0.15900 Y7.68512
X0.15800 Y7.68512
X0.15800 Y7.68412
X0.15700 Y7.68412
X0.15700 Y7.68312
X0.15600 Y7.68312
X0.15600 Y7.68212
X0.15500 Y7.68212
X0.15500 Y7.68112
X0.15400 Y7.68112
X0.15400 Y7.68012
X0.15300 Y7.68012
X0.15300 Y7.67912
X0.15200 Y7.67912
X0.15200 Y7.67812
X0.15000 Y7.67812
X0.15000 Y7.67712
X0.11500 Y7.67712
X0.11500 Y7.65512
X0.02400 Y7.65512
X0.02400 Y7.73612
X0.11500 Y7.73612
X0.11500 Y7.71312
X0.12400 Y7.71312
X0.12400 Y7.71412
X0.12500 Y7.71412
X0.12500 Y7.71512
X0.12600 Y7.71512
X0.12600 Y7.71612
X0.12700 Y7.71612
X0.12700 Y7.71712
X0.12800 Y7.71712
X0.12800 Y7.71812
X0.12900 Y7.71812
X0.12900 Y7.71912
X0.13000 Y7.71912
X0.13000 Y7.72012
X0.13100 Y7.72012
X0.13100 Y7.72112
X0.13200 Y7.72112
X0.13200 Y7.77712
X0.22300 Y7.77712
X0.22300 Y7.76612
G04 P0 ( dwell for no time -- G64 should not smooth over this point )
G00 Z0.19685 ( retract )

G00 X0.33100 Y7.68712 ( rapid move to begin. )
G01 Z-0.01969 F1.96850 ( plunge. )
G04 P0 ( dwell for no time -- G64 should not smooth over this point )
X0.33100 Y7.68712
X0.33100 Y7.61712
X0.27700 Y7.61712
X0.27700 Y7.61612
X0.27600 Y7.61612
X0.27600 Y7.61512
X0.27500 Y7.61512
X0.27500 Y7.61412
X0.27400 Y7.61412
X0.27400 Y7.61312
X0.27300 Y7.61312
X0.27300 Y7.61212
X0.27200 Y7.61212
X0.27200 Y7.61112
X0.27100 Y7.61112
X0.27100 Y7.61012
X0.27000 Y7.61012
X0.27000 Y7.60912
X0.26900 Y7.60912
X0.26900 Y7.60812
X0.26800 Y7.60812
X0.26800 Y7.60712
X0.26700 Y7.60712
X0.26700 Y7.60612
X0.26600 Y7.60612
X0.26600 Y7.60512
X0.26500 Y7.60512
X0.26500 Y7.60412
X0.26400 Y7.60412
X0.26400 Y7.60312
X0.26300 Y7.60312
X0.26300 Y7.60212
X0.26200 Y7.60212
X0.26200 Y7.60112
X0.26100 Y7.60112
X0.26100 Y7.60012
X0.26000 Y7.60012
X0.26000 Y7.59912
X0.25800 Y7.59912
X0.25800 Y7.59812
X0.22300 Y7.59812
X0.22300 Y7.57612
X0.13200 Y7.57612
X0.13200 Y7.65712
X0.22300 Y7.65712
X0.22300 Y7.63412
X0.23200 Y7.63412
X0.23200 Y7.63512
X0.23300 Y7.63512
X0.23300 Y7.63612
X0.23400 Y7.63612
X0.23400 Y7.63712
X0.23500 Y7.63712
X0.23500 Y7.63812
X0.23600 Y7.63812
X0.23600 Y7.63912
X0.23700 Y7.63912
X0.23700 Y7.64012
X0.23800 Y7.64012
X0.23800 Y7.64112
X0.23900 Y7.64112
X0.23900 Y7.64212
X0.24000 Y7.64212
X0.24000 Y7.69812
X0.33100 Y7.69812
X0.33100 Y7.68712
G04 P0 ( dwell for no time -- G64 should not smooth over this point )
G00 Z0.19685 ( retract )

G00 X0.11500 Y7.60812 ( rapid move to begin. )
G01 Z-0.01969 F1.96850 ( plunge. )
G04 P0 ( dwell for no time -- G64 should not smooth over this point )
X0.11500 Y7.60812
X0.11500 Y7.53812
X0.02400 Y7.53812
X0.02400 Y7.61912
X0.11500 Y7.61912
X0.11500 Y7.60812
G04 P0 ( dwell for no time -- G64 should not smooth over this point )
G00 Z0.19685 ( retract )

G00 X0.33100 Y7.56712 ( rapid move to begin. )
G01 Z-0.01969 F1.96850 ( plunge. )
G04 P0 ( dwell for no time -- G64 should not smooth over this point )
X0.33100 Y7.56712
X0.33100 Y7.49712
X0.24000 Y7.49712
X0.24000 Y7.57812
X0.33100 Y7.57812
X0.33100 Y7.56712
G04 P0 ( dwell for no time -- G64 should not smooth over this point )
G00 Z0.19685 ( retract )

G00 X0.22300 Y7.53012 ( rapid move to begin. )
G01 Z-0.01969 F1.96850 ( plunge. )
G04 P0 ( dwell for no time -- G64 should not smooth over this point )
X0.22300 Y7.53012
X0.22300 Y7.46012
X0.17000 Y7.46012
X0.17000 Y7.45912
X0.16900 Y7.45912
X0.16900 Y7.45812
X0.16800 Y7.45812
X0.16800 Y7.45712
X0.16700 Y7.45712
X0.16700 Y7.45612
X0.16600 Y7.45612
X0.16600 Y7.45512
X0.16500 Y7.45512
X0.16500 Y7.45412
X0.16400 Y7.45412
X0.16400 Y7.45312
X0.16300 Y7.45312
X0.16300 Y7.45212
X0.16200 Y7.45212
X0.16200 Y7.45112
X0.16100 Y7.45112
X0.16100 Y7.45012
X0.16000 Y7.45012
X0.16000 Y7.44912
X0.15900 Y7.44912
X0.15900 Y7.44812
X0.15800 Y7.44812
X0.15800 Y7.44712
X0.15700 Y7.44712
X0.15700 Y7.44612
X0.15600 Y7.44612
X0.15600 Y7.44512
X0.15500 Y7.44512
X0.15500 Y7.44412
X0.15400 Y7.44412
X0.15400 Y7.44312
X0.15300 Y7.44312
X0.15300 Y7.44212
X0.15200 Y7.44212
X0.15200 Y7.44112
X0.15000 Y7.44112
X0.15000 Y7.44012
X0.11500 Y7.44012
X0.11500 Y7.41812
X0.02400 Y7.41812
X0.02400 Y7.49912
X0.11500 Y7.49912
X0.11500 Y7.47612
X0.12400 Y7.47612
X0.12400 Y7.47712
X0.12500 Y7.47712
X0.12500 Y7.47812
X0.12600 Y7.47812
X0.12600 Y7.47912
X0.12700 Y7.47912
X0.12700 Y7.48012
X0.12800 Y7.48012
X0.12800 Y7.48112
X0.12900 Y7.48112
X0.12900 Y7.48212
X0.13000 Y7.48212
X0.13000 Y7.48312
X0.13100 Y7.48312
X0.13100 Y7.48412
X0.13200 Y7.48412
X0.13200 Y7.54112
X0.22300 Y7.54112
X0.22300 Y7.53012
G04 P0 ( dwell for no time -- G64 should not smooth over this point )
G00 Z0.19685 ( retract )

G00 X0.33100 Y7.45112 ( rapid move to begin. )
G01 Z-0.01969 F1.96850 ( plunge. )
G04 P0 ( dwell for no time -- G64 should not smooth over this point )
X0.33100 Y7.45112
X0.33100 Y7.38112
X0.27700 Y7.38112
X0.27700 Y7.38012
X0.27600 Y7.38012
X0.27600 Y7.37912
X0.27500 Y7.37912
X0.27500 Y7.37812
X0.27400 Y7.37812
X0.27400 Y7.37712
X0.27300 Y7.37712
X0.27300 Y7.37612
X0.27200 Y7.37612
X0.27200 Y7.37512
X0.27100 Y7.37512
X0.27100 Y7.37412
X0.27000 Y7.37412
X0.27000 Y7.37312
X0.26900 Y7.37312
X0.26900 Y7.37212
X0.26800 Y7.37212
X0.26800 Y7.37112
X0.26700 Y7.37112
X0.26700 Y7.37012
X0.26600 Y7.37012
X0.26600 Y7.36912
X0.26500 Y7.36912
X0.26500 Y7.36812
X0.26400 Y7.36812
X0.26400 Y7.36712
X0.26300 Y7.36712
X0.26300 Y7.36612
X0.26200 Y7.36612
X0.26200 Y7.36512
X0.26100 Y7.36512
X0.26100 Y7.36412
X0.26000 Y7.36412
X0.26000 Y7.36312
X0.25800 Y7.36312
X0.25800 Y7.36212
X0.22300 Y7.36212
X0.22300 Y7.34012
X0.13200 Y7.34012
X0.13200 Y7.42112
X0.22300 Y7.42112
X0.22300 Y7.39812
X0.23200 Y7.39812
X0.23200 Y7.39912
X0.23300 Y7.39912
X0.23300 Y7.40012
X0.23400 Y7.40012
X0.23400 Y7.40112
X0.23500 Y7.40112
X0.23500 Y7.40212
X0.23600 Y7.40212
X0.23600 Y7.40312
X0.23700 Y7.40312
X0.23700 Y7.40412
X0.23800 Y7.40412
X0.23800 Y7.40512
X0.23900 Y7.40512
X0.23900 Y7.40612
X0.24000 Y7.40612
X0.24000 Y7.46212
X0.33100 Y7.46212
X0.33100 Y7.45112
G04 P0 ( dwell for no time -- G64 should not smooth over this point )
G00 Z0.19685 ( retract )

G00 X0.11500 Y7.37212 ( rapid move to begin. )
G01 Z-0.01969 F1.96850 ( plunge. )
G04 P0 ( dwell for no time -- G64 should not smooth over this point )
X0.11500 Y7.37212
X0.11500 Y7.30212
X0.02400 Y7.30212
X0.02400 Y7.38312
X0.11500 Y7.38312
X0.11500 Y7.37212
G04 P0 ( dwell for no time -- G64 should not smooth over this point )
G00 Z0.19685 ( retract )

G00 X0.33100 Y7.33112 ( rapid move to begin. )
G01 Z-0.01969 F1.96850 ( plunge. )
G04 P0 ( dwell for no time -- G64 should not smooth over this point )
X0.33100 Y7.33112
X0.33100 Y7.26112
X0.24000 Y7.26112
X0.24000 Y7.34212
X0.33100 Y7.34212
X0.33100 Y7.33112
G04 P0 ( dwell for no time -- G64 should not smooth over this point )
G00 Z0.19685 ( retract )

G00 X0.22300 Y7.29412 ( rapid move to begin. )
G01 Z-0.01969 F1.96850 ( plunge. )
G04 P0 ( dwell for no time -- G64 should not smooth over this point )
X0.22300 Y7.29412
X0.22300 Y7.22412
X0.17000 Y7.22412
X0.17000 Y7.22312
X0.16900 Y7.22312
X0.16900 Y7.22212
X0.16800 Y7.22212
X0.16800 Y7.22112
X0.16700 Y7.22112
X0.16700 Y7.22012
X0.16600 Y7.22012
X0.16600 Y7.21912
X0.16500 Y7.21912
X0.16500 Y7.21812
X0.16400 Y7.21812
X0.16400 Y7.21712
X0.16300 Y7.21712
X0.16300 Y7.21612
X0.16200 Y7.21612
X0.16200 Y7.21512
X0.16100 Y7.21512
X0.16100 Y7.21412
X0.16000 Y7.21412
X0.16000 Y7.21312
X0.15900 Y7.21312
X0.15900 Y7.21212
X0.15800 Y7.21212
X0.15800 Y7.21112
X0.15700 Y7.21112
X0.15700 Y7.21012
X0.15600 Y7.21012
X0.15600 Y7.20912
X0.15500 Y7.20912
X0.15500 Y7.20812
X0.15400 Y7.20812
X0.15400 Y7.20712
X0.15300 Y7.20712
X0.15300 Y7.20612
X0.15200 Y7.20612
X0.15200 Y7.20512
X0.15000 Y7.20512
X0.15000 Y7.20412
X0.11500 Y7.20412
X0.11500 Y7.18212
X0.02400 Y7.18212
X0.02400 Y7.26312
X0.11500 Y7.26312
X0.11500 Y7.24012
X0.12400 Y7.24012
X0.12400 Y7.24112
X0.12500 Y7.24112
X0.12500 Y7.24212
X0.12600 Y7.24212
X0.12600 Y7.24312
X0.12700 Y7.24312
X0.12700 Y7.24412
X0.12800 Y7.24412
X0.12800 Y7.24512
X0.12900 Y7.24512
X0.12900 Y7.24612
X0.13000 Y7.24612
X0.13000 Y7.24712
X0.13100 Y7.24712
X0.13100 Y7.24812
X0.13200 Y7.24812
X0.13200 Y7.30512
X0.22300 Y7.30512
X0.22300 Y7.29412
G04 P0 ( dwell for no time -- G64 should not smooth over this point )
G00 Z0.19685 ( retract )

G00 X0.33100 Y7.21512 ( rapid move to begin. )
G01 Z-0.01969 F1.96850 ( plunge. )
G04 P0 ( dwell for no time -- G64 should not smooth over this point )
X0.33100 Y7.21512
X0.33100 Y7.14512
X0.27700 Y7.14512
X0.27700 Y7.14412
X0.27600 Y7.14412
X0.27600 Y7.14312
X0.27500 Y7.14312
X0.27500 Y7.14212
X0.27400 Y7.14212
X0.27400 Y7.14112
X0.27300 Y7.14112
X0.27300 Y7.14012
X0.27200 Y7.14012
X0.27200 Y7.13912
X0.27100 Y7.13912
X0.27100 Y7.13812
X0.27000 Y7.13812
X0.27000 Y7.13712
X0.26900 Y7.13712
X0.26900 Y7.13612
X0.26800 Y7.13612
X0.26800 Y7.13512
X0.26700 Y7.13512
X0.26700 Y7.13412
X0.26600 Y7.13412
X0.26600 Y7.13312
X0.26500 Y7.13312
X0.26500 Y7.13212
X0.26400 Y7.13212
X0.26400 Y7.13112
X0.26300 Y7.13112
X0.26300 Y7.13012
X0.26200 Y7.13012
X0.26200 Y7.12912
X0.26100 Y7.12912
X0.26100 Y7.12812
X0.26000 Y7.12812
X0.26000 Y7.12712
X0.25800 Y7.12712
X0.25800 Y7.12612
X0.22300 Y7.12612
X0.22300 Y7.10412
X0.13200 Y7.10412
X0.13200 Y7.18512
X0.22300 Y7.18512
X0.22300 Y7.16212
X0.23200 Y7.16212
X0.23200 Y7.16312
X0.23300 Y7.16312
X0.23300 Y7.16412
X0.23400 Y7.16412
X0.23400 Y7.16512
X0.23500 Y7.16512
X0.23500 Y7.16612
X0.23600 Y7.16612
X0.23600 Y7.16712
X0.23700 Y7.16712
X0.23700 Y7.16812
X0.23800 Y7.16812
X0.23800 Y7.16912
X0.23900 Y7.16912
X0.23900 Y7.17012
X0.24000 Y7.17012
X0.24000 Y7.22612
X0.33100 Y7.22612
X0.33100 Y7.21512
G04 P0 ( dwell for no time -- G64 should not smooth over this point )
G00 Z0.19685 ( retract )

G00 X0.11500 Y7.13612 ( rapid move to begin. )
G01 Z-0.01969 F1.96850 ( plunge. )
G04 P0 ( dwell for no time -- G64 should not smooth over this point )
X0.11500 Y7.13612
X0.11500 Y7.06612
X0.02400 Y7.06612
X0.02400 Y7.14712
X0.11500 Y7.14712
X0.11500 Y7.13612
G04 P0 ( dwell for no time -- G64 should not smooth over this point )
G00 Z0.19685 ( retract )

G00 X0.33100 Y7.09512 ( rapid move to begin. )
G01 Z-0.01969 F1.96850 ( plunge. )
G04 P0 ( dwell for no time -- G64 should not smooth over this point )
X0.33100 Y7.09512
X0.33100 Y7.02512
X0.24000 Y7.02512
X0.24000 Y7.10612
X0.33100 Y7.10612
X0.33100 Y7.09512
G04 P0 ( dwell for no time -- G64 should not smooth over this point )
G00 Z0.19685 ( retract )

G00 X0.22300 Y7.05712 ( rapid move to begin. )
G01 Z-0.01969 F1.96850 ( plunge. )
G04 P0 ( dwell for no time -- G64 should not smooth over this point )
X0.22300 Y7.05712
X0.22300 Y6.98712
X0.16900 Y6.98712
X0.16900 Y6.98612
X0.16800 Y6.98612
X0.16800 Y6.98512
X0.16700 Y6.98512
X0.16700 Y6.98412
X0.16600 Y6.98412
X0.16600 Y6.98312
X0.16500 Y6.98312
X0.16500 Y6.98212
X0.16400 Y6.98212
X0.16400 Y6.98112
X0.16300 Y6.98112
X0.16300 Y6.98012
X0.16200 Y6.98012
X0.16200 Y6.97912
X0.16100 Y6.97912
X0.16100 Y6.97812
X0.16000 Y6.97812
X0.16000 Y6.97712
X0.15900 Y6.97712
X0.15900 Y6.97612
X0.15800 Y6.97612
X0.15800 Y6.97512
X0.15700 Y6.97512
X0.15700 Y6.97412
X0.15600 Y6.97412
X0.15600 Y6.97312
X0.15500 Y6.97312
X0.15500 Y6.97212
X0.15400 Y6.97212
X0.15400 Y6.97112
X0.15300 Y6.97112
X0.15300 Y6.97012
X0.15200 Y6.97012
X0.15200 Y6.96912
X0.15000 Y6.96912
X0.15000 Y6.96812
X0.11500 Y6.96812
X0.11500 Y6.94612
X0.02400 Y6.94612
X0.02400 Y7.02712
X0.11500 Y7.02712
X0.11500 Y7.00412
X0.12400 Y7.00412
X0.12400 Y7.00512
X0.12500 Y7.00512
X0.12500 Y7.00612
X0.12600 Y7.00612
X0.12600 Y7.00712
X0.12700 Y7.00712
X0.12700 Y7.00812
X0.12800 Y7.00812
X0.12800 Y7.00912
X0.12900 Y7.00912
X0.12900 Y7.01012
X0.13000 Y7.01012
X0.13000 Y7.01112
X0.13100 Y7.01112
X0.13100 Y7.01212
X0.13200 Y7.01212
X0.13200 Y7.06812
X0.22300 Y7.06812
X0.22300 Y7.05712
G04 P0 ( dwell for no time -- G64 should not smooth over this point )
G00 Z0.19685 ( retract )

G00 X0.33100 Y6.97912 ( rapid move to begin. )
G01 Z-0.01969 F1.96850 ( plunge. )
G04 P0 ( dwell for no time -- G64 should not smooth over this point )
X0.33100 Y6.97912
X0.33100 Y6.90912
X0.27800 Y6.90912
X0.27800 Y6.90812
X0.27700 Y6.90812
X0.27700 Y6.90712
X0.27600 Y6.90712
X0.27600 Y6.90612
X0.27500 Y6.90612
X0.27500 Y6.90512
X0.27400 Y6.90512
X0.27400 Y6.90412
X0.27300 Y6.90412
X0.27300 Y6.90312
X0.27200 Y6.90312
X0.27200 Y6.90212
X0.27100 Y6.90212
X0.27100 Y6.90112
X0.27000 Y6.90112
X0.27000 Y6.90012
X0.26900 Y6.90012
X0.26900 Y6.89912
X0.26800 Y6.89912
X0.26800 Y6.89812
X0.26700 Y6.89812
X0.26700 Y6.89712
X0.26600 Y6.89712
X0.26600 Y6.89612
X0.26500 Y6.89612
X0.26500 Y6.89512
X0.26400 Y6.89512
X0.26400 Y6.89412
X0.26300 Y6.89412
X0.26300 Y6.89312
X0.26200 Y6.89312
X0.26200 Y6.89212
X0.26100 Y6.89212
X0.26100 Y6.89112
X0.26000 Y6.89112
X0.26000 Y6.89012
X0.25800 Y6.89012
X0.25800 Y6.88912
X0.22300 Y6.88912
X0.22300 Y6.86712
X0.13200 Y6.86712
X0.13200 Y6.94812
X0.22300 Y6.94812
X0.22300 Y6.92512
X0.23200 Y6.92512
X0.23200 Y6.92612
X0.23300 Y6.92612
X0.23300 Y6.92712
X0.23400 Y6.92712
X0.23400 Y6.92812
X0.23500 Y6.92812
X0.23500 Y6.92912
X0.23600 Y6.92912
X0.23600 Y6.93012
X0.23700 Y6.93012
X0.23700 Y6.93112
X0.23800 Y6.93112
X0.23800 Y6.93212
X0.23900 Y6.93212
X0.23900 Y6.93312
X0.24000 Y6.93312
X0.24000 Y6.99012
X0.33100 Y6.99012
X0.33100 Y6.97912
G04 P0 ( dwell for no time -- G64 should not smooth over this point )
G00 Z0.19685 ( retract )

G00 X0.11500 Y6.90012 ( rapid move to begin. )
G01 Z-0.01969 F1.96850 ( plunge. )
G04 P0 ( dwell for no time -- G64 should not smooth over this point )
X0.11500 Y6.90012
X0.11500 Y6.83012
X0.02400 Y6.83012
X0.02400 Y6.91112
X0.11500 Y6.91112
X0.11500 Y6.90012
G04 P0 ( dwell for no time -- G64 should not smooth over this point )
G00 Z0.19685 ( retract )

G00 X0.33100 Y6.85912 ( rapid move to begin. )
G01 Z-0.01969 F1.96850 ( plunge. )
G04 P0 ( dwell for no time -- G64 should not smooth over this point )
X0.33100 Y6.85912
X0.33100 Y6.78912
X0.24000 Y6.78912
X0.24000 Y6.87012
X0.33100 Y6.87012
X0.33100 Y6.85912
G04 P0 ( dwell for no time -- G64 should not smooth over this point )
G00 Z0.19685 ( retract )

G00 X0.22300 Y6.82112 ( rapid move to begin. )
G01 Z-0.01969 F1.96850 ( plunge. )
G04 P0 ( dwell for no time -- G64 should not smooth over this point )
X0.22300 Y6.82112
X0.22300 Y6.75112
X0.16900 Y6.75112
X0.16900 Y6.75012
X0.16800 Y6.75012
X0.16800 Y6.74912
X0.16700 Y6.74912
X0.16700 Y6.74812
X0.16600 Y6.74812
X0.16600 Y6.74712
X0.16500 Y6.74712
X0.16500 Y6.74612
X0.16400 Y6.74612
X0.16400 Y6.74512
X0.16300 Y6.74512
X0.16300 Y6.74412
X0.16200 Y6.74412
X0.16200 Y6.74312
X0.16100 Y6.74312
X0.16100 Y6.74212
X0.16000 Y6.74212
X0.16000 Y6.74112
X0.15900 Y6.74112
X0.15900 Y6.74012
X0.15800 Y6.74012
X0.15800 Y6.73912
X0.15700 Y6.73912
X0.15700 Y6.73812
X0.15600 Y6.73812
X0.15600 Y6.73712
X0.15500 Y6.73712
X0.15500 Y6.73612
X0.15400 Y6.73612
X0.15400 Y6.73512
X0.15300 Y6.73512
X0.15300 Y6.73412
X0.15200 Y6.73412
X0.15200 Y6.73312
X0.15000 Y6.73312
X0.15000 Y6.73212
X0.11500 Y6.73212
X0.11500 Y6.71012
X0.02400 Y6.71012
X0.02400 Y6.79112
X0.11500 Y6.79112
X0.11500 Y6.76812
X0.12400 Y6.76812
X0.12400 Y6.76912
X0.12500 Y6.76912
X0.12500 Y6.77012
X0.12600 Y6.77012
X0.12600 Y6.77112
X0.12700 Y6.77112
X0.12700 Y6.77212
X0.12800 Y6.77212
X0.12800 Y6.77312
X0.12900 Y6.77312
X0.12900 Y6.77412
X0.13000 Y6.77412
X0.13000 Y6.77512
X0.13100 Y6.77512
X0.13100 Y6.77612
X0.13200 Y6.77612
X0.13200 Y6.83212
X0.22300 Y6.83212
X0.22300 Y6.82112
G04 P0 ( dwell for no time -- G64 should not smooth over this point )
G00 Z0.19685 ( retract )

G00 X0.33100 Y6.74212 ( rapid move to begin. )
G01 Z-0.01969 F1.96850 ( plunge. )
G04 P0 ( dwell for no time -- G64 should not smooth over this point )
X0.33100 Y6.74212
X0.33100 Y6.67212
X0.27700 Y6.67212
X0.27700 Y6.67112
X0.27600 Y6.67112
X0.27600 Y6.67012
X0.27500 Y6.67012
X0.27500 Y6.66912
X0.27400 Y6.66912
X0.27400 Y6.66812
X0.27300 Y6.66812
X0.27300 Y6.66712
X0.27200 Y6.66712
X0.27200 Y6.66612
X0.27100 Y6.66612
X0.27100 Y6.66512
X0.27000 Y6.66512
X0.27000 Y6.66412
X0.26900 Y6.66412
X0.26900 Y6.66312
X0.26800 Y6.66312
X0.26800 Y6.66212
X0.26700 Y6.66212
X0.26700 Y6.66112
X0.26600 Y6.66112
X0.26600 Y6.66012
X0.26500 Y6.66012
X0.26500 Y6.65912
X0.26400 Y6.65912
X0.26400 Y6.65812
X0.26300 Y6.65812
X0.26300 Y6.65712
X0.26200 Y6.65712
X0.26200 Y6.65612
X0.26100 Y6.65612
X0.26100 Y6.65512
X0.26000 Y6.65512
X0.26000 Y6.65412
X0.25800 Y6.65412
X0.25800 Y6.65312
X0.22300 Y6.65312
X0.22300 Y6.63112
X0.13200 Y6.63112
X0.13200 Y6.71212
X0.22300 Y6.71212
X0.22300 Y6.68912
X0.23200 Y6.68912
X0.23200 Y6.69012
X0.23300 Y6.69012
X0.23300 Y6.69112
X0.23400 Y6.69112
X0.23400 Y6.69212
X0.23500 Y6.69212
X0.23500 Y6.69312
X0.23600 Y6.69312
X0.23600 Y6.69412
X0.23700 Y6.69412
X0.23700 Y6.69512
X0.23800 Y6.69512
X0.23800 Y6.69612
X0.23900 Y6.69612
X0.23900 Y6.69712
X0.24000 Y6.69712
X0.24000 Y6.75312
X0.33100 Y6.75312
X0.33100 Y6.74212
G04 P0 ( dwell for no time -- G64 should not smooth over this point )
G00 Z0.19685 ( retract )

G00 X0.11500 Y6.66412 ( rapid move to begin. )
G01 Z-0.01969 F1.96850 ( plunge. )
G04 P0 ( dwell for no time -- G64 should not smooth over this point )
X0.11500 Y6.66412
X0.11500 Y6.59412
X0.02400 Y6.59412
X0.02400 Y6.67512
X0.11500 Y6.67512
X0.11500 Y6.66412
G04 P0 ( dwell for no time -- G64 should not smooth over this point )
G00 Z0.19685 ( retract )

G00 X0.33100 Y6.62212 ( rapid move to begin. )
G01 Z-0.01969 F1.96850 ( plunge. )
G04 P0 ( dwell for no time -- G64 should not smooth over this point )
X0.33100 Y6.62212
X0.33100 Y6.55212
X0.24000 Y6.55212
X0.24000 Y6.63312
X0.33100 Y6.63312
X0.33100 Y6.62212
G04 P0 ( dwell for no time -- G64 should not smooth over this point )
G00 Z0.19685 ( retract )

G00 X0.22300 Y6.58512 ( rapid move to begin. )
G01 Z-0.01969 F1.96850 ( plunge. )
G04 P0 ( dwell for no time -- G64 should not smooth over this point )
X0.22300 Y6.58512
X0.22300 Y6.51512
X0.16900 Y6.51512
X0.16900 Y6.51412
X0.16800 Y6.51412
X0.16800 Y6.51312
X0.16700 Y6.51312
X0.16700 Y6.51212
X0.16600 Y6.51212
X0.16600 Y6.51112
X0.16500 Y6.51112
X0.16500 Y6.51012
X0.16400 Y6.51012
X0.16400 Y6.50912
X0.16300 Y6.50912
X0.16300 Y6.50812
X0.16200 Y6.50812
X0.16200 Y6.50712
X0.16100 Y6.50712
X0.16100 Y6.50612
X0.16000 Y6.50612
X0.16000 Y6.50512
X0.15900 Y6.50512
X0.15900 Y6.50412
X0.15800 Y6.50412
X0.15800 Y6.50312
X0.15700 Y6.50312
X0.15700 Y6.50212
X0.15600 Y6.50212
X0.15600 Y6.50112
X0.15500 Y6.50112
X0.15500 Y6.50012
X0.15400 Y6.50012
X0.15400 Y6.49912
X0.15300 Y6.49912
X0.15300 Y6.49812
X0.15200 Y6.49812
X0.15200 Y6.49712
X0.15000 Y6.49712
X0.15000 Y6.49612
X0.11500 Y6.49612
X0.11500 Y6.47412
X0.02400 Y6.47412
X0.02400 Y6.55512
X0.11500 Y6.55512
X0.11500 Y6.53212
X0.12400 Y6.53212
X0.12400 Y6.53312
X0.12500 Y6.53312
X0.12500 Y6.53412
X0.12600 Y6.53412
X0.12600 Y6.53512
X0.12700 Y6.53512
X0.12700 Y6.53612
X0.12800 Y6.53612
X0.12800 Y6.53712
X0.12900 Y6.53712
X0.12900 Y6.53812
X0.13000 Y6.53812
X0.13000 Y6.53912
X0.13100 Y6.53912
X0.13100 Y6.54012
X0.13200 Y6.54012
X0.13200 Y6.59612
X0.22300 Y6.59612
X0.22300 Y6.58512
G04 P0 ( dwell for no time -- G64 should not smooth over this point )
G00 Z0.19685 ( retract )

G00 X0.33100 Y6.50612 ( rapid move to begin. )
G01 Z-0.01969 F1.96850 ( plunge. )
G04 P0 ( dwell for no time -- G64 should not smooth over this point )
X0.33100 Y6.50612
X0.33100 Y6.43612
X0.27700 Y6.43612
X0.27700 Y6.43512
X0.27600 Y6.43512
X0.27600 Y6.43412
X0.27500 Y6.43412
X0.27500 Y6.43312
X0.27400 Y6.43312
X0.27400 Y6.43212
X0.27300 Y6.43212
X0.27300 Y6.43112
X0.27200 Y6.43112
X0.27200 Y6.43012
X0.27100 Y6.43012
X0.27100 Y6.42912
X0.27000 Y6.42912
X0.27000 Y6.42812
X0.26900 Y6.42812
X0.26900 Y6.42712
X0.26800 Y6.42712
X0.26800 Y6.42612
X0.26700 Y6.42612
X0.26700 Y6.42512
X0.26600 Y6.42512
X0.26600 Y6.42412
X0.26500 Y6.42412
X0.26500 Y6.42312
X0.26400 Y6.42312
X0.26400 Y6.42212
X0.26300 Y6.42212
X0.26300 Y6.42112
X0.26200 Y6.42112
X0.26200 Y6.42012
X0.26100 Y6.42012
X0.26100 Y6.41912
X0.26000 Y6.41912
X0.26000 Y6.41812
X0.25800 Y6.41812
X0.25800 Y6.41712
X0.22300 Y6.41712
X0.22300 Y6.39512
X0.13200 Y6.39512
X0.13200 Y6.47612
X0.22300 Y6.47612
X0.22300 Y6.45312
X0.23200 Y6.45312
X0.23200 Y6.45412
X0.23300 Y6.45412
X0.23300 Y6.45512
X0.23400 Y6.45512
X0.23400 Y6.45612
X0.23500 Y6.45612
X0.23500 Y6.45712
X0.23600 Y6.45712
X0.23600 Y6.45812
X0.23700 Y6.45812
X0.23700 Y6.45912
X0.23800 Y6.45912
X0.23800 Y6.46012
X0.23900 Y6.46012
X0.23900 Y6.46112
X0.24000 Y6.46112
X0.24000 Y6.51712
X0.33100 Y6.51712
X0.33100 Y6.50612
G04 P0 ( dwell for no time -- G64 should not smooth over this point )
G00 Z0.19685 ( retract )

G00 X0.11500 Y6.42712 ( rapid move to begin. )
G01 Z-0.01969 F1.96850 ( plunge. )
G04 P0 ( dwell for no time -- G64 should not smooth over this point )
X0.11500 Y6.42712
X0.11500 Y6.35712
X0.02400 Y6.35712
X0.02400 Y6.43812
X0.11500 Y6.43812
X0.11500 Y6.42712
G04 P0 ( dwell for no time -- G64 should not smooth over this point )
G00 Z0.19685 ( retract )

G00 X0.33100 Y6.38612 ( rapid move to begin. )
G01 Z-0.01969 F1.96850 ( plunge. )
G04 P0 ( dwell for no time -- G64 should not smooth over this point )
X0.33100 Y6.38612
X0.33100 Y6.31612
X0.24000 Y6.31612
X0.24000 Y6.39712
X0.33100 Y6.39712
X0.33100 Y6.38612
G04 P0 ( dwell for no time -- G64 should not smooth over this point )
G00 Z0.19685 ( retract )

G00 X0.22300 Y6.34912 ( rapid move to begin. )
G01 Z-0.01969 F1.96850 ( plunge. )
G04 P0 ( dwell for no time -- G64 should not smooth over this point )
X0.22300 Y6.34912
X0.22300 Y6.27912
X0.17000 Y6.27912
X0.17000 Y6.27812
X0.16900 Y6.27812
X0.16900 Y6.27712
X0.16800 Y6.27712
X0.16800 Y6.27612
X0.16700 Y6.27612
X0.16700 Y6.27512
X0.16600 Y6.27512
X0.16600 Y6.27412
X0.16500 Y6.27412
X0.16500 Y6.27312
X0.16400 Y6.27312
X0.16400 Y6.27212
X0.16300 Y6.27212
X0.16300 Y6.27112
X0.16200 Y6.27112
X0.16200 Y6.27012
X0.16100 Y6.27012
X0.16100 Y6.26912
X0.16000 Y6.26912
X0.16000 Y6.26812
X0.15900 Y6.26812
X0.15900 Y6.26712
X0.15800 Y6.26712
X0.15800 Y6.26612
X0.15700 Y6.26612
X0.15700 Y6.26512
X0.15600 Y6.26512
X0.15600 Y6.26412
X0.15500 Y6.26412
X0.15500 Y6.26312
X0.15400 Y6.26312
X0.15400 Y6.26212
X0.15300 Y6.26212
X0.15300 Y6.26112
X0.15200 Y6.26112
X0.15200 Y6.26012
X0.15000 Y6.26012
X0.15000 Y6.25912
X0.11500 Y6.25912
X0.11500 Y6.23712
X0.02400 Y6.23712
X0.02400 Y6.31812
X0.11500 Y6.31812
X0.11500 Y6.29512
X0.12400 Y6.29512
X0.12400 Y6.29612
X0.12500 Y6.29612
X0.12500 Y6.29712
X0.12600 Y6.29712
X0.12600 Y6.29812
X0.12700 Y6.29812
X0.12700 Y6.29912
X0.12800 Y6.29912
X0.12800 Y6.30012
X0.12900 Y6.30012
X0.12900 Y6.30112
X0.13000 Y6.30112
X0.13000 Y6.30212
X0.13100 Y6.30212
X0.13100 Y6.30312
X0.13200 Y6.30312
X0.13200 Y6.36012
X0.22300 Y6.36012
X0.22300 Y6.34912
G04 P0 ( dwell for no time -- G64 should not smooth over this point )
G00 Z0.19685 ( retract )

G00 X0.33100 Y6.27012 ( rapid move to begin. )
G01 Z-0.01969 F1.96850 ( plunge. )
G04 P0 ( dwell for no time -- G64 should not smooth over this point )
X0.33100 Y6.27012
X0.33100 Y6.20012
X0.27700 Y6.20012
X0.27700 Y6.19912
X0.27600 Y6.19912
X0.27600 Y6.19812
X0.27500 Y6.19812
X0.27500 Y6.19712
X0.27400 Y6.19712
X0.27400 Y6.19612
X0.27300 Y6.19612
X0.27300 Y6.19512
X0.27200 Y6.19512
X0.27200 Y6.19412
X0.27100 Y6.19412
X0.27100 Y6.19312
X0.27000 Y6.19312
X0.27000 Y6.19212
X0.26900 Y6.19212
X0.26900 Y6.19112
X0.26800 Y6.19112
X0.26800 Y6.19012
X0.26700 Y6.19012
X0.26700 Y6.18912
X0.26600 Y6.18912
X0.26600 Y6.18812
X0.26500 Y6.18812
X0.26500 Y6.18712
X0.26400 Y6.18712
X0.26400 Y6.18612
X0.26300 Y6.18612
X0.26300 Y6.18512
X0.26200 Y6.18512
X0.26200 Y6.18412
X0.26100 Y6.18412
X0.26100 Y6.18312
X0.26000 Y6.18312
X0.26000 Y6.18212
X0.25800 Y6.18212
X0.25800 Y6.18112
X0.22300 Y6.18112
X0.22300 Y6.15912
X0.13200 Y6.15912
X0.13200 Y6.24012
X0.22300 Y6.24012
X0.22300 Y6.21712
X0.23200 Y6.21712
X0.23200 Y6.21812
X0.23300 Y6.21812
X0.23300 Y6.21912
X0.23400 Y6.21912
X0.23400 Y6.22012
X0.23500 Y6.22012
X0.23500 Y6.22112
X0.23600 Y6.22112
X0.23600 Y6.22212
X0.23700 Y6.22212
X0.23700 Y6.22312
X0.23800 Y6.22312
X0.23800 Y6.22412
X0.23900 Y6.22412
X0.23900 Y6.22512
X0.24000 Y6.22512
X0.24000 Y6.28112
X0.33100 Y6.28112
X0.33100 Y6.27012
G04 P0 ( dwell for no time -- G64 should not smooth over this point )
G00 Z0.19685 ( retract )

G00 X0.11500 Y6.19112 ( rapid move to begin. )
G01 Z-0.01969 F1.96850 ( plunge. )
G04 P0 ( dwell for no time -- G64 should not smooth over this point )
X0.11500 Y6.19112
X0.11500 Y6.12112
X0.02400 Y6.12112
X0.02400 Y6.20212
X0.11500 Y6.20212
X0.11500 Y6.19112
G04 P0 ( dwell for no time -- G64 should not smooth over this point )
G00 Z0.19685 ( retract )

G00 X0.33100 Y6.15012 ( rapid move to begin. )
G01 Z-0.01969 F1.96850 ( plunge. )
G04 P0 ( dwell for no time -- G64 should not smooth over this point )
X0.33100 Y6.15012
X0.33100 Y6.08012
X0.24000 Y6.08012
X0.24000 Y6.16112
X0.33100 Y6.16112
X0.33100 Y6.15012
G04 P0 ( dwell for no time -- G64 should not smooth over this point )
G00 Z0.19685 ( retract )

G00 X0.22300 Y6.11212 ( rapid move to begin. )
G01 Z-0.01969 F1.96850 ( plunge. )
G04 P0 ( dwell for no time -- G64 should not smooth over this point )
X0.22300 Y6.11212
X0.22300 Y6.04212
X0.16900 Y6.04212
X0.16900 Y6.04112
X0.16800 Y6.04112
X0.16800 Y6.04012
X0.16700 Y6.04012
X0.16700 Y6.03912
X0.16600 Y6.03912
X0.16600 Y6.03812
X0.16500 Y6.03812
X0.16500 Y6.03712
X0.16400 Y6.03712
X0.16400 Y6.03612
X0.16300 Y6.03612
X0.16300 Y6.03512
X0.16200 Y6.03512
X0.16200 Y6.03412
X0.16100 Y6.03412
X0.16100 Y6.03312
X0.16000 Y6.03312
X0.16000 Y6.03212
X0.15900 Y6.03212
X0.15900 Y6.03112
X0.15800 Y6.03112
X0.15800 Y6.03012
X0.15700 Y6.03012
X0.15700 Y6.02912
X0.15600 Y6.02912
X0.15600 Y6.02812
X0.15500 Y6.02812
X0.15500 Y6.02712
X0.15400 Y6.02712
X0.15400 Y6.02612
X0.15300 Y6.02612
X0.15300 Y6.02512
X0.15200 Y6.02512
X0.15200 Y6.02412
X0.15000 Y6.02412
X0.15000 Y6.02312
X0.11500 Y6.02312
X0.11500 Y6.00112
X0.02400 Y6.00112
X0.02400 Y6.08212
X0.11500 Y6.08212
X0.11500 Y6.05912
X0.12400 Y6.05912
X0.12400 Y6.06012
X0.12500 Y6.06012
X0.12500 Y6.06112
X0.12600 Y6.06112
X0.12600 Y6.06212
X0.12700 Y6.06212
X0.12700 Y6.06312
X0.12800 Y6.06312
X0.12800 Y6.06412
X0.12900 Y6.06412
X0.12900 Y6.06512
X0.13000 Y6.06512
X0.13000 Y6.06612
X0.13100 Y6.06612
X0.13100 Y6.06712
X0.13200 Y6.06712
X0.13200 Y6.12312
X0.22300 Y6.12312
X0.22300 Y6.11212
G04 P0 ( dwell for no time -- G64 should not smooth over this point )
G00 Z0.19685 ( retract )

G00 X0.33100 Y6.03412 ( rapid move to begin. )
G01 Z-0.01969 F1.96850 ( plunge. )
G04 P0 ( dwell for no time -- G64 should not smooth over this point )
X0.33100 Y6.03412
X0.33100 Y5.96412
X0.27800 Y5.96412
X0.27800 Y5.96312
X0.27700 Y5.96312
X0.27700 Y5.96212
X0.27600 Y5.96212
X0.27600 Y5.96112
X0.27500 Y5.96112
X0.27500 Y5.96012
X0.27400 Y5.96012
X0.27400 Y5.95912
X0.27300 Y5.95912
X0.27300 Y5.95812
X0.27200 Y5.95812
X0.27200 Y5.95712
X0.27100 Y5.95712
X0.27100 Y5.95612
X0.27000 Y5.95612
X0.27000 Y5.95512
X0.26900 Y5.95512
X0.26900 Y5.95412
X0.26800 Y5.95412
X0.26800 Y5.95312
X0.26700 Y5.95312
X0.26700 Y5.95212
X0.26600 Y5.95212
X0.26600 Y5.95112
X0.26500 Y5.95112
X0.26500 Y5.95012
X0.26400 Y5.95012
X0.26400 Y5.94912
X0.26300 Y5.94912
X0.26300 Y5.94812
X0.26200 Y5.94812
X0.26200 Y5.94712
X0.26100 Y5.94712
X0.26100 Y5.94612
X0.26000 Y5.94612
X0.26000 Y5.94512
X0.25800 Y5.94512
X0.25800 Y5.94412
X0.22300 Y5.94412
X0.22300 Y5.92212
X0.13200 Y5.92212
X0.13200 Y6.00312
X0.22300 Y6.00312
X0.22300 Y5.98012
X0.23200 Y5.98012
X0.23200 Y5.98112
X0.23300 Y5.98112
X0.23300 Y5.98212
X0.23400 Y5.98212
X0.23400 Y5.98312
X0.23500 Y5.98312
X0.23500 Y5.98412
X0.23600 Y5.98412
X0.23600 Y5.98512
X0.23700 Y5.98512
X0.23700 Y5.98612
X0.23800 Y5.98612
X0.23800 Y5.98712
X0.23900 Y5.98712
X0.23900 Y5.98812
X0.24000 Y5.98812
X0.24000 Y6.04512
X0.33100 Y6.04512
X0.33100 Y6.03412
G04 P0 ( dwell for no time -- G64 should not smooth over this point )
G00 Z0.19685 ( retract )

G00 X0.11500 Y5.95512 ( rapid move to begin. )
G01 Z-0.01969 F1.96850 ( plunge. )
G04 P0 ( dwell for no time -- G64 should not smooth over this point )
X0.11500 Y5.95512
X0.11500 Y5.88512
X0.02400 Y5.88512
X0.02400 Y5.96612
X0.11500 Y5.96612
X0.11500 Y5.95512
G04 P0 ( dwell for no time -- G64 should not smooth over this point )
G00 Z0.19685 ( retract )

G00 X0.33100 Y5.91412 ( rapid move to begin. )
G01 Z-0.01969 F1.96850 ( plunge. )
G04 P0 ( dwell for no time -- G64 should not smooth over this point )
X0.33100 Y5.91412
X0.33100 Y5.84412
X0.24000 Y5.84412
X0.24000 Y5.92512
X0.33100 Y5.92512
X0.33100 Y5.91412
G04 P0 ( dwell for no time -- G64 should not smooth over this point )
G00 Z0.19685 ( retract )

G00 X0.22300 Y5.87612 ( rapid move to begin. )
G01 Z-0.01969 F1.96850 ( plunge. )
G04 P0 ( dwell for no time -- G64 should not smooth over this point )
X0.22300 Y5.87612
X0.22300 Y5.80612
X0.16900 Y5.80612
X0.16900 Y5.80512
X0.16800 Y5.80512
X0.16800 Y5.80412
X0.16700 Y5.80412
X0.16700 Y5.80312
X0.16600 Y5.80312
X0.16600 Y5.80212
X0.16500 Y5.80212
X0.16500 Y5.80112
X0.16400 Y5.80112
X0.16400 Y5.80012
X0.16300 Y5.80012
X0.16300 Y5.79912
X0.16200 Y5.79912
X0.16200 Y5.79812
X0.16100 Y5.79812
X0.16100 Y5.79712
X0.16000 Y5.79712
X0.16000 Y5.79612
X0.15900 Y5.79612
X0.15900 Y5.79512
X0.15800 Y5.79512
X0.15800 Y5.79412
X0.15700 Y5.79412
X0.15700 Y5.79312
X0.15600 Y5.79312
X0.15600 Y5.79212
X0.15500 Y5.79212
X0.15500 Y5.79112
X0.15400 Y5.79112
X0.15400 Y5.79012
X0.15300 Y5.79012
X0.15300 Y5.78912
X0.15200 Y5.78912
X0.15200 Y5.78812
X0.15000 Y5.78812
X0.15000 Y5.78712
X0.11500 Y5.78712
X0.11500 Y5.76512
X0.02400 Y5.76512
X0.02400 Y5.84612
X0.11500 Y5.84612
X0.11500 Y5.82312
X0.12400 Y5.82312
X0.12400 Y5.82412
X0.12500 Y5.82412
X0.12500 Y5.82512
X0.12600 Y5.82512
X0.12600 Y5.82612
X0.12700 Y5.82612
X0.12700 Y5.82712
X0.12800 Y5.82712
X0.12800 Y5.82812
X0.12900 Y5.82812
X0.12900 Y5.82912
X0.13000 Y5.82912
X0.13000 Y5.83012
X0.13100 Y5.83012
X0.13100 Y5.83112
X0.13200 Y5.83112
X0.13200 Y5.88712
X0.22300 Y5.88712
X0.22300 Y5.87612
G04 P0 ( dwell for no time -- G64 should not smooth over this point )
G00 Z0.19685 ( retract )

G00 X0.33100 Y5.79712 ( rapid move to begin. )
G01 Z-0.01969 F1.96850 ( plunge. )
G04 P0 ( dwell for no time -- G64 should not smooth over this point )
X0.33100 Y5.79712
X0.33100 Y5.72712
X0.27700 Y5.72712
X0.27700 Y5.72612
X0.27600 Y5.72612
X0.27600 Y5.72512
X0.27500 Y5.72512
X0.27500 Y5.72412
X0.27400 Y5.72412
X0.27400 Y5.72312
X0.27300 Y5.72312
X0.27300 Y5.72212
X0.27200 Y5.72212
X0.27200 Y5.72112
X0.27100 Y5.72112
X0.27100 Y5.72012
X0.27000 Y5.72012
X0.27000 Y5.71912
X0.26900 Y5.71912
X0.26900 Y5.71812
X0.26800 Y5.71812
X0.26800 Y5.71712
X0.26700 Y5.71712
X0.26700 Y5.71612
X0.26600 Y5.71612
X0.26600 Y5.71512
X0.26500 Y5.71512
X0.26500 Y5.71412
X0.26400 Y5.71412
X0.26400 Y5.71312
X0.26300 Y5.71312
X0.26300 Y5.71212
X0.26200 Y5.71212
X0.26200 Y5.71112
X0.26100 Y5.71112
X0.26100 Y5.71012
X0.26000 Y5.71012
X0.26000 Y5.70912
X0.25800 Y5.70912
X0.25800 Y5.70812
X0.22300 Y5.70812
X0.22300 Y5.68612
X0.13200 Y5.68612
X0.13200 Y5.76712
X0.22300 Y5.76712
X0.22300 Y5.74412
X0.23200 Y5.74412
X0.23200 Y5.74512
X0.23300 Y5.74512
X0.23300 Y5.74612
X0.23400 Y5.74612
X0.23400 Y5.74712
X0.23500 Y5.74712
X0.23500 Y5.74812
X0.23600 Y5.74812
X0.23600 Y5.74912
X0.23700 Y5.74912
X0.23700 Y5.75012
X0.23800 Y5.75012
X0.23800 Y5.75112
X0.23900 Y5.75112
X0.23900 Y5.75212
X0.24000 Y5.75212
X0.24000 Y5.80812
X0.33100 Y5.80812
X0.33100 Y5.79712
G04 P0 ( dwell for no time -- G64 should not smooth over this point )
G00 Z0.19685 ( retract )

G00 X0.11500 Y5.71912 ( rapid move to begin. )
G01 Z-0.01969 F1.96850 ( plunge. )
G04 P0 ( dwell for no time -- G64 should not smooth over this point )
X0.11500 Y5.71912
X0.11500 Y5.64912
X0.02400 Y5.64912
X0.02400 Y5.73012
X0.11500 Y5.73012
X0.11500 Y5.71912
G04 P0 ( dwell for no time -- G64 should not smooth over this point )
G00 Z0.19685 ( retract )

G00 X0.33100 Y5.67712 ( rapid move to begin. )
G01 Z-0.01969 F1.96850 ( plunge. )
G04 P0 ( dwell for no time -- G64 should not smooth over this point )
X0.33100 Y5.67712
X0.33100 Y5.60712
X0.24000 Y5.60712
X0.24000 Y5.68812
X0.33100 Y5.68812
X0.33100 Y5.67712
G04 P0 ( dwell for no time -- G64 should not smooth over this point )
G00 Z0.19685 ( retract )

G00 X0.22300 Y5.64012 ( rapid move to begin. )
G01 Z-0.01969 F1.96850 ( plunge. )
G04 P0 ( dwell for no time -- G64 should not smooth over this point )
X0.22300 Y5.64012
X0.22300 Y5.57012
X0.16900 Y5.57012
X0.16900 Y5.56912
X0.16800 Y5.56912
X0.16800 Y5.56812
X0.16700 Y5.56812
X0.16700 Y5.56712
X0.16600 Y5.56712
X0.16600 Y5.56612
X0.16500 Y5.56612
X0.16500 Y5.56512
X0.16400 Y5.56512
X0.16400 Y5.56412
X0.16300 Y5.56412
X0.16300 Y5.56312
X0.16200 Y5.56312
X0.16200 Y5.56212
X0.16100 Y5.56212
X0.16100 Y5.56112
X0.16000 Y5.56112
X0.16000 Y5.56012
X0.15900 Y5.56012
X0.15900 Y5.55912
X0.15800 Y5.55912
X0.15800 Y5.55812
X0.15700 Y5.55812
X0.15700 Y5.55712
X0.15600 Y5.55712
X0.15600 Y5.55612
X0.15500 Y5.55612
X0.15500 Y5.55512
X0.15400 Y5.55512
X0.15400 Y5.55412
X0.15300 Y5.55412
X0.15300 Y5.55312
X0.15200 Y5.55312
X0.15200 Y5.55212
X0.15000 Y5.55212
X0.15000 Y5.55112
X0.11500 Y5.55112
X0.11500 Y5.52912
X0.02400 Y5.52912
X0.02400 Y5.61012
X0.11500 Y5.61012
X0.11500 Y5.58712
X0.12400 Y5.58712
X0.12400 Y5.58812
X0.12500 Y5.58812
X0.12500 Y5.58912
X0.12600 Y5.58912
X0.12600 Y5.59012
X0.12700 Y5.59012
X0.12700 Y5.59112
X0.12800 Y5.59112
X0.12800 Y5.59212
X0.12900 Y5.59212
X0.12900 Y5.59312
X0.13000 Y5.59312
X0.13000 Y5.59412
X0.13100 Y5.59412
X0.13100 Y5.59512
X0.13200 Y5.59512
X0.13200 Y5.65112
X0.22300 Y5.65112
X0.22300 Y5.64012
G04 P0 ( dwell for no time -- G64 should not smooth over this point )
G00 Z0.19685 ( retract )

G00 X0.33100 Y5.56112 ( rapid move to begin. )
G01 Z-0.01969 F1.96850 ( plunge. )
G04 P0 ( dwell for no time -- G64 should not smooth over this point )
X0.33100 Y5.56112
X0.33100 Y5.49112
X0.27700 Y5.49112
X0.27700 Y5.49012
X0.27600 Y5.49012
X0.27600 Y5.48912
X0.27500 Y5.48912
X0.27500 Y5.48812
X0.27400 Y5.48812
X0.27400 Y5.48712
X0.27300 Y5.48712
X0.27300 Y5.48612
X0.27200 Y5.48612
X0.27200 Y5.48512
X0.27100 Y5.48512
X0.27100 Y5.48412
X0.27000 Y5.48412
X0.27000 Y5.48312
X0.26900 Y5.48312
X0.26900 Y5.48212
X0.26800 Y5.48212
X0.26800 Y5.48112
X0.26700 Y5.48112
X0.26700 Y5.48012
X0.26600 Y5.48012
X0.26600 Y5.47912
X0.26500 Y5.47912
X0.26500 Y5.47812
X0.26400 Y5.47812
X0.26400 Y5.47712
X0.26300 Y5.47712
X0.26300 Y5.47612
X0.26200 Y5.47612
X0.26200 Y5.47512
X0.26100 Y5.47512
X0.26100 Y5.47412
X0.26000 Y5.47412
X0.26000 Y5.47312
X0.25800 Y5.47312
X0.25800 Y5.47212
X0.22300 Y5.47212
X0.22300 Y5.45012
X0.13200 Y5.45012
X0.13200 Y5.53112
X0.22300 Y5.53112
X0.22300 Y5.50812
X0.23200 Y5.50812
X0.23200 Y5.50912
X0.23300 Y5.50912
X0.23300 Y5.51012
X0.23400 Y5.51012
X0.23400 Y5.51112
X0.23500 Y5.51112
X0.23500 Y5.51212
X0.23600 Y5.51212
X0.23600 Y5.51312
X0.23700 Y5.51312
X0.23700 Y5.51412
X0.23800 Y5.51412
X0.23800 Y5.51512
X0.23900 Y5.51512
X0.23900 Y5.51612
X0.24000 Y5.51612
X0.24000 Y5.57212
X0.33100 Y5.57212
X0.33100 Y5.56112
G04 P0 ( dwell for no time -- G64 should not smooth over this point )
G00 Z0.19685 ( retract )

G00 X0.11500 Y5.48212 ( rapid move to begin. )
G01 Z-0.01969 F1.96850 ( plunge. )
G04 P0 ( dwell for no time -- G64 should not smooth over this point )
X0.11500 Y5.48212
X0.11500 Y5.41212
X0.02400 Y5.41212
X0.02400 Y5.49312
X0.11500 Y5.49312
X0.11500 Y5.48212
G04 P0 ( dwell for no time -- G64 should not smooth over this point )
G00 Z0.19685 ( retract )

G00 X0.33100 Y5.44112 ( rapid move to begin. )
G01 Z-0.01969 F1.96850 ( plunge. )
G04 P0 ( dwell for no time -- G64 should not smooth over this point )
X0.33100 Y5.44112
X0.33100 Y5.37112
X0.24000 Y5.37112
X0.24000 Y5.45212
X0.33100 Y5.45212
X0.33100 Y5.44112
G04 P0 ( dwell for no time -- G64 should not smooth over this point )
G00 Z0.19685 ( retract )

G00 X0.22300 Y5.40412 ( rapid move to begin. )
G01 Z-0.01969 F1.96850 ( plunge. )
G04 P0 ( dwell for no time -- G64 should not smooth over this point )
X0.22300 Y5.40412
X0.22300 Y5.33412
X0.17000 Y5.33412
X0.17000 Y5.33312
X0.16900 Y5.33312
X0.16900 Y5.33212
X0.16800 Y5.33212
X0.16800 Y5.33112
X0.16700 Y5.33112
X0.16700 Y5.33012
X0.16600 Y5.33012
X0.16600 Y5.32912
X0.16500 Y5.32912
X0.16500 Y5.32812
X0.16400 Y5.32812
X0.16400 Y5.32712
X0.16300 Y5.32712
X0.16300 Y5.32612
X0.16200 Y5.32612
X0.16200 Y5.32512
X0.16100 Y5.32512
X0.16100 Y5.32412
X0.16000 Y5.32412
X0.16000 Y5.32312
X0.15900 Y5.32312
X0.15900 Y5.32212
X0.15800 Y5.32212
X0.15800 Y5.32112
X0.15700 Y5.32112
X0.15700 Y5.32012
X0.15600 Y5.32012
X0.15600 Y5.31912
X0.15500 Y5.31912
X0.15500 Y5.31812
X0.15400 Y5.31812
X0.15400 Y5.31712
X0.15300 Y5.31712
X0.15300 Y5.31612
X0.15200 Y5.31612
X0.15200 Y5.31512
X0.15000 Y5.31512
X0.15000 Y5.31412
X0.11500 Y5.31412
X0.11500 Y5.29212
X0.02400 Y5.29212
X0.02400 Y5.37312
X0.11500 Y5.37312
X0.11500 Y5.35012
X0.12400 Y5.35012
X0.12400 Y5.35112
X0.12500 Y5.35112
X0.12500 Y5.35212
X0.12600 Y5.35212
X0.12600 Y5.35312
X0.12700 Y5.35312
X0.12700 Y5.35412
X0.12800 Y5.35412
X0.12800 Y5.35512
X0.12900 Y5.35512
X0.12900 Y5.35612
X0.13000 Y5.35612
X0.13000 Y5.35712
X0.13100 Y5.35712
X0.13100 Y5.35812
X0.13200 Y5.35812
X0.13200 Y5.41512
X0.22300 Y5.41512
X0.22300 Y5.40412
G04 P0 ( dwell for no time -- G64 should not smooth over this point )
G00 Z0.19685 ( retract )

G00 X0.33100 Y5.32512 ( rapid move to begin. )
G01 Z-0.01969 F1.96850 ( plunge. )
G04 P0 ( dwell for no time -- G64 should not smooth over this point )
X0.33100 Y5.32512
X0.33100 Y5.25512
X0.27700 Y5.25512
X0.27700 Y5.25412
X0.27600 Y5.25412
X0.27600 Y5.25312
X0.27500 Y5.25312
X0.27500 Y5.25212
X0.27400 Y5.25212
X0.27400 Y5.25112
X0.27300 Y5.25112
X0.27300 Y5.25012
X0.27200 Y5.25012
X0.27200 Y5.24912
X0.27100 Y5.24912
X0.27100 Y5.24812
X0.27000 Y5.24812
X0.27000 Y5.24712
X0.26900 Y5.24712
X0.26900 Y5.24612
X0.26800 Y5.24612
X0.26800 Y5.24512
X0.26700 Y5.24512
X0.26700 Y5.24412
X0.26600 Y5.24412
X0.26600 Y5.24312
X0.26500 Y5.24312
X0.26500 Y5.24212
X0.26400 Y5.24212
X0.26400 Y5.24112
X0.26300 Y5.24112
X0.26300 Y5.24012
X0.26200 Y5.24012
X0.26200 Y5.23912
X0.26100 Y5.23912
X0.26100 Y5.23812
X0.26000 Y5.23812
X0.26000 Y5.23712
X0.25800 Y5.23712
X0.25800 Y5.23612
X0.22300 Y5.23612
X0.22300 Y5.21412
X0.13200 Y5.21412
X0.13200 Y5.29512
X0.22300 Y5.29512
X0.22300 Y5.27212
X0.23200 Y5.27212
X0.23200 Y5.27312
X0.23300 Y5.27312
X0.23300 Y5.27412
X0.23400 Y5.27412
X0.23400 Y5.27512
X0.23500 Y5.27512
X0.23500 Y5.27612
X0.23600 Y5.27612
X0.23600 Y5.27712
X0.23700 Y5.27712
X0.23700 Y5.27812
X0.23800 Y5.27812
X0.23800 Y5.27912
X0.23900 Y5.27912
X0.23900 Y5.28012
X0.24000 Y5.28012
X0.24000 Y5.33612
X0.33100 Y5.33612
X0.33100 Y5.32512
G04 P0 ( dwell for no time -- G64 should not smooth over this point )
G00 Z0.19685 ( retract )

G00 X0.11500 Y5.24612 ( rapid move to begin. )
G01 Z-0.01969 F1.96850 ( plunge. )
G04 P0 ( dwell for no time -- G64 should not smooth over this point )
X0.11500 Y5.24612
X0.11500 Y5.17612
X0.02400 Y5.17612
X0.02400 Y5.25712
X0.11500 Y5.25712
X0.11500 Y5.24612
G04 P0 ( dwell for no time -- G64 should not smooth over this point )
G00 Z0.19685 ( retract )

G00 X0.33100 Y5.20512 ( rapid move to begin. )
G01 Z-0.01969 F1.96850 ( plunge. )
G04 P0 ( dwell for no time -- G64 should not smooth over this point )
X0.33100 Y5.20512
X0.33100 Y5.13512
X0.24000 Y5.13512
X0.24000 Y5.21612
X0.33100 Y5.21612
X0.33100 Y5.20512
G04 P0 ( dwell for no time -- G64 should not smooth over this point )
G00 Z0.19685 ( retract )

G00 X0.22300 Y5.16812 ( rapid move to begin. )
G01 Z-0.01969 F1.96850 ( plunge. )
G04 P0 ( dwell for no time -- G64 should not smooth over this point )
X0.22300 Y5.16812
X0.22300 Y5.09812
X0.17000 Y5.09812
X0.17000 Y5.09712
X0.16900 Y5.09712
X0.16900 Y5.09612
X0.16800 Y5.09612
X0.16800 Y5.09512
X0.16700 Y5.09512
X0.16700 Y5.09412
X0.16600 Y5.09412
X0.16600 Y5.09312
X0.16500 Y5.09312
X0.16500 Y5.09212
X0.16400 Y5.09212
X0.16400 Y5.09112
X0.16300 Y5.09112
X0.16300 Y5.09012
X0.16200 Y5.09012
X0.16200 Y5.08912
X0.16100 Y5.08912
X0.16100 Y5.08812
X0.16000 Y5.08812
X0.16000 Y5.08712
X0.15900 Y5.08712
X0.15900 Y5.08612
X0.15800 Y5.08612
X0.15800 Y5.08512
X0.15700 Y5.08512
X0.15700 Y5.08412
X0.15600 Y5.08412
X0.15600 Y5.08312
X0.15500 Y5.08312
X0.15500 Y5.08212
X0.15400 Y5.08212
X0.15400 Y5.08112
X0.15300 Y5.08112
X0.15300 Y5.08012
X0.15200 Y5.08012
X0.15200 Y5.07912
X0.15000 Y5.07912
X0.15000 Y5.07812
X0.11500 Y5.07812
X0.11500 Y5.05612
X0.02400 Y5.05612
X0.02400 Y5.13712
X0.11500 Y5.13712
X0.11500 Y5.11412
X0.12400 Y5.11412
X0.12400 Y5.11512
X0.12500 Y5.11512
X0.12500 Y5.11612
X0.12600 Y5.11612
X0.12600 Y5.11712
X0.12700 Y5.11712
X0.12700 Y5.11812
X0.12800 Y5.11812
X0.12800 Y5.11912
X0.12900 Y5.11912
X0.12900 Y5.12012
X0.13000 Y5.12012
X0.13000 Y5.12112
X0.13100 Y5.12112
X0.13100 Y5.12212
X0.13200 Y5.12212
X0.13200 Y5.17912
X0.22300 Y5.17912
X0.22300 Y5.16812
G04 P0 ( dwell for no time -- G64 should not smooth over this point )
G00 Z0.19685 ( retract )

G00 X0.33100 Y5.08912 ( rapid move to begin. )
G01 Z-0.01969 F1.96850 ( plunge. )
G04 P0 ( dwell for no time -- G64 should not smooth over this point )
X0.33100 Y5.08912
X0.33100 Y5.01912
X0.27700 Y5.01912
X0.27700 Y5.01812
X0.27600 Y5.01812
X0.27600 Y5.01712
X0.27500 Y5.01712
X0.27500 Y5.01612
X0.27400 Y5.01612
X0.27400 Y5.01512
X0.27300 Y5.01512
X0.27300 Y5.01412
X0.27200 Y5.01412
X0.27200 Y5.01312
X0.27100 Y5.01312
X0.27100 Y5.01212
X0.27000 Y5.01212
X0.27000 Y5.01112
X0.26900 Y5.01112
X0.26900 Y5.01012
X0.26800 Y5.01012
X0.26800 Y5.00912
X0.26700 Y5.00912
X0.26700 Y5.00812
X0.26600 Y5.00812
X0.26600 Y5.00712
X0.26500 Y5.00712
X0.26500 Y5.00612
X0.26400 Y5.00612
X0.26400 Y5.00512
X0.26300 Y5.00512
X0.26300 Y5.00412
X0.26200 Y5.00412
X0.26200 Y5.00312
X0.26100 Y5.00312
X0.26100 Y5.00212
X0.26000 Y5.00212
X0.26000 Y5.00112
X0.25800 Y5.00112
X0.25800 Y5.00012
X0.22300 Y5.00012
X0.22300 Y4.97812
X0.13200 Y4.97812
X0.13200 Y5.05912
X0.22300 Y5.05912
X0.22300 Y5.03612
X0.23200 Y5.03612
X0.23200 Y5.03712
X0.23300 Y5.03712
X0.23300 Y5.03812
X0.23400 Y5.03812
X0.23400 Y5.03912
X0.23500 Y5.03912
X0.23500 Y5.04012
X0.23600 Y5.04012
X0.23600 Y5.04112
X0.23700 Y5.04112
X0.23700 Y5.04212
X0.23800 Y5.04212
X0.23800 Y5.04312
X0.23900 Y5.04312
X0.23900 Y5.04412
X0.24000 Y5.04412
X0.24000 Y5.10012
X0.33100 Y5.10012
X0.33100 Y5.08912
G04 P0 ( dwell for no time -- G64 should not smooth over this point )
G00 Z0.19685 ( retract )

G00 X0.11500 Y5.01012 ( rapid move to begin. )
G01 Z-0.01969 F1.96850 ( plunge. )
G04 P0 ( dwell for no time -- G64 should not smooth over this point )
X0.11500 Y5.01012
X0.11500 Y4.94012
X0.02400 Y4.94012
X0.02400 Y5.02112
X0.11500 Y5.02112
X0.11500 Y5.01012
G04 P0 ( dwell for no time -- G64 should not smooth over this point )
G00 Z0.19685 ( retract )

G00 X0.33100 Y4.96912 ( rapid move to begin. )
G01 Z-0.01969 F1.96850 ( plunge. )
G04 P0 ( dwell for no time -- G64 should not smooth over this point )
X0.33100 Y4.96912
X0.33100 Y4.89912
X0.24000 Y4.89912
X0.24000 Y4.98012
X0.33100 Y4.98012
X0.33100 Y4.96912
G04 P0 ( dwell for no time -- G64 should not smooth over this point )
G00 Z0.19685 ( retract )

G00 X0.22300 Y4.93112 ( rapid move to begin. )
G01 Z-0.01969 F1.96850 ( plunge. )
G04 P0 ( dwell for no time -- G64 should not smooth over this point )
X0.22300 Y4.93112
X0.22300 Y4.86112
X0.16900 Y4.86112
X0.16900 Y4.86012
X0.16800 Y4.86012
X0.16800 Y4.85912
X0.16700 Y4.85912
X0.16700 Y4.85812
X0.16600 Y4.85812
X0.16600 Y4.85712
X0.16500 Y4.85712
X0.16500 Y4.85612
X0.16400 Y4.85612
X0.16400 Y4.85512
X0.16300 Y4.85512
X0.16300 Y4.85412
X0.16200 Y4.85412
X0.16200 Y4.85312
X0.16100 Y4.85312
X0.16100 Y4.85212
X0.16000 Y4.85212
X0.16000 Y4.85112
X0.15900 Y4.85112
X0.15900 Y4.85012
X0.15800 Y4.85012
X0.15800 Y4.84912
X0.15700 Y4.84912
X0.15700 Y4.84812
X0.15600 Y4.84812
X0.15600 Y4.84712
X0.15500 Y4.84712
X0.15500 Y4.84612
X0.15400 Y4.84612
X0.15400 Y4.84512
X0.15300 Y4.84512
X0.15300 Y4.84412
X0.15200 Y4.84412
X0.15200 Y4.84312
X0.15000 Y4.84312
X0.15000 Y4.84212
X0.11500 Y4.84212
X0.11500 Y4.82012
X0.02400 Y4.82012
X0.02400 Y4.90112
X0.11500 Y4.90112
X0.11500 Y4.87812
X0.12400 Y4.87812
X0.12400 Y4.87912
X0.12500 Y4.87912
X0.12500 Y4.88012
X0.12600 Y4.88012
X0.12600 Y4.88112
X0.12700 Y4.88112
X0.12700 Y4.88212
X0.12800 Y4.88212
X0.12800 Y4.88312
X0.12900 Y4.88312
X0.12900 Y4.88412
X0.13000 Y4.88412
X0.13000 Y4.88512
X0.13100 Y4.88512
X0.13100 Y4.88612
X0.13200 Y4.88612
X0.13200 Y4.94212
X0.22300 Y4.94212
X0.22300 Y4.93112
G04 P0 ( dwell for no time -- G64 should not smooth over this point )
G00 Z0.19685 ( retract )

G00 X0.33100 Y4.85312 ( rapid move to begin. )
G01 Z-0.01969 F1.96850 ( plunge. )
G04 P0 ( dwell for no time -- G64 should not smooth over this point )
X0.33100 Y4.85312
X0.33100 Y4.78312
X0.27800 Y4.78312
X0.27800 Y4.78212
X0.27700 Y4.78212
X0.27700 Y4.78112
X0.27600 Y4.78112
X0.27600 Y4.78012
X0.27500 Y4.78012
X0.27500 Y4.77912
X0.27400 Y4.77912
X0.27400 Y4.77812
X0.27300 Y4.77812
X0.27300 Y4.77712
X0.27200 Y4.77712
X0.27200 Y4.77612
X0.27100 Y4.77612
X0.27100 Y4.77512
X0.27000 Y4.77512
X0.27000 Y4.77412
X0.26900 Y4.77412
X0.26900 Y4.77312
X0.26800 Y4.77312
X0.26800 Y4.77212
X0.26700 Y4.77212
X0.26700 Y4.77112
X0.26600 Y4.77112
X0.26600 Y4.77012
X0.26500 Y4.77012
X0.26500 Y4.76912
X0.26400 Y4.76912
X0.26400 Y4.76812
X0.26300 Y4.76812
X0.26300 Y4.76712
X0.26200 Y4.76712
X0.26200 Y4.76612
X0.26100 Y4.76612
X0.26100 Y4.76512
X0.26000 Y4.76512
X0.26000 Y4.76412
X0.25800 Y4.76412
X0.25800 Y4.76312
X0.22300 Y4.76312
X0.22300 Y4.74112
X0.13200 Y4.74112
X0.13200 Y4.82212
X0.22300 Y4.82212
X0.22300 Y4.79912
X0.23200 Y4.79912
X0.23200 Y4.80012
X0.23300 Y4.80012
X0.23300 Y4.80112
X0.23400 Y4.80112
X0.23400 Y4.80212
X0.23500 Y4.80212
X0.23500 Y4.80312
X0.23600 Y4.80312
X0.23600 Y4.80412
X0.23700 Y4.80412
X0.23700 Y4.80512
X0.23800 Y4.80512
X0.23800 Y4.80612
X0.23900 Y4.80612
X0.23900 Y4.80712
X0.24000 Y4.80712
X0.24000 Y4.86412
X0.33100 Y4.86412
X0.33100 Y4.85312
G04 P0 ( dwell for no time -- G64 should not smooth over this point )
G00 Z0.19685 ( retract )

G00 X0.11500 Y4.77412 ( rapid move to begin. )
G01 Z-0.01969 F1.96850 ( plunge. )
G04 P0 ( dwell for no time -- G64 should not smooth over this point )
X0.11500 Y4.77412
X0.11500 Y4.70412
X0.02400 Y4.70412
X0.02400 Y4.78512
X0.11500 Y4.78512
X0.11500 Y4.77412
G04 P0 ( dwell for no time -- G64 should not smooth over this point )
G00 Z0.19685 ( retract )

G00 X0.33100 Y4.73312 ( rapid move to begin. )
G01 Z-0.01969 F1.96850 ( plunge. )
G04 P0 ( dwell for no time -- G64 should not smooth over this point )
X0.33100 Y4.73312
X0.33100 Y4.66312
X0.24000 Y4.66312
X0.24000 Y4.74412
X0.33100 Y4.74412
X0.33100 Y4.73312
G04 P0 ( dwell for no time -- G64 should not smooth over this point )
G00 Z0.19685 ( retract )

G00 X0.22300 Y4.69512 ( rapid move to begin. )
G01 Z-0.01969 F1.96850 ( plunge. )
G04 P0 ( dwell for no time -- G64 should not smooth over this point )
X0.22300 Y4.69512
X0.22300 Y4.62512
X0.16900 Y4.62512
X0.16900 Y4.62412
X0.16800 Y4.62412
X0.16800 Y4.62312
X0.16700 Y4.62312
X0.16700 Y4.62212
X0.16600 Y4.62212
X0.16600 Y4.62112
X0.16500 Y4.62112
X0.16500 Y4.62012
X0.16400 Y4.62012
X0.16400 Y4.61912
X0.16300 Y4.61912
X0.16300 Y4.61812
X0.16200 Y4.61812
X0.16200 Y4.61712
X0.16100 Y4.61712
X0.16100 Y4.61612
X0.16000 Y4.61612
X0.16000 Y4.61512
X0.15900 Y4.61512
X0.15900 Y4.61412
X0.15800 Y4.61412
X0.15800 Y4.61312
X0.15700 Y4.61312
X0.15700 Y4.61212
X0.15600 Y4.61212
X0.15600 Y4.61112
X0.15500 Y4.61112
X0.15500 Y4.61012
X0.15400 Y4.61012
X0.15400 Y4.60912
X0.15300 Y4.60912
X0.15300 Y4.60812
X0.15200 Y4.60812
X0.15200 Y4.60712
X0.15000 Y4.60712
X0.15000 Y4.60612
X0.11500 Y4.60612
X0.11500 Y4.58412
X0.02400 Y4.58412
X0.02400 Y4.66512
X0.11500 Y4.66512
X0.11500 Y4.64212
X0.12400 Y4.64212
X0.12400 Y4.64312
X0.12500 Y4.64312
X0.12500 Y4.64412
X0.12600 Y4.64412
X0.12600 Y4.64512
X0.12700 Y4.64512
X0.12700 Y4.64612
X0.12800 Y4.64612
X0.12800 Y4.64712
X0.12900 Y4.64712
X0.12900 Y4.64812
X0.13000 Y4.64812
X0.13000 Y4.64912
X0.13100 Y4.64912
X0.13100 Y4.65012
X0.13200 Y4.65012
X0.13200 Y4.70612
X0.22300 Y4.70612
X0.22300 Y4.69512
G04 P0 ( dwell for no time -- G64 should not smooth over this point )
G00 Z0.19685 ( retract )

G00 X0.33100 Y4.61612 ( rapid move to begin. )
G01 Z-0.01969 F1.96850 ( plunge. )
G04 P0 ( dwell for no time -- G64 should not smooth over this point )
X0.33100 Y4.61612
X0.33100 Y4.54612
X0.27700 Y4.54612
X0.27700 Y4.54512
X0.27600 Y4.54512
X0.27600 Y4.54412
X0.27500 Y4.54412
X0.27500 Y4.54312
X0.27400 Y4.54312
X0.27400 Y4.54212
X0.27300 Y4.54212
X0.27300 Y4.54112
X0.27200 Y4.54112
X0.27200 Y4.54012
X0.27100 Y4.54012
X0.27100 Y4.53912
X0.27000 Y4.53912
X0.27000 Y4.53812
X0.26900 Y4.53812
X0.26900 Y4.53712
X0.26800 Y4.53712
X0.26800 Y4.53612
X0.26700 Y4.53612
X0.26700 Y4.53512
X0.26600 Y4.53512
X0.26600 Y4.53412
X0.26500 Y4.53412
X0.26500 Y4.53312
X0.26400 Y4.53312
X0.26400 Y4.53212
X0.26300 Y4.53212
X0.26300 Y4.53112
X0.26200 Y4.53112
X0.26200 Y4.53012
X0.26100 Y4.53012
X0.26100 Y4.52912
X0.26000 Y4.52912
X0.26000 Y4.52812
X0.25800 Y4.52812
X0.25800 Y4.52712
X0.22300 Y4.52712
X0.22300 Y4.50512
X0.13200 Y4.50512
X0.13200 Y4.58612
X0.22300 Y4.58612
X0.22300 Y4.56312
X0.23200 Y4.56312
X0.23200 Y4.56412
X0.23300 Y4.56412
X0.23300 Y4.56512
X0.23400 Y4.56512
X0.23400 Y4.56612
X0.23500 Y4.56612
X0.23500 Y4.56712
X0.23600 Y4.56712
X0.23600 Y4.56812
X0.23700 Y4.56812
X0.23700 Y4.56912
X0.23800 Y4.56912
X0.23800 Y4.57012
X0.23900 Y4.57012
X0.23900 Y4.57112
X0.24000 Y4.57112
X0.24000 Y4.62712
X0.33100 Y4.62712
X0.33100 Y4.61612
G04 P0 ( dwell for no time -- G64 should not smooth over this point )
G00 Z0.19685 ( retract )

G00 X0.11500 Y4.53812 ( rapid move to begin. )
G01 Z-0.01969 F1.96850 ( plunge. )
G04 P0 ( dwell for no time -- G64 should not smooth over this point )
X0.11500 Y4.53812
X0.11500 Y4.46812
X0.02400 Y4.46812
X0.02400 Y4.54912
X0.11500 Y4.54912
X0.11500 Y4.53812
G04 P0 ( dwell for no time -- G64 should not smooth over this point )
G00 Z0.19685 ( retract )

G00 X0.33100 Y4.49612 ( rapid move to begin. )
G01 Z-0.01969 F1.96850 ( plunge. )
G04 P0 ( dwell for no time -- G64 should not smooth over this point )
X0.33100 Y4.49612
X0.33100 Y4.42612
X0.24000 Y4.42612
X0.24000 Y4.50712
X0.33100 Y4.50712
X0.33100 Y4.49612
G04 P0 ( dwell for no time -- G64 should not smooth over this point )
G00 Z0.19685 ( retract )

G00 X0.22300 Y4.45912 ( rapid move to begin. )
G01 Z-0.01969 F1.96850 ( plunge. )
G04 P0 ( dwell for no time -- G64 should not smooth over this point )
X0.22300 Y4.45912
X0.22300 Y4.38912
X0.16900 Y4.38912
X0.16900 Y4.38812
X0.16800 Y4.38812
X0.16800 Y4.38712
X0.16700 Y4.38712
X0.16700 Y4.38612
X0.16600 Y4.38612
X0.16600 Y4.38512
X0.16500 Y4.38512
X0.16500 Y4.38412
X0.16400 Y4.38412
X0.16400 Y4.38312
X0.16300 Y4.38312
X0.16300 Y4.38212
X0.16200 Y4.38212
X0.16200 Y4.38112
X0.16100 Y4.38112
X0.16100 Y4.38012
X0.16000 Y4.38012
X0.16000 Y4.37912
X0.15900 Y4.37912
X0.15900 Y4.37812
X0.15800 Y4.37812
X0.15800 Y4.37712
X0.15700 Y4.37712
X0.15700 Y4.37612
X0.15600 Y4.37612
X0.15600 Y4.37512
X0.15500 Y4.37512
X0.15500 Y4.37412
X0.15400 Y4.37412
X0.15400 Y4.37312
X0.15300 Y4.37312
X0.15300 Y4.37212
X0.15200 Y4.37212
X0.15200 Y4.37112
X0.15000 Y4.37112
X0.15000 Y4.37012
X0.11500 Y4.37012
X0.11500 Y4.34812
X0.02400 Y4.34812
X0.02400 Y4.42912
X0.11500 Y4.42912
X0.11500 Y4.40612
X0.12400 Y4.40612
X0.12400 Y4.40712
X0.12500 Y4.40712
X0.12500 Y4.40812
X0.12600 Y4.40812
X0.12600 Y4.40912
X0.12700 Y4.40912
X0.12700 Y4.41012
X0.12800 Y4.41012
X0.12800 Y4.41112
X0.12900 Y4.41112
X0.12900 Y4.41212
X0.13000 Y4.41212
X0.13000 Y4.41312
X0.13100 Y4.41312
X0.13100 Y4.41412
X0.13200 Y4.41412
X0.13200 Y4.47012
X0.22300 Y4.47012
X0.22300 Y4.45912
G04 P0 ( dwell for no time -- G64 should not smooth over this point )
G00 Z0.19685 ( retract )

G00 X0.33100 Y4.38012 ( rapid move to begin. )
G01 Z-0.01969 F1.96850 ( plunge. )
G04 P0 ( dwell for no time -- G64 should not smooth over this point )
X0.33100 Y4.38012
X0.33100 Y4.31012
X0.27700 Y4.31012
X0.27700 Y4.30912
X0.27600 Y4.30912
X0.27600 Y4.30812
X0.27500 Y4.30812
X0.27500 Y4.30712
X0.27400 Y4.30712
X0.27400 Y4.30612
X0.27300 Y4.30612
X0.27300 Y4.30512
X0.27200 Y4.30512
X0.27200 Y4.30412
X0.27100 Y4.30412
X0.27100 Y4.30312
X0.27000 Y4.30312
X0.27000 Y4.30212
X0.26900 Y4.30212
X0.26900 Y4.30112
X0.26800 Y4.30112
X0.26800 Y4.30012
X0.26700 Y4.30012
X0.26700 Y4.29912
X0.26600 Y4.29912
X0.26600 Y4.29812
X0.26500 Y4.29812
X0.26500 Y4.29712
X0.26400 Y4.29712
X0.26400 Y4.29612
X0.26300 Y4.29612
X0.26300 Y4.29512
X0.26200 Y4.29512
X0.26200 Y4.29412
X0.26100 Y4.29412
X0.26100 Y4.29312
X0.26000 Y4.29312
X0.26000 Y4.29212
X0.25800 Y4.29212
X0.25800 Y4.29112
X0.22300 Y4.29112
X0.22300 Y4.26912
X0.13200 Y4.26912
X0.13200 Y4.35012
X0.22300 Y4.35012
X0.22300 Y4.32712
X0.23200 Y4.32712
X0.23200 Y4.32812
X0.23300 Y4.32812
X0.23300 Y4.32912
X0.23400 Y4.32912
X0.23400 Y4.33012
X0.23500 Y4.33012
X0.23500 Y4.33112
X0.23600 Y4.33112
X0.23600 Y4.33212
X0.23700 Y4.33212
X0.23700 Y4.33312
X0.23800 Y4.33312
X0.23800 Y4.33412
X0.23900 Y4.33412
X0.23900 Y4.33512
X0.24000 Y4.33512
X0.24000 Y4.39112
X0.33100 Y4.39112
X0.33100 Y4.38012
G04 P0 ( dwell for no time -- G64 should not smooth over this point )
G00 Z0.19685 ( retract )

G00 X0.11500 Y4.30112 ( rapid move to begin. )
G01 Z-0.01969 F1.96850 ( plunge. )
G04 P0 ( dwell for no time -- G64 should not smooth over this point )
X0.11500 Y4.30112
X0.11500 Y4.23112
X0.02400 Y4.23112
X0.02400 Y4.31212
X0.11500 Y4.31212
X0.11500 Y4.30112
G04 P0 ( dwell for no time -- G64 should not smooth over this point )
G00 Z0.19685 ( retract )

G00 X0.33100 Y4.26012 ( rapid move to begin. )
G01 Z-0.01969 F1.96850 ( plunge. )
G04 P0 ( dwell for no time -- G64 should not smooth over this point )
X0.33100 Y4.26012
X0.33100 Y4.19012
X0.24000 Y4.19012
X0.24000 Y4.27112
X0.33100 Y4.27112
X0.33100 Y4.26012
G04 P0 ( dwell for no time -- G64 should not smooth over this point )
G00 Z0.19685 ( retract )

G00 X0.22300 Y4.22312 ( rapid move to begin. )
G01 Z-0.01969 F1.96850 ( plunge. )
G04 P0 ( dwell for no time -- G64 should not smooth over this point )
X0.22300 Y4.22312
X0.22300 Y4.15312
X0.17000 Y4.15312
X0.17000 Y4.15212
X0.16900 Y4.15212
X0.16900 Y4.15112
X0.16800 Y4.15112
X0.16800 Y4.15012
X0.16700 Y4.15012
X0.16700 Y4.14912
X0.16600 Y4.14912
X0.16600 Y4.14812
X0.16500 Y4.14812
X0.16500 Y4.14712
X0.16400 Y4.14712
X0.16400 Y4.14612
X0.16300 Y4.14612
X0.16300 Y4.14512
X0.16200 Y4.14512
X0.16200 Y4.14412
X0.16100 Y4.14412
X0.16100 Y4.14312
X0.16000 Y4.14312
X0.16000 Y4.14212
X0.15900 Y4.14212
X0.15900 Y4.14112
X0.15800 Y4.14112
X0.15800 Y4.14012
X0.15700 Y4.14012
X0.15700 Y4.13912
X0.15600 Y4.13912
X0.15600 Y4.13812
X0.15500 Y4.13812
X0.15500 Y4.13712
X0.15400 Y4.13712
X0.15400 Y4.13612
X0.15300 Y4.13612
X0.15300 Y4.13512
X0.15200 Y4.13512
X0.15200 Y4.13412
X0.15000 Y4.13412
X0.15000 Y4.13312
X0.11500 Y4.13312
X0.11500 Y4.11112
X0.02400 Y4.11112
X0.02400 Y4.19212
X0.11500 Y4.19212
X0.11500 Y4.16912
X0.12400 Y4.16912
X0.12400 Y4.17012
X0.12500 Y4.17012
X0.12500 Y4.17112
X0.12600 Y4.17112
X0.12600 Y4.17212
X0.12700 Y4.17212
X0.12700 Y4.17312
X0.12800 Y4.17312
X0.12800 Y4.17412
X0.12900 Y4.17412
X0.12900 Y4.17512
X0.13000 Y4.17512
X0.13000 Y4.17612
X0.13100 Y4.17612
X0.13100 Y4.17712
X0.13200 Y4.17712
X0.13200 Y4.23412
X0.22300 Y4.23412
X0.22300 Y4.22312
G04 P0 ( dwell for no time -- G64 should not smooth over this point )
G00 Z0.19685 ( retract )

G00 X0.33100 Y4.14412 ( rapid move to begin. )
G01 Z-0.01969 F1.96850 ( plunge. )
G04 P0 ( dwell for no time -- G64 should not smooth over this point )
X0.33100 Y4.14412
X0.33100 Y4.07412
X0.27700 Y4.07412
X0.27700 Y4.07312
X0.27600 Y4.07312
X0.27600 Y4.07212
X0.27500 Y4.07212
X0.27500 Y4.07112
X0.27400 Y4.07112
X0.27400 Y4.07012
X0.27300 Y4.07012
X0.27300 Y4.06912
X0.27200 Y4.06912
X0.27200 Y4.06812
X0.27100 Y4.06812
X0.27100 Y4.06712
X0.27000 Y4.06712
X0.27000 Y4.06612
X0.26900 Y4.06612
X0.26900 Y4.06512
X0.26800 Y4.06512
X0.26800 Y4.06412
X0.26700 Y4.06412
X0.26700 Y4.06312
X0.26600 Y4.06312
X0.26600 Y4.06212
X0.26500 Y4.06212
X0.26500 Y4.06112
X0.26400 Y4.06112
X0.26400 Y4.06012
X0.26300 Y4.06012
X0.26300 Y4.05912
X0.26200 Y4.05912
X0.26200 Y4.05812
X0.26100 Y4.05812
X0.26100 Y4.05712
X0.26000 Y4.05712
X0.26000 Y4.05612
X0.25800 Y4.05612
X0.25800 Y4.05512
X0.22300 Y4.05512
X0.22300 Y4.03312
X0.13200 Y4.03312
X0.13200 Y4.11412
X0.22300 Y4.11412
X0.22300 Y4.09112
X0.23200 Y4.09112
X0.23200 Y4.09212
X0.23300 Y4.09212
X0.23300 Y4.09312
X0.23400 Y4.09312
X0.23400 Y4.09412
X0.23500 Y4.09412
X0.23500 Y4.09512
X0.23600 Y4.09512
X0.23600 Y4.09612
X0.23700 Y4.09612
X0.23700 Y4.09712
X0.23800 Y4.09712
X0.23800 Y4.09812
X0.23900 Y4.09812
X0.23900 Y4.09912
X0.24000 Y4.09912
X0.24000 Y4.15512
X0.33100 Y4.15512
X0.33100 Y4.14412
G04 P0 ( dwell for no time -- G64 should not smooth over this point )
G00 Z0.19685 ( retract )

G00 X0.11500 Y4.06512 ( rapid move to begin. )
G01 Z-0.01969 F1.96850 ( plunge. )
G04 P0 ( dwell for no time -- G64 should not smooth over this point )
X0.11500 Y4.06512
X0.11500 Y3.99512
X0.02400 Y3.99512
X0.02400 Y4.07612
X0.11500 Y4.07612
X0.11500 Y4.06512
G04 P0 ( dwell for no time -- G64 should not smooth over this point )
G00 Z0.19685 ( retract )

G00 X0.33100 Y4.02412 ( rapid move to begin. )
G01 Z-0.01969 F1.96850 ( plunge. )
G04 P0 ( dwell for no time -- G64 should not smooth over this point )
X0.33100 Y4.02412
X0.33100 Y3.95412
X0.24000 Y3.95412
X0.24000 Y4.03512
X0.33100 Y4.03512
X0.33100 Y4.02412
G04 P0 ( dwell for no time -- G64 should not smooth over this point )
G00 Z0.19685 ( retract )

G00 X0.22300 Y3.98612 ( rapid move to begin. )
G01 Z-0.01969 F1.96850 ( plunge. )
G04 P0 ( dwell for no time -- G64 should not smooth over this point )
X0.22300 Y3.98612
X0.22300 Y3.91612
X0.16900 Y3.91612
X0.16900 Y3.91512
X0.16800 Y3.91512
X0.16800 Y3.91412
X0.16700 Y3.91412
X0.16700 Y3.91312
X0.16600 Y3.91312
X0.16600 Y3.91212
X0.16500 Y3.91212
X0.16500 Y3.91112
X0.16400 Y3.91112
X0.16400 Y3.91012
X0.16300 Y3.91012
X0.16300 Y3.90912
X0.16200 Y3.90912
X0.16200 Y3.90812
X0.16100 Y3.90812
X0.16100 Y3.90712
X0.16000 Y3.90712
X0.16000 Y3.90612
X0.15900 Y3.90612
X0.15900 Y3.90512
X0.15800 Y3.90512
X0.15800 Y3.90412
X0.15700 Y3.90412
X0.15700 Y3.90312
X0.15600 Y3.90312
X0.15600 Y3.90212
X0.15500 Y3.90212
X0.15500 Y3.90112
X0.15400 Y3.90112
X0.15400 Y3.90012
X0.15300 Y3.90012
X0.15300 Y3.89912
X0.15200 Y3.89912
X0.15200 Y3.89812
X0.15000 Y3.89812
X0.15000 Y3.89712
X0.11500 Y3.89712
X0.11500 Y3.87512
X0.02400 Y3.87512
X0.02400 Y3.95612
X0.11500 Y3.95612
X0.11500 Y3.93312
X0.12400 Y3.93312
X0.12400 Y3.93412
X0.12500 Y3.93412
X0.12500 Y3.93512
X0.12600 Y3.93512
X0.12600 Y3.93612
X0.12700 Y3.93612
X0.12700 Y3.93712
X0.12800 Y3.93712
X0.12800 Y3.93812
X0.12900 Y3.93812
X0.12900 Y3.93912
X0.13000 Y3.93912
X0.13000 Y3.94012
X0.13100 Y3.94012
X0.13100 Y3.94112
X0.13200 Y3.94112
X0.13200 Y3.99712
X0.22300 Y3.99712
X0.22300 Y3.98612
G04 P0 ( dwell for no time -- G64 should not smooth over this point )
G00 Z0.19685 ( retract )

G00 X0.33100 Y3.90812 ( rapid move to begin. )
G01 Z-0.01969 F1.96850 ( plunge. )
G04 P0 ( dwell for no time -- G64 should not smooth over this point )
X0.33100 Y3.90812
X0.33100 Y3.83812
X0.27800 Y3.83812
X0.27800 Y3.83712
X0.27700 Y3.83712
X0.27700 Y3.83612
X0.27600 Y3.83612
X0.27600 Y3.83512
X0.27500 Y3.83512
X0.27500 Y3.83412
X0.27400 Y3.83412
X0.27400 Y3.83312
X0.27300 Y3.83312
X0.27300 Y3.83212
X0.27200 Y3.83212
X0.27200 Y3.83112
X0.27100 Y3.83112
X0.27100 Y3.83012
X0.27000 Y3.83012
X0.27000 Y3.82912
X0.26900 Y3.82912
X0.26900 Y3.82812
X0.26800 Y3.82812
X0.26800 Y3.82712
X0.26700 Y3.82712
X0.26700 Y3.82612
X0.26600 Y3.82612
X0.26600 Y3.82512
X0.26500 Y3.82512
X0.26500 Y3.82412
X0.26400 Y3.82412
X0.26400 Y3.82312
X0.26300 Y3.82312
X0.26300 Y3.82212
X0.26200 Y3.82212
X0.26200 Y3.82112
X0.26100 Y3.82112
X0.26100 Y3.82012
X0.26000 Y3.82012
X0.26000 Y3.81912
X0.25800 Y3.81912
X0.25800 Y3.81812
X0.22300 Y3.81812
X0.22300 Y3.79612
X0.13200 Y3.79612
X0.13200 Y3.87712
X0.22300 Y3.87712
X0.22300 Y3.85412
X0.23200 Y3.85412
X0.23200 Y3.85512
X0.23300 Y3.85512
X0.23300 Y3.85612
X0.23400 Y3.85612
X0.23400 Y3.85712
X0.23500 Y3.85712
X0.23500 Y3.85812
X0.23600 Y3.85812
X0.23600 Y3.85912
X0.23700 Y3.85912
X0.23700 Y3.86012
X0.23800 Y3.86012
X0.23800 Y3.86112
X0.23900 Y3.86112
X0.23900 Y3.86212
X0.24000 Y3.86212
X0.24000 Y3.91912
X0.33100 Y3.91912
X0.33100 Y3.90812
G04 P0 ( dwell for no time -- G64 should not smooth over this point )
G00 Z0.19685 ( retract )

G00 X0.11500 Y3.82912 ( rapid move to begin. )
G01 Z-0.01969 F1.96850 ( plunge. )
G04 P0 ( dwell for no time -- G64 should not smooth over this point )
X0.11500 Y3.82912
X0.11500 Y3.75912
X0.02400 Y3.75912
X0.02400 Y3.84012
X0.11500 Y3.84012
X0.11500 Y3.82912
G04 P0 ( dwell for no time -- G64 should not smooth over this point )
G00 Z0.19685 ( retract )

G00 X0.33100 Y3.78812 ( rapid move to begin. )
G01 Z-0.01969 F1.96850 ( plunge. )
G04 P0 ( dwell for no time -- G64 should not smooth over this point )
X0.33100 Y3.78812
X0.33100 Y3.71812
X0.24000 Y3.71812
X0.24000 Y3.79912
X0.33100 Y3.79912
X0.33100 Y3.78812
G04 P0 ( dwell for no time -- G64 should not smooth over this point )
G00 Z0.19685 ( retract )

G00 X0.22300 Y3.75012 ( rapid move to begin. )
G01 Z-0.01969 F1.96850 ( plunge. )
G04 P0 ( dwell for no time -- G64 should not smooth over this point )
X0.22300 Y3.75012
X0.22300 Y3.68012
X0.16900 Y3.68012
X0.16900 Y3.67912
X0.16800 Y3.67912
X0.16800 Y3.67812
X0.16700 Y3.67812
X0.16700 Y3.67712
X0.16600 Y3.67712
X0.16600 Y3.67612
X0.16500 Y3.67612
X0.16500 Y3.67512
X0.16400 Y3.67512
X0.16400 Y3.67412
X0.16300 Y3.67412
X0.16300 Y3.67312
X0.16200 Y3.67312
X0.16200 Y3.67212
X0.16100 Y3.67212
X0.16100 Y3.67112
X0.16000 Y3.67112
X0.16000 Y3.67012
X0.15900 Y3.67012
X0.15900 Y3.66912
X0.15800 Y3.66912
X0.15800 Y3.66812
X0.15700 Y3.66812
X0.15700 Y3.66712
X0.15600 Y3.66712
X0.15600 Y3.66612
X0.15500 Y3.66612
X0.15500 Y3.66512
X0.15400 Y3.66512
X0.15400 Y3.66412
X0.15300 Y3.66412
X0.15300 Y3.66312
X0.15200 Y3.66312
X0.15200 Y3.66212
X0.15000 Y3.66212
X0.15000 Y3.66112
X0.11500 Y3.66112
X0.11500 Y3.63912
X0.02400 Y3.63912
X0.02400 Y3.72012
X0.11500 Y3.72012
X0.11500 Y3.69712
X0.12400 Y3.69712
X0.12400 Y3.69812
X0.12500 Y3.69812
X0.12500 Y3.69912
X0.12600 Y3.69912
X0.12600 Y3.70012
X0.12700 Y3.70012
X0.12700 Y3.70112
X0.12800 Y3.70112
X0.12800 Y3.70212
X0.12900 Y3.70212
X0.12900 Y3.70312
X0.13000 Y3.70312
X0.13000 Y3.70412
X0.13100 Y3.70412
X0.13100 Y3.70512
X0.13200 Y3.70512
X0.13200 Y3.76112
X0.22300 Y3.76112
X0.22300 Y3.75012
G04 P0 ( dwell for no time -- G64 should not smooth over this point )
G00 Z0.19685 ( retract )

G00 X0.33100 Y3.67112 ( rapid move to begin. )
G01 Z-0.01969 F1.96850 ( plunge. )
G04 P0 ( dwell for no time -- G64 should not smooth over this point )
X0.33100 Y3.67112
X0.33100 Y3.60112
X0.27700 Y3.60112
X0.27700 Y3.60012
X0.27600 Y3.60012
X0.27600 Y3.59912
X0.27500 Y3.59912
X0.27500 Y3.59812
X0.27400 Y3.59812
X0.27400 Y3.59712
X0.27300 Y3.59712
X0.27300 Y3.59612
X0.27200 Y3.59612
X0.27200 Y3.59512
X0.27100 Y3.59512
X0.27100 Y3.59412
X0.27000 Y3.59412
X0.27000 Y3.59312
X0.26900 Y3.59312
X0.26900 Y3.59212
X0.26800 Y3.59212
X0.26800 Y3.59112
X0.26700 Y3.59112
X0.26700 Y3.59012
X0.26600 Y3.59012
X0.26600 Y3.58912
X0.26500 Y3.58912
X0.26500 Y3.58812
X0.26400 Y3.58812
X0.26400 Y3.58712
X0.26300 Y3.58712
X0.26300 Y3.58612
X0.26200 Y3.58612
X0.26200 Y3.58512
X0.26100 Y3.58512
X0.26100 Y3.58412
X0.26000 Y3.58412
X0.26000 Y3.58312
X0.25800 Y3.58312
X0.25800 Y3.58212
X0.22300 Y3.58212
X0.22300 Y3.56012
X0.13200 Y3.56012
X0.13200 Y3.64112
X0.22300 Y3.64112
X0.22300 Y3.61812
X0.23200 Y3.61812
X0.23200 Y3.61912
X0.23300 Y3.61912
X0.23300 Y3.62012
X0.23400 Y3.62012
X0.23400 Y3.62112
X0.23500 Y3.62112
X0.23500 Y3.62212
X0.23600 Y3.62212
X0.23600 Y3.62312
X0.23700 Y3.62312
X0.23700 Y3.62412
X0.23800 Y3.62412
X0.23800 Y3.62512
X0.23900 Y3.62512
X0.23900 Y3.62612
X0.24000 Y3.62612
X0.24000 Y3.68212
X0.33100 Y3.68212
X0.33100 Y3.67112
G04 P0 ( dwell for no time -- G64 should not smooth over this point )
G00 Z0.19685 ( retract )

G00 X0.11500 Y3.59312 ( rapid move to begin. )
G01 Z-0.01969 F1.96850 ( plunge. )
G04 P0 ( dwell for no time -- G64 should not smooth over this point )
X0.11500 Y3.59312
X0.11500 Y3.52312
X0.02400 Y3.52312
X0.02400 Y3.60412
X0.11500 Y3.60412
X0.11500 Y3.59312
G04 P0 ( dwell for no time -- G64 should not smooth over this point )
G00 Z0.19685 ( retract )

G00 X0.33100 Y3.55112 ( rapid move to begin. )
G01 Z-0.01969 F1.96850 ( plunge. )
G04 P0 ( dwell for no time -- G64 should not smooth over this point )
X0.33100 Y3.55112
X0.33100 Y3.48112
X0.24000 Y3.48112
X0.24000 Y3.56212
X0.33100 Y3.56212
X0.33100 Y3.55112
G04 P0 ( dwell for no time -- G64 should not smooth over this point )
G00 Z0.19685 ( retract )

G00 X0.22300 Y3.51412 ( rapid move to begin. )
G01 Z-0.01969 F1.96850 ( plunge. )
G04 P0 ( dwell for no time -- G64 should not smooth over this point )
X0.22300 Y3.51412
X0.22300 Y3.44412
X0.16900 Y3.44412
X0.16900 Y3.44312
X0.16800 Y3.44312
X0.16800 Y3.44212
X0.16700 Y3.44212
X0.16700 Y3.44112
X0.16600 Y3.44112
X0.16600 Y3.44012
X0.16500 Y3.44012
X0.16500 Y3.43912
X0.16400 Y3.43912
X0.16400 Y3.43812
X0.16300 Y3.43812
X0.16300 Y3.43712
X0.16200 Y3.43712
X0.16200 Y3.43612
X0.16100 Y3.43612
X0.16100 Y3.43512
X0.16000 Y3.43512
X0.16000 Y3.43412
X0.15900 Y3.43412
X0.15900 Y3.43312
X0.15800 Y3.43312
X0.15800 Y3.43212
X0.15700 Y3.43212
X0.15700 Y3.43112
X0.15600 Y3.43112
X0.15600 Y3.43012
X0.15500 Y3.43012
X0.15500 Y3.42912
X0.15400 Y3.42912
X0.15400 Y3.42812
X0.15300 Y3.42812
X0.15300 Y3.42712
X0.15200 Y3.42712
X0.15200 Y3.42612
X0.15000 Y3.42612
X0.15000 Y3.42512
X0.11500 Y3.42512
X0.11500 Y3.40312
X0.02400 Y3.40312
X0.02400 Y3.48412
X0.11500 Y3.48412
X0.11500 Y3.46112
X0.12400 Y3.46112
X0.12400 Y3.46212
X0.12500 Y3.46212
X0.12500 Y3.46312
X0.12600 Y3.46312
X0.12600 Y3.46412
X0.12700 Y3.46412
X0.12700 Y3.46512
X0.12800 Y3.46512
X0.12800 Y3.46612
X0.12900 Y3.46612
X0.12900 Y3.46712
X0.13000 Y3.46712
X0.13000 Y3.46812
X0.13100 Y3.46812
X0.13100 Y3.46912
X0.13200 Y3.46912
X0.13200 Y3.52512
X0.22300 Y3.52512
X0.22300 Y3.51412
G04 P0 ( dwell for no time -- G64 should not smooth over this point )
G00 Z0.19685 ( retract )

G00 X0.33100 Y3.43512 ( rapid move to begin. )
G01 Z-0.01969 F1.96850 ( plunge. )
G04 P0 ( dwell for no time -- G64 should not smooth over this point )
X0.33100 Y3.43512
X0.33100 Y3.36512
X0.27700 Y3.36512
X0.27700 Y3.36412
X0.27600 Y3.36412
X0.27600 Y3.36312
X0.27500 Y3.36312
X0.27500 Y3.36212
X0.27400 Y3.36212
X0.27400 Y3.36112
X0.27300 Y3.36112
X0.27300 Y3.36012
X0.27200 Y3.36012
X0.27200 Y3.35912
X0.27100 Y3.35912
X0.27100 Y3.35812
X0.27000 Y3.35812
X0.27000 Y3.35712
X0.26900 Y3.35712
X0.26900 Y3.35612
X0.26800 Y3.35612
X0.26800 Y3.35512
X0.26700 Y3.35512
X0.26700 Y3.35412
X0.26600 Y3.35412
X0.26600 Y3.35312
X0.26500 Y3.35312
X0.26500 Y3.35212
X0.26400 Y3.35212
X0.26400 Y3.35112
X0.26300 Y3.35112
X0.26300 Y3.35012
X0.26200 Y3.35012
X0.26200 Y3.34912
X0.26100 Y3.34912
X0.26100 Y3.34812
X0.26000 Y3.34812
X0.26000 Y3.34712
X0.25800 Y3.34712
X0.25800 Y3.34612
X0.22300 Y3.34612
X0.22300 Y3.32412
X0.13200 Y3.32412
X0.13200 Y3.40512
X0.22300 Y3.40512
X0.22300 Y3.38212
X0.23200 Y3.38212
X0.23200 Y3.38312
X0.23300 Y3.38312
X0.23300 Y3.38412
X0.23400 Y3.38412
X0.23400 Y3.38512
X0.23500 Y3.38512
X0.23500 Y3.38612
X0.23600 Y3.38612
X0.23600 Y3.38712
X0.23700 Y3.38712
X0.23700 Y3.38812
X0.23800 Y3.38812
X0.23800 Y3.38912
X0.23900 Y3.38912
X0.23900 Y3.39012
X0.24000 Y3.39012
X0.24000 Y3.44612
X0.33100 Y3.44612
X0.33100 Y3.43512
G04 P0 ( dwell for no time -- G64 should not smooth over this point )
G00 Z0.19685 ( retract )

G00 X0.11500 Y3.35712 ( rapid move to begin. )
G01 Z-0.01969 F1.96850 ( plunge. )
G04 P0 ( dwell for no time -- G64 should not smooth over this point )
X0.11500 Y3.35712
X0.11500 Y3.28712
X0.02400 Y3.28712
X0.02400 Y3.36812
X0.11500 Y3.36812
X0.11500 Y3.35712
G04 P0 ( dwell for no time -- G64 should not smooth over this point )
G00 Z0.19685 ( retract )

G00 X0.33100 Y3.31512 ( rapid move to begin. )
G01 Z-0.01969 F1.96850 ( plunge. )
G04 P0 ( dwell for no time -- G64 should not smooth over this point )
X0.33100 Y3.31512
X0.33100 Y3.24512
X0.24000 Y3.24512
X0.24000 Y3.32612
X0.33100 Y3.32612
X0.33100 Y3.31512
G04 P0 ( dwell for no time -- G64 should not smooth over this point )
G00 Z0.19685 ( retract )

G00 X0.22300 Y3.27812 ( rapid move to begin. )
G01 Z-0.01969 F1.96850 ( plunge. )
G04 P0 ( dwell for no time -- G64 should not smooth over this point )
X0.22300 Y3.27812
X0.22300 Y3.20812
X0.16900 Y3.20812
X0.16900 Y3.20712
X0.16800 Y3.20712
X0.16800 Y3.20612
X0.16700 Y3.20612
X0.16700 Y3.20512
X0.16600 Y3.20512
X0.16600 Y3.20412
X0.16500 Y3.20412
X0.16500 Y3.20312
X0.16400 Y3.20312
X0.16400 Y3.20212
X0.16300 Y3.20212
X0.16300 Y3.20112
X0.16200 Y3.20112
X0.16200 Y3.20012
X0.16100 Y3.20012
X0.16100 Y3.19912
X0.16000 Y3.19912
X0.16000 Y3.19812
X0.15900 Y3.19812
X0.15900 Y3.19712
X0.15800 Y3.19712
X0.15800 Y3.19612
X0.15700 Y3.19612
X0.15700 Y3.19512
X0.15600 Y3.19512
X0.15600 Y3.19412
X0.15500 Y3.19412
X0.15500 Y3.19312
X0.15400 Y3.19312
X0.15400 Y3.19212
X0.15300 Y3.19212
X0.15300 Y3.19112
X0.15200 Y3.19112
X0.15200 Y3.19012
X0.15000 Y3.19012
X0.15000 Y3.18912
X0.11500 Y3.18912
X0.11500 Y3.16712
X0.02400 Y3.16712
X0.02400 Y3.24812
X0.11500 Y3.24812
X0.11500 Y3.22512
X0.12400 Y3.22512
X0.12400 Y3.22612
X0.12500 Y3.22612
X0.12500 Y3.22712
X0.12600 Y3.22712
X0.12600 Y3.22812
X0.12700 Y3.22812
X0.12700 Y3.22912
X0.12800 Y3.22912
X0.12800 Y3.23012
X0.12900 Y3.23012
X0.12900 Y3.23112
X0.13000 Y3.23112
X0.13000 Y3.23212
X0.13100 Y3.23212
X0.13100 Y3.23312
X0.13200 Y3.23312
X0.13200 Y3.28912
X0.22300 Y3.28912
X0.22300 Y3.27812
G04 P0 ( dwell for no time -- G64 should not smooth over this point )
G00 Z0.19685 ( retract )

G00 X0.33100 Y3.19912 ( rapid move to begin. )
G01 Z-0.01969 F1.96850 ( plunge. )
G04 P0 ( dwell for no time -- G64 should not smooth over this point )
X0.33100 Y3.19912
X0.33100 Y3.12912
X0.27700 Y3.12912
X0.27700 Y3.12812
X0.27600 Y3.12812
X0.27600 Y3.12712
X0.27500 Y3.12712
X0.27500 Y3.12612
X0.27400 Y3.12612
X0.27400 Y3.12512
X0.27300 Y3.12512
X0.27300 Y3.12412
X0.27200 Y3.12412
X0.27200 Y3.12312
X0.27100 Y3.12312
X0.27100 Y3.12212
X0.27000 Y3.12212
X0.27000 Y3.12112
X0.26900 Y3.12112
X0.26900 Y3.12012
X0.26800 Y3.12012
X0.26800 Y3.11912
X0.26700 Y3.11912
X0.26700 Y3.11812
X0.26600 Y3.11812
X0.26600 Y3.11712
X0.26500 Y3.11712
X0.26500 Y3.11612
X0.26400 Y3.11612
X0.26400 Y3.11512
X0.26300 Y3.11512
X0.26300 Y3.11412
X0.26200 Y3.11412
X0.26200 Y3.11312
X0.26100 Y3.11312
X0.26100 Y3.11212
X0.26000 Y3.11212
X0.26000 Y3.11112
X0.25800 Y3.11112
X0.25800 Y3.11012
X0.22300 Y3.11012
X0.22300 Y3.08812
X0.13200 Y3.08812
X0.13200 Y3.16912
X0.22300 Y3.16912
X0.22300 Y3.14612
X0.23200 Y3.14612
X0.23200 Y3.14712
X0.23300 Y3.14712
X0.23300 Y3.14812
X0.23400 Y3.14812
X0.23400 Y3.14912
X0.23500 Y3.14912
X0.23500 Y3.15012
X0.23600 Y3.15012
X0.23600 Y3.15112
X0.23700 Y3.15112
X0.23700 Y3.15212
X0.23800 Y3.15212
X0.23800 Y3.15312
X0.23900 Y3.15312
X0.23900 Y3.15412
X0.24000 Y3.15412
X0.24000 Y3.21012
X0.33100 Y3.21012
X0.33100 Y3.19912
G04 P0 ( dwell for no time -- G64 should not smooth over this point )
G00 Z0.19685 ( retract )

G00 X0.11500 Y3.12012 ( rapid move to begin. )
G01 Z-0.01969 F1.96850 ( plunge. )
G04 P0 ( dwell for no time -- G64 should not smooth over this point )
X0.11500 Y3.12012
X0.11500 Y3.05012
X0.02400 Y3.05012
X0.02400 Y3.13112
X0.11500 Y3.13112
X0.11500 Y3.12012
G04 P0 ( dwell for no time -- G64 should not smooth over this point )
G00 Z0.19685 ( retract )

G00 X0.33100 Y3.07912 ( rapid move to begin. )
G01 Z-0.01969 F1.96850 ( plunge. )
G04 P0 ( dwell for no time -- G64 should not smooth over this point )
X0.33100 Y3.07912
X0.33100 Y3.00912
X0.24000 Y3.00912
X0.24000 Y3.09012
X0.33100 Y3.09012
X0.33100 Y3.07912
G04 P0 ( dwell for no time -- G64 should not smooth over this point )
G00 Z0.19685 ( retract )

G00 X0.22300 Y3.04212 ( rapid move to begin. )
G01 Z-0.01969 F1.96850 ( plunge. )
G04 P0 ( dwell for no time -- G64 should not smooth over this point )
X0.22300 Y3.04212
X0.22300 Y2.97212
X0.17000 Y2.97212
X0.17000 Y2.97112
X0.16900 Y2.97112
X0.16900 Y2.97012
X0.16800 Y2.97012
X0.16800 Y2.96912
X0.16700 Y2.96912
X0.16700 Y2.96812
X0.16600 Y2.96812
X0.16600 Y2.96712
X0.16500 Y2.96712
X0.16500 Y2.96612
X0.16400 Y2.96612
X0.16400 Y2.96512
X0.16300 Y2.96512
X0.16300 Y2.96412
X0.16200 Y2.96412
X0.16200 Y2.96312
X0.16100 Y2.96312
X0.16100 Y2.96212
X0.16000 Y2.96212
X0.16000 Y2.96112
X0.15900 Y2.96112
X0.15900 Y2.96012
X0.15800 Y2.96012
X0.15800 Y2.95912
X0.15700 Y2.95912
X0.15700 Y2.95812
X0.15600 Y2.95812
X0.15600 Y2.95712
X0.15500 Y2.95712
X0.15500 Y2.95612
X0.15400 Y2.95612
X0.15400 Y2.95512
X0.15300 Y2.95512
X0.15300 Y2.95412
X0.15200 Y2.95412
X0.15200 Y2.95312
X0.15000 Y2.95312
X0.15000 Y2.95212
X0.11500 Y2.95212
X0.11500 Y2.93012
X0.02400 Y2.93012
X0.02400 Y3.01112
X0.11500 Y3.01112
X0.11500 Y2.98812
X0.12400 Y2.98812
X0.12400 Y2.98912
X0.12500 Y2.98912
X0.12500 Y2.99012
X0.12600 Y2.99012
X0.12600 Y2.99112
X0.12700 Y2.99112
X0.12700 Y2.99212
X0.12800 Y2.99212
X0.12800 Y2.99312
X0.12900 Y2.99312
X0.12900 Y2.99412
X0.13000 Y2.99412
X0.13000 Y2.99512
X0.13100 Y2.99512
X0.13100 Y2.99612
X0.13200 Y2.99612
X0.13200 Y3.05312
X0.22300 Y3.05312
X0.22300 Y3.04212
G04 P0 ( dwell for no time -- G64 should not smooth over this point )
G00 Z0.19685 ( retract )

G00 X0.33100 Y2.96312 ( rapid move to begin. )
G01 Z-0.01969 F1.96850 ( plunge. )
G04 P0 ( dwell for no time -- G64 should not smooth over this point )
X0.33100 Y2.96312
X0.33100 Y2.89312
X0.27700 Y2.89312
X0.27700 Y2.89212
X0.27600 Y2.89212
X0.27600 Y2.89112
X0.27500 Y2.89112
X0.27500 Y2.89012
X0.27400 Y2.89012
X0.27400 Y2.88912
X0.27300 Y2.88912
X0.27300 Y2.88812
X0.27200 Y2.88812
X0.27200 Y2.88712
X0.27100 Y2.88712
X0.27100 Y2.88612
X0.27000 Y2.88612
X0.27000 Y2.88512
X0.26900 Y2.88512
X0.26900 Y2.88412
X0.26800 Y2.88412
X0.26800 Y2.88312
X0.26700 Y2.88312
X0.26700 Y2.88212
X0.26600 Y2.88212
X0.26600 Y2.88112
X0.26500 Y2.88112
X0.26500 Y2.88012
X0.26400 Y2.88012
X0.26400 Y2.87912
X0.26300 Y2.87912
X0.26300 Y2.87812
X0.26200 Y2.87812
X0.26200 Y2.87712
X0.26100 Y2.87712
X0.26100 Y2.87612
X0.26000 Y2.87612
X0.26000 Y2.87512
X0.25800 Y2.87512
X0.25800 Y2.87412
X0.22300 Y2.87412
X0.22300 Y2.85212
X0.13200 Y2.85212
X0.13200 Y2.93312
X0.22300 Y2.93312
X0.22300 Y2.91012
X0.23200 Y2.91012
X0.23200 Y2.91112
X0.23300 Y2.91112
X0.23300 Y2.91212
X0.23400 Y2.91212
X0.23400 Y2.91312
X0.23500 Y2.91312
X0.23500 Y2.91412
X0.23600 Y2.91412
X0.23600 Y2.91512
X0.23700 Y2.91512
X0.23700 Y2.91612
X0.23800 Y2.91612
X0.23800 Y2.91712
X0.23900 Y2.91712
X0.23900 Y2.91812
X0.24000 Y2.91812
X0.24000 Y2.97412
X0.33100 Y2.97412
X0.33100 Y2.96312
G04 P0 ( dwell for no time -- G64 should not smooth over this point )
G00 Z0.19685 ( retract )

G00 X0.11500 Y2.88412 ( rapid move to begin. )
G01 Z-0.01969 F1.96850 ( plunge. )
G04 P0 ( dwell for no time -- G64 should not smooth over this point )
X0.11500 Y2.88412
X0.11500 Y2.81412
X0.02400 Y2.81412
X0.02400 Y2.89512
X0.11500 Y2.89512
X0.11500 Y2.88412
G04 P0 ( dwell for no time -- G64 should not smooth over this point )
G00 Z0.19685 ( retract )

G00 X0.33100 Y2.84312 ( rapid move to begin. )
G01 Z-0.01969 F1.96850 ( plunge. )
G04 P0 ( dwell for no time -- G64 should not smooth over this point )
X0.33100 Y2.84312
X0.33100 Y2.77312
X0.24000 Y2.77312
X0.24000 Y2.85412
X0.33100 Y2.85412
X0.33100 Y2.84312
G04 P0 ( dwell for no time -- G64 should not smooth over this point )
G00 Z0.19685 ( retract )

G00 X0.22300 Y2.80512 ( rapid move to begin. )
G01 Z-0.01969 F1.96850 ( plunge. )
G04 P0 ( dwell for no time -- G64 should not smooth over this point )
X0.22300 Y2.80512
X0.22300 Y2.73512
X0.16900 Y2.73512
X0.16900 Y2.73412
X0.16800 Y2.73412
X0.16800 Y2.73312
X0.16700 Y2.73312
X0.16700 Y2.73212
X0.16600 Y2.73212
X0.16600 Y2.73112
X0.16500 Y2.73112
X0.16500 Y2.73012
X0.16400 Y2.73012
X0.16400 Y2.72912
X0.16300 Y2.72912
X0.16300 Y2.72812
X0.16200 Y2.72812
X0.16200 Y2.72712
X0.16100 Y2.72712
X0.16100 Y2.72612
X0.16000 Y2.72612
X0.16000 Y2.72512
X0.15900 Y2.72512
X0.15900 Y2.72412
X0.15800 Y2.72412
X0.15800 Y2.72312
X0.15700 Y2.72312
X0.15700 Y2.72212
X0.15600 Y2.72212
X0.15600 Y2.72112
X0.15500 Y2.72112
X0.15500 Y2.72012
X0.15400 Y2.72012
X0.15400 Y2.71912
X0.15300 Y2.71912
X0.15300 Y2.71812
X0.15200 Y2.71812
X0.15200 Y2.71712
X0.15000 Y2.71712
X0.15000 Y2.71612
X0.11500 Y2.71612
X0.11500 Y2.69412
X0.02400 Y2.69412
X0.02400 Y2.77512
X0.11500 Y2.77512
X0.11500 Y2.75212
X0.12400 Y2.75212
X0.12400 Y2.75312
X0.12500 Y2.75312
X0.12500 Y2.75412
X0.12600 Y2.75412
X0.12600 Y2.75512
X0.12700 Y2.75512
X0.12700 Y2.75612
X0.12800 Y2.75612
X0.12800 Y2.75712
X0.12900 Y2.75712
X0.12900 Y2.75812
X0.13000 Y2.75812
X0.13000 Y2.75912
X0.13100 Y2.75912
X0.13100 Y2.76012
X0.13200 Y2.76012
X0.13200 Y2.81612
X0.22300 Y2.81612
X0.22300 Y2.80512
G04 P0 ( dwell for no time -- G64 should not smooth over this point )
G00 Z0.19685 ( retract )

G00 X0.33100 Y2.72712 ( rapid move to begin. )
G01 Z-0.01969 F1.96850 ( plunge. )
G04 P0 ( dwell for no time -- G64 should not smooth over this point )
X0.33100 Y2.72712
X0.33100 Y2.65712
X0.27800 Y2.65712
X0.27800 Y2.65612
X0.27700 Y2.65612
X0.27700 Y2.65512
X0.27600 Y2.65512
X0.27600 Y2.65412
X0.27500 Y2.65412
X0.27500 Y2.65312
X0.27400 Y2.65312
X0.27400 Y2.65212
X0.27300 Y2.65212
X0.27300 Y2.65112
X0.27200 Y2.65112
X0.27200 Y2.65012
X0.27100 Y2.65012
X0.27100 Y2.64912
X0.27000 Y2.64912
X0.27000 Y2.64812
X0.26900 Y2.64812
X0.26900 Y2.64712
X0.26800 Y2.64712
X0.26800 Y2.64612
X0.26700 Y2.64612
X0.26700 Y2.64512
X0.26600 Y2.64512
X0.26600 Y2.64412
X0.26500 Y2.64412
X0.26500 Y2.64312
X0.26400 Y2.64312
X0.26400 Y2.64212
X0.26300 Y2.64212
X0.26300 Y2.64112
X0.26200 Y2.64112
X0.26200 Y2.64012
X0.26100 Y2.64012
X0.26100 Y2.63912
X0.26000 Y2.63912
X0.26000 Y2.63812
X0.25800 Y2.63812
X0.25800 Y2.63712
X0.22300 Y2.63712
X0.22300 Y2.61512
X0.13200 Y2.61512
X0.13200 Y2.69612
X0.22300 Y2.69612
X0.22300 Y2.67312
X0.23200 Y2.67312
X0.23200 Y2.67412
X0.23300 Y2.67412
X0.23300 Y2.67512
X0.23400 Y2.67512
X0.23400 Y2.67612
X0.23500 Y2.67612
X0.23500 Y2.67712
X0.23600 Y2.67712
X0.23600 Y2.67812
X0.23700 Y2.67812
X0.23700 Y2.67912
X0.23800 Y2.67912
X0.23800 Y2.68012
X0.23900 Y2.68012
X0.23900 Y2.68112
X0.24000 Y2.68112
X0.24000 Y2.73812
X0.33100 Y2.73812
X0.33100 Y2.72712
G04 P0 ( dwell for no time -- G64 should not smooth over this point )
G00 Z0.19685 ( retract )

G00 X0.11500 Y2.64812 ( rapid move to begin. )
G01 Z-0.01969 F1.96850 ( plunge. )
G04 P0 ( dwell for no time -- G64 should not smooth over this point )
X0.11500 Y2.64812
